P3
16 16
255
18 18 18
18 18 18
48 48 48
48 48 48
18 18 18
18 18 18
18 18 18
18 18 18
18 18 18
18 18 18
48 48 48
48 48 48
48 48 48
48 48 48
18 18 18
18 18 18
18 18 18
18 18 18
18 18 18
18 18 18
48 48 48
48 48 48
18 18 18
18 18 18
18 18 18
18 18 18
48 48 48
48 48 48
18 18 18
18 18 18
18 18 18
18 18 18
18 18 18
18 18 18
48 48 48
48 48 48
48 48 48
48 48 48
48 48 48
48 48 48
48 48 48
48 48 48
48 48 48
48 48 48
48 48 48
48 48 48
48 48 48
48 48 48
48 48 48
48 48 48
18 18 18
18 18 18
48 48 48
48 48 48
18 18 18
18 18 18
48 48 48
48 48 48
48 48 48
48 48 48
18 18 18
18 18 18
48 48 48
48 48 48
18 18 18
18 18 18
48 48 48
48 48 48
18 18 18
18 18 18
48 48 48
48 48 48
18 18 18
18 18 18
18 18 18
18 18 18
18 18 18
18 18 18
48 48 48
48 48 48
48 48 48
48 48 48
48 48 48
48 48 48
48 48 48
48 48 48
48 48 48
48 48 48
48 48 48
48 48 48
18 18 18
18 18 18
48 48 48
48 48 48
48 48 48
48 48 48
48 48 48
48 48 48
18 18 18
18 18 18
18 18 18
18 18 18
18 18 18
18 18 18
48 48 48
48 48 48
48 48 48
48 48 48
48 48 48
48 48 48
18 18 18
18 18 18
48 48 48
48 48 48
48 48 48
48 48 48
48 48 48
48 48 48
18 18 18
18 18 18
48 48 48
48 48 48
18 18 18
18 18 18
48 48 48
48 48 48
48 48 48
48 48 48
18 18 18
18 18 18
18 18 18
18 18 18
48 48 48
48 48 48
18 18 18
18 18 18
48 48 48
48 48 48
18 18 18
18 18 18
18 18 18
18 18 18
18 18 18
18 18 18
48 48 48
48 48 48
18 18 18
18 18 18
48 48 48
48 48 48
48 48 48
48 48 48
18 18 18
18 18 18
48 48 48
48 48 48
18 18 18
18 18 18
48 48 48
48 48 48
48 48 48
48 48 48
48 48 48
48 48 48
48 48 48
48 48 48
48 48 48
48 48 48
48 48 48
48 48 48
18 18 18
18 18 18
18 18 18
18 18 18
48 48 48
48 48 48
48 48 48
48 48 48
48 48 48
48 48 48
48 48 48
48 48 48
18 18 18
18 18 18
18 18 18
18 18 18
18 18 18
18 18 18
18 18 18
18 18 18
18 18 18
18 18 18
18 18 18
18 18 18
18 18 18
18 18 18
48 48 48
48 48 48
18 18 18
18 18 18
18 18 18
18 18 18
48 48 48
48 48 48
48 48 48
48 48 48
48 48 48
48 48 48
48 48 48
48 48 48
18 18 18
18 18 18
18 18 18
18 18 18
18 18 18
18 18 18
18 18 18
18 18 18
18 18 18
18 18 18
18 18 18
18 18 18
48 48 48
48 48 48
48 48 48
48 48 48
48 48 48
48 48 48
18 18 18
18 18 18
48 48 48
48 48 48
48 48 48
48 48 48
18 18 18
18 18 18
18 18 18
18 18 18
18 18 18
18 18 18
48 48 48
48 48 48
48 48 48
48 48 48
48 48 48
48 48 48
18 18 18
18 18 18
18 18 18
18 18 18
48 48 48
48 48 48
48 48 48
48 48 48
48 48 48
48 48 48
