P3
64 64
255
178 202 217
179 203 219
180 204 220
181 206 221
183 207 223
183 208 224
184 209 225
185 210 226
186 211 227
187 212 228
187 212 228
188 213 229
188 213 229
188 214 230
188 214 230
188 213 230
188 213 230
188 213 229
187 212 228
187 212 228
186 211 227
186 211 226
185 209 225
184 208 224
183 207 223
182 206 222
180 205 220
180 204 219
178 202 218
177 201 216
176 200 215
175 198 213
174 197 212
173 196 211
172 195 210
171 194 209
170 193 208
170 192 207
169 192 206
168 191 206
168 191 205
168 191 205
168 190 205
168 190 205
168 191 205
168 191 205
168 191 206
169 192 206
170 192 207
171 193 208
171 194 209
172 195 210
173 196 211
174 197 212
175 199 214
176 200 215
177 201 216
178 202 218
180 204 219
181 205 220
182 206 222
183 208 223
184 208 224
185 210 226
177 201 216
178 202 217
179 203 219
180 204 220
181 206 221
182 207 223
184 208 224
184 209 225
185 210 226
186 211 227
187 212 228
187 212 228
188 213 229
188 213 229
188 213 230
188 214 230
188 214 230
188 213 229
188 213 229
187 212 228
187 212 228
186 211 227
185 210 226
185 210 225
184 209 224
183 207 223
182 206 222
181 205 220
179 203 219
178 202 218
177 201 216
176 200 215
175 199 214
174 197 212
173 196 211
172 195 210
171 194 209
170 193 208
169 192 207
169 192 206
168 191 205
168 191 205
168 190 205
168 190 205
168 190 205
168 191 205
168 191 205
169 191 206
169 192 206
170 193 207
170 193 208
171 194 209
172 195 210
173 196 211
174 198 213
175 199 214
176 200 215
177 201 216
178 202 218
180 204 219
181 205 220
182 206 222
183 207 223
184 209 224
176 199 214
177 201 216
178 202 217
179 203 219
180 205 220
181 206 221
182 207 222
184 208 224
184 209 225
185 210 226
186 211 227
187 212 228
187 212 228
188 213 229
188 213 230
188 214 230
188 214 230
188 213 230
188 213 230
188 213 229
187 213 229
187 212 228
186 211 227
185 210 226
184 209 225
184 208 224
183 207 223
182 206 222
181 205 220
179 204 219
178 202 218
177 201 216
176 200 215
175 199 214
174 197 212
173 196 211
172 195 210
171 194 209
170 193 208
170 192 207
169 192 206
169 191 206
168 191 205
168 191 205
168 190 205
168 190 205
168 190 205
168 191 205
168 191 206
169 192 206
170 192 207
170 193 208
171 194 209
172 195 210
173 196 211
174 197 212
175 199 214
176 200 215
178 201 217
179 203 218
180 204 219
181 205 221
182 206 222
183 207 223
175 198 213
176 199 214
177 201 216
178 202 217
179 203 218
180 205 220
182 206 221
182 207 223
183 208 224
184 209 225
185 210 226
186 211 227
187 212 228
187 212 228
188 213 229
188 213 229
188 214 230
188 213 230
188 214 230
188 213 229
188 213 229
187 213 229
187 212 228
186 211 227
186 210 226
185 209 225
184 208 224
183 207 223
182 206 221
181 205 220
179 204 219
178 202 218
177 201 216
176 200 215
175 198 213
174 197 212
173 196 211
172 195 210
171 194 209
170 193 208
170 192 207
169 192 206
168 191 206
168 191 205
168 191 205
168 190 205
168 190 205
168 190 205
168 191 205
168 191 206
169 192 206
170 193 207
170 193 208
171 194 209
172 195 210
173 196 211
174 197 212
175 199 214
176 200 215
177 201 217
178 202 218
180 204 219
181 205 220
182 206 222
173 197 212
175 198 213
176 199 214
177 201 216
178 202 217
179 203 219
180 204 220
181 206 221
183 207 223
183 208 224
184 209 225
185 210 226
186 211 227
186 212 228
187 212 228
188 213 229
188 213 229
188 214 230
188 214 230
188 214 230
188 213 229
188 213 229
187 212 228
187 212 228
186 211 227
185 210 226
184 209 225
184 208 224
183 207 223
182 206 222
180 205 220
179 203 219
178 202 218
177 201 216
176 200 215
175 198 213
174 197 212
173 196 211
172 195 210
171 194 209
170 193 208
169 192 207
169 192 206
168 191 205
168 191 205
168 190 205
168 190 205
168 190 205
168 191 205
168 191 205
169 191 206
169 192 206
170 193 207
170 193 208
171 194 209
172 195 210
173 196 211
174 198 213
175 199 214
176 200 215
177 201 216
178 202 218
180 204 219
181 205 220
172 196 210
173 197 212
175 198 213
176 199 214
177 201 216
178 202 217
179 203 219
180 204 220
181 206 221
182 207 223
183 208 224
184 209 225
185 210 226
186 211 227
187 212 228
187 212 228
188 213 229
188 213 229
188 213 230
188 214 230
188 213 229
188 213 230
188 213 229
187 213 229
187 212 228
186 211 227
185 210 226
184 209 225
184 208 224
183 207 223
182 206 222
181 205 220
179 204 219
178 202 217
177 201 216
176 200 215
175 199 214
174 197 212
173 196 211
172 195 210
171 194 209
170 193 208
169 192 207
169 192 206
168 191 206
168 191 205
168 190 205
168 190 205
168 190 205
168 191 205
168 191 205
169 191 206
169 192 206
170 193 207
171 193 208
171 194 209
172 195 210
173 196 211
174 198 212
175 199 214
176 200 215
178 201 217
179 203 218
180 204 219
172 195 209
173 196 211
173 197 212
175 198 213
176 200 215
177 201 216
178 202 217
179 203 219
180 204 220
181 206 221
183 207 223
184 208 224
184 209 225
185 210 226
186 211 227
187 212 228
187 212 228
188 213 229
188 213 229
188 213 230
188 214 230
188 214 230
188 213 229
188 213 229
187 213 229
187 212 228
186 211 227
186 210 226
184 209 225
184 208 224
183 207 223
182 206 222
181 205 220
179 204 219
178 202 218
177 201 216
176 200 215
175 199 214
174 197 212
173 196 211
172 195 210
171 194 209
170 193 208
170 192 207
169 192 206
169 191 206
168 191 205
168 191 205
168 190 205
168 190 205
168 191 205
168 191 205
169 191 206
169 192 206
170 192 207
170 193 208
171 194 209
172 195 210
173 196 211
174 198 213
175 199 214
176 200 215
178 201 217
179 203 218
171 194 208
172 195 209
173 196 211
174 197 212
175 198 213
176 199 214
177 201 216
178 202 217
179 203 219
180 205 220
181 206 221
182 207 222
183 208 224
184 209 225
185 210 226
186 211 227
187 212 228
187 212 228
188 213 229
188 213 229
188 214 230
188 214 230
188 214 230
188 213 229
188 213 229
187 213 229
187 212 228
186 211 227
185 210 226
185 209 225
184 208 224
183 207 223
182 206 222
180 205 220
179 204 219
178 202 218
177 201 216
176 200 215
175 198 213
174 197 212
173 196 211
172 195 210
171 194 209
170 193 208
170 193 207
169 192 206
168 191 206
168 191 205
168 190 205
168 190 205
168 190 205
168 190 205
168 191 205
168 191 206
169 192 206
170 192 207
170 193 208
171 194 209
172 195 210
173 196 211
174 197 212
175 199 214
176 200 215
178 201 217
170 193 207
171 194 208
172 195 210
173 196 211
174 197 212
175 198 213
176 199 214
177 201 216
178 202 217
179 203 219
180 204 220
181 206 221
182 207 223
184 208 224
184 209 225
185 210 226
186 211 227
187 212 228
187 212 228
188 213 229
188 213 229
188 213 229
188 213 230
188 214 230
188 213 229
188 213 229
187 213 229
187 212 228
186 211 227
185 210 226
185 209 225
184 208 224
183 207 223
182 206 222
181 205 220
180 204 219
178 202 217
177 201 216
176 200 215
175 199 213
174 197 212
173 196 211
172 195 210
171 194 209
170 193 208
170 192 207
169 192 206
169 191 206
168 191 205
168 190 205
168 190 205
168 190 205
168 191 205
168 191 205
169 191 206
169 192 206
170 192 207
170 193 208
171 194 209
172 195 210
173 196 211
174 197 212
175 199 214
176 200 215
169 192 207
170 193 207
171 194 208
172 195 209
173 196 211
174 197 212
175 198 213
176 199 214
177 201 216
178 202 217
179 203 218
180 205 220
181 206 221
182 207 223
183 208 224
184 209 225
185 210 226
186 211 227
187 212 228
187 212 228
188 213 229
188 213 229
188 213 230
188 213 230
188 213 229
188 213 229
188 213 229
187 212 228
187 212 228
186 211 227
185 210 226
185 210 225
184 209 224
183 207 223
182 206 222
181 205 220
180 204 219
178 202 218
177 201 216
176 200 215
175 199 214
174 197 212
173 196 211
172 195 210
171 194 209
170 193 208
170 192 207
169 192 206
169 191 206
168 191 205
168 190 205
168 190 205
168 191 205
168 190 205
168 191 205
169 191 206
169 192 206
170 192 207
170 193 208
171 194 209
172 195 210
173 196 211
174 198 213
175 199 214
169 191 206
169 192 207
170 193 208
171 194 208
172 195 209
173 196 211
174 197 212
175 198 213
176 200 215
177 201 216
178 202 217
179 203 219
180 205 220
181 206 221
182 207 223
183 208 224
184 209 225
185 210 226
186 211 227
186 212 228
187 212 228
188 213 229
188 213 229
188 214 230
188 214 230
188 214 230
188 213 229
188 213 229
187 212 228
187 212 228
186 211 227
185 210 226
185 210 225
184 209 224
183 207 223
182 206 221
181 205 220
179 203 219
178 202 218
177 201 216
176 200 215
175 198 213
174 197 212
173 196 211
172 195 210
171 194 209
170 193 208
169 192 207
169 192 206
168 191 206
168 191 205
168 191 205
168 190 205
168 190 205
168 191 205
168 191 205
168 191 206
169 192 206
170 192 207
170 193 208
171 194 209
172 195 210
173 196 211
174 198 212
168 191 205
169 191 206
169 192 206
170 193 207
171 194 209
172 195 209
172 196 210
174 197 212
175 198 213
176 199 214
177 200 216
178 202 217
179 203 218
180 205 220
181 206 221
182 207 222
183 208 224
184 209 225
185 210 226
186 211 227
186 212 228
187 212 228
188 213 229
188 213 230
188 214 230
188 214 230
188 214 230
188 213 230
188 213 229
187 212 228
187 212 228
186 211 227
185 210 226
184 209 225
184 208 224
183 207 223
182 206 222
181 205 220
179 204 219
178 202 218
177 201 216
176 200 215
175 199 214
174 197 212
173 196 211
172 195 210
171 194 209
170 193 208
170 192 207
169 192 206
168 191 205
168 191 205
168 190 205
168 190 205
168 190 205
168 190 205
168 191 205
168 191 205
169 192 206
170 192 207
170 193 208
171 194 209
172 195 210
173 196 211
168 191 205
168 191 205
169 191 206
170 192 207
170 193 207
171 194 208
172 195 210
173 196 211
174 197 212
175 198 213
176 199 215
177 201 216
178 202 217
179 203 219
180 204 220
181 206 221
182 207 223
183 208 224
184 209 225
185 210 226
186 211 227
187 212 228
187 212 228
188 213 229
188 213 229
188 213 230
188 213 230
188 214 230
188 213 230
188 213 229
187 213 229
187 212 228
186 211 227
185 210 226
185 209 225
184 208 224
183 207 223
182 206 222
180 205 220
179 203 219
178 202 217
177 201 216
176 200 215
175 198 213
174 197 212
173 196 211
172 195 210
171 194 209
170 193 208
170 192 207
169 192 206
169 191 206
168 191 205
168 191 205
168 190 205
168 190 205
168 190 205
168 191 205
168 191 206
169 192 206
170 192 207
170 193 208
171 194 209
172 195 210
168 191 205
168 191 205
168 191 205
169 192 206
169 192 207
170 193 207
171 194 208
172 195 209
173 196 211
173 197 212
175 198 213
176 199 214
177 201 216
178 202 217
179 203 219
180 205 220
181 206 221
182 207 223
183 208 224
184 209 225
185 210 226
186 211 227
187 212 228
187 212 228
188 213 229
188 213 229
188 213 229
188 214 230
188 213 230
188 213 229
188 213 229
187 212 228
187 212 228
186 211 227
185 210 226
184 209 225
184 208 224
183 207 223
182 206 222
181 205 220
179 203 219
178 202 218
177 201 216
176 200 215
175 199 213
174 197 212
173 196 211
172 195 210
171 194 209
170 193 208
170 192 207
169 192 206
168 191 206
168 191 205
168 191 205
168 190 205
168 190 205
168 191 205
168 191 205
169 191 206
169 192 206
170 192 207
170 193 208
171 194 209
168 190 205
168 191 205
168 191 205
168 191 205
169 192 206
169 192 207
170 193 207
171 194 208
172 195 209
173 196 210
174 197 212
175 198 213
176 199 215
177 201 216
178 202 217
179 203 219
180 205 220
181 206 221
182 207 222
183 208 224
184 209 225
185 210 226
186 211 227
187 212 228
187 213 229
188 213 229
188 213 229
188 214 230
188 214 230
188 213 230
188 213 230
188 213 229
187 212 228
187 212 228
186 211 227
185 210 226
185 209 225
184 208 224
183 207 223
182 206 222
181 205 220
179 203 219
178 202 218
177 201 216
176 200 215
175 199 214
174 197 212
173 196 211
172 195 210
171 194 209
170 193 208
169 192 207
169 192 206
168 191 205
168 191 205
168 191 205
168 190 205
168 190 205
168 190 205
168 191 205
169 191 206
169 192 206
170 192 207
170 193 208
168 190 205
168 190 205
168 190 205
168 191 205
168 191 206
169 191 206
170 192 207
170 193 207
171 194 208
172 195 209
173 196 211
173 197 212
175 198 213
176 200 215
177 201 216
178 202 217
179 203 219
180 204 220
181 206 221
182 207 223
183 208 224
184 209 225
185 210 226
186 211 227
187 212 228
187 213 229
188 213 229
188 213 229
188 214 230
188 213 230
188 213 230
188 213 229
188 213 229
187 213 229
187 212 228
186 211 227
185 210 226
185 209 225
184 208 224
183 207 223
182 206 222
180 205 220
179 203 219
178 202 218
177 201 216
176 200 215
175 198 213
174 197 212
173 196 211
172 195 210
171 194 209
170 193 208
170 192 207
169 192 206
168 191 205
168 191 205
168 190 205
168 190 205
168 190 205
168 190 205
168 191 205
168 191 206
169 192 206
170 193 207
168 191 205
168 190 205
168 190 205
168 190 205
168 191 205
168 191 205
169 192 206
169 192 207
170 193 208
171 194 208
172 195 209
172 196 210
174 197 212
175 198 213
176 200 215
177 201 216
178 202 217
179 203 218
180 204 220
181 206 221
183 207 223
183 208 224
184 209 225
185 210 226
186 211 227
187 212 228
187 212 228
188 213 229
188 213 230
188 213 230
188 214 230
188 213 230
188 213 229
188 213 229
187 213 229
187 212 228
186 211 227
185 210 226
185 209 225
184 208 224
183 207 223
182 206 222
180 205 220
179 204 219
178 202 217
177 201 216
176 200 215
175 198 213
174 197 212
173 196 211
172 195 210
171 194 209
170 193 208
170 192 207
169 192 206
169 191 206
168 191 205
168 191 205
168 190 205
168 190 205
168 190 205
168 191 205
169 191 206
169 192 206
168 191 205
168 191 205
168 190 205
168 190 205
168 190 205
168 191 205
168 191 205
169 192 206
169 192 207
170 193 207
171 194 209
172 195 209
173 196 211
174 197 212
175 198 213
176 199 215
177 201 216
178 202 217
179 203 219
180 204 220
181 206 221
182 207 223
183 208 224
184 209 225
185 210 226
186 211 227
187 212 228
187 212 228
188 213 229
188 213 229
188 213 230
188 214 230
188 214 230
188 213 229
188 213 229
187 212 229
187 212 228
186 211 227
186 211 226
184 209 225
184 209 224
183 207 223
182 206 222
181 205 220
180 204 219
178 202 217
177 201 216
176 200 215
175 198 213
174 197 212
173 196 211
172 195 210
171 194 209
170 193 208
170 192 207
169 192 206
169 191 206
168 191 205
168 191 205
168 190 205
168 190 205
168 190 205
168 191 205
169 191 206
169 191 206
168 191 205
168 191 205
168 191 205
168 190 205
168 190 205
168 191 205
168 191 205
169 191 206
169 192 207
170 193 208
171 194 208
172 195 209
173 196 211
174 197 212
175 198 213
176 199 214
177 201 216
178 202 217
179 203 219
180 204 220
181 206 221
182 207 223
183 208 224
184 209 225
185 210 226
186 211 227
187 212 228
187 212 228
188 213 229
188 213 229
188 213 230
188 214 230
188 213 230
188 213 229
188 213 229
187 213 229
187 212 228
186 211 227
186 210 226
185 209 225
184 208 224
183 207 223
182 206 222
181 205 220
179 204 219
178 202 218
177 201 216
176 200 215
175 198 213
174 197 212
173 196 211
172 195 210
171 194 209
170 193 208
170 193 207
169 192 206
169 191 206
168 191 205
168 190 205
168 190 205
168 190 205
168 190 205
168 191 205
169 192 206
169 191 206
168 191 205
168 190 205
168 190 205
168 190 205
168 191 205
168 191 205
168 191 205
169 192 206
169 192 207
170 193 207
171 194 208
172 195 209
173 196 211
174 197 212
175 198 213
176 199 214
177 201 216
178 202 217
179 203 219
180 205 220
181 206 221
182 207 222
184 208 224
184 209 225
185 210 226
186 211 227
186 212 228
187 213 229
188 213 229
188 213 229
188 213 230
188 214 230
188 214 230
188 213 230
188 213 229
187 212 228
187 212 228
186 211 227
185 210 226
185 210 225
184 209 224
183 207 223
182 206 221
181 205 220
179 204 219
178 202 218
177 201 216
176 200 215
175 198 213
174 197 212
173 196 211
172 195 210
171 194 209
170 193 208
170 192 207
169 192 206
168 191 206
168 191 205
168 191 205
168 190 205
168 191 205
168 191 205
170 193 207
169 192 207
169 191 206
168 191 205
168 190 205
168 190 205
168 190 205
168 191 205
168 191 205
168 191 205
169 191 206
169 192 207
170 193 207
171 194 208
172 195 209
173 196 211
174 197 212
175 198 213
176 199 215
177 201 216
178 202 217
179 203 219
180 204 220
181 206 221
183 207 223
183 208 224
184 209 225
185 210 226
186 211 227
187 212 228
187 213 229
188 213 229
188 213 230
188 213 230
188 214 230
188 213 230
188 213 229
188 213 229
187 213 229
187 212 228
186 211 227
185 210 226
185 209 225
184 208 224
183 207 223
182 206 221
181 205 220
180 204 219
178 202 217
177 201 216
176 200 215
175 199 214
174 197 212
173 196 211
172 195 210
171 194 209
170 193 208
170 192 207
169 192 206
168 191 205
168 191 205
168 190 205
168 190 205
168 190 205
171 194 208
170 193 207
169 192 206
169 191 206
168 191 205
168 190 205
168 190 205
168 190 205
168 190 205
168 191 205
168 191 205
169 191 206
170 192 207
170 193 207
171 194 208
172 195 210
173 196 211
174 197 212
175 198 213
176 199 215
177 201 216
178 202 217
179 203 218
180 205 220
181 206 221
182 207 222
183 208 224
184 209 225
185 210 226
186 211 227
187 212 228
187 212 228
188 213 229
188 213 229
188 214 230
188 214 230
188 213 230
188 213 229
188 213 229
187 213 229
187 212 228
186 211 227
185 210 226
184 209 225
184 208 224
183 207 223
182 206 222
181 205 220
179 204 219
178 202 217
177 201 216
176 200 215
175 198 213
174 197 212
173 196 211
172 195 210
171 194 209
170 193 208
169 192 207
169 192 206
168 191 205
168 191 205
168 190 205
168 190 205
171 194 209
171 194 208
170 193 207
169 192 206
169 191 206
168 191 205
168 191 205
168 191 205
168 190 205
168 190 205
168 191 205
168 191 206
169 192 206
169 192 207
170 193 207
171 194 208
172 195 209
173 196 211
174 197 212
175 198 213
176 199 214
177 201 216
178 202 217
179 203 219
180 205 220
181 206 221
182 207 223
183 208 224
184 209 225
185 210 226
186 211 227
187 212 228
187 213 229
188 213 229
188 213 229
188 214 230
188 214 230
188 213 230
188 213 230
188 213 229
187 213 229
187 212 228
186 211 227
185 210 226
185 209 225
184 208 224
183 207 223
182 206 222
180 205 220
179 203 219
178 202 218
177 201 216
176 200 215
175 198 213
174 197 212
173 196 211
172 195 210
171 194 209
170 193 208
170 192 207
169 192 206
169 191 206
168 191 205
168 190 205
172 195 210
171 194 209
171 194 208
170 193 207
169 192 206
169 192 206
168 191 205
168 191 205
168 190 205
168 190 205
168 191 205
168 191 205
168 191 205
169 191 206
169 192 207
170 193 208
171 194 208
172 195 209
173 196 211
174 197 212
175 198 213
176 200 215
177 201 216
178 202 217
179 203 219
180 204 220
181 206 221
182 207 223
183 208 224
184 209 225
185 210 226
186 211 227
187 212 228
187 212 228
188 213 229
188 213 229
188 213 230
188 214 230
188 213 229
188 213 229
188 213 229
187 213 229
187 212 228
186 211 227
185 210 226
185 209 225
184 208 224
183 207 223
182 206 222
181 205 220
180 204 219
178 202 217
177 201 216
176 200 215
175 198 213
174 197 212
173 196 211
172 195 210
171 194 209
170 193 208
170 192 207
169 192 206
168 191 205
168 191 205
173 197 212
172 196 210
172 195 209
171 194 208
170 193 207
169 192 206
169 191 206
168 191 205
168 191 205
168 191 205
168 190 205
168 190 205
168 191 205
169 191 206
169 191 206
169 192 207
170 193 208
171 194 208
172 195 209
173 196 211
174 197 212
175 198 213
176 199 214
177 201 216
178 202 217
179 203 219
180 204 220
181 206 221
182 207 223
183 208 224
184 209 225
185 210 226
186 211 227
187 212 228
187 212 228
188 213 229
188 213 229
188 213 229
188 214 230
188 213 230
188 213 229
188 213 229
187 213 229
187 212 228
186 211 227
185 210 226
185 210 225
184 209 224
183 207 223
182 206 222
181 205 220
179 204 219
178 202 218
177 201 216
176 200 215
175 198 213
174 197 212
173 196 211
172 195 210
171 194 209
170 193 208
170 192 207
169 192 206
169 191 206
174 198 213
173 196 211
172 195 210
172 195 209
171 194 208
170 193 207
169 192 206
169 191 206
168 191 205
168 191 205
168 190 205
168 190 205
168 191 205
168 191 205
168 191 205
169 192 206
169 192 207
170 193 207
171 194 208
172 195 210
173 196 211
173 197 212
175 198 213
176 199 214
177 201 216
178 202 217
179 203 219
180 205 220
181 206 221
182 207 223
183 208 224
184 209 225
185 210 226
186 211 227
187 212 228
187 213 229
188 213 229
188 213 229
188 214 230
188 213 230
188 213 230
188 213 229
188 213 229
187 212 228
187 212 228
186 211 227
186 210 226
185 210 225
184 208 224
183 207 223
182 206 222
181 205 220
180 204 219
178 202 218
177 201 216
176 200 215
175 198 213
174 197 212
173 196 211
172 195 210
171 194 209
170 193 208
170 192 207
169 192 206
175 199 214
174 198 213
173 197 212
172 196 210
171 195 209
171 193 208
170 193 207
169 192 206
169 192 206
168 191 205
168 191 205
168 190 205
168 190 205
168 190 205
168 191 205
168 191 205
169 192 206
169 192 207
170 193 208
171 194 208
172 195 210
173 196 211
174 197 212
175 198 213
176 199 214
177 201 216
178 202 217
179 203 219
180 205 220
181 206 221
182 207 222
183 208 224
184 209 225
185 210 226
186 211 227
187 212 228
187 213 229
188 213 229
188 213 229
188 213 229
188 214 230
188 214 230
188 213 229
188 213 229
187 212 228
187 212 228
186 211 227
185 210 226
184 209 225
184 209 224
183 207 223
182 206 221
181 205 220
179 204 219
178 202 217
177 201 216
176 200 215
175 199 214
174 197 212
173 196 211
172 195 210
171 194 209
170 193 208
170 192 207
176 200 215
175 199 214
174 198 213
173 197 211
172 195 210
172 195 209
171 194 208
170 193 207
169 192 207
169 192 206
168 191 205
168 190 205
168 190 205
168 190 205
168 190 205
168 191 205
168 191 205
169 192 206
169 192 207
170 193 207
171 194 209
172 195 209
173 196 211
174 197 212
175 198 213
176 200 215
177 201 216
178 202 217
179 203 218
180 205 220
181 206 221
182 207 222
183 208 224
184 209 225
185 210 226
186 211 227
187 212 228
187 212 228
188 213 229
188 213 229
188 214 230
188 214 230
188 214 230
188 213 230
188 213 229
187 213 229
187 212 228
186 211 227
185 210 226
185 209 225
184 208 224
183 207 223
182 206 222
181 205 220
180 204 219
178 202 218
177 201 216
176 200 215
175 198 213
174 197 212
173 196 211
172 195 210
171 194 209
170 193 208
178 201 217
177 200 215
175 199 214
174 198 213
173 197 211
172 195 210
172 195 209
171 194 208
170 193 207
169 192 206
169 191 206
168 191 205
168 190 205
168 190 205
168 190 205
168 190 205
168 191 205
168 191 205
169 192 206
169 192 207
170 193 207
171 194 208
172 195 209
172 196 210
173 197 212
175 198 213
176 199 214
177 201 216
178 202 217
179 203 219
180 205 220
181 206 221
182 207 222
184 208 224
184 209 225
185 210 226
186 211 227
187 212 228
187 213 229
188 213 229
188 213 229
188 213 230
188 213 230
188 213 229
188 213 229
188 213 229
187 212 228
187 212 228
186 211 227
185 210 226
184 209 225
184 209 224
183 207 223
182 206 222
181 205 220
179 204 219
178 202 218
177 201 216
176 200 215
175 198 213
174 197 212
173 196 211
172 195 210
171 194 209
179 203 218
178 202 217
177 200 216
176 199 214
174 198 213
173 197 212
172 196 210
172 195 209
171 194 208
170 193 207
169 192 206
169 191 206
168 191 205
168 191 205
168 190 205
168 190 205
168 190 205
168 191 205
168 191 205
169 191 206
169 192 207
170 193 208
171 194 208
172 195 210
173 196 211
173 197 212
175 198 213
176 199 214
177 201 216
178 202 217
179 203 218
180 204 220
181 206 221
183 207 223
183 208 224
184 209 225
185 210 226
186 211 227
186 212 228
187 213 229
188 213 229
188 213 229
188 213 230
188 214 230
188 213 229
188 213 229
188 213 229
187 212 228
187 212 228
186 211 227
186 210 226
185 210 225
184 208 224
183 207 223
182 206 222
181 205 220
180 204 219
178 202 218
177 201 216
176 200 215
175 198 213
174 197 212
173 196 211
172 195 210
180 204 220
179 203 218
178 202 217
176 200 215
176 199 214
174 198 213
173 197 212
172 196 210
172 195 209
171 194 208
170 193 207
169 192 206
169 191 206
168 191 205
168 191 205
168 190 205
168 190 205
168 191 205
168 191 205
168 191 206
169 192 206
169 192 207
170 193 208
171 194 209
172 195 209
173 196 211
174 197 212
175 198 213
176 200 215
177 201 216
178 202 217
179 203 219
180 205 220
181 206 221
182 207 222
184 208 224
184 209 225
185 210 226
186 211 227
187 212 228
187 212 228
188 213 229
188 213 229
188 213 230
188 214 230
188 213 229
188 213 229
188 213 229
187 213 229
187 212 228
186 211 227
185 210 226
184 209 225
184 208 224
183 207 223
182 206 222
181 205 220
179 204 219
178 202 218
177 201 216
176 200 215
175 199 213
174 197 212
173 196 211
181 206 221
180 204 219
179 203 218
178 201 217
176 200 215
175 199 214
174 198 213
173 196 211
172 195 210
172 195 209
171 194 208
170 193 207
169 192 206
169 191 206
168 191 205
168 191 205
168 190 205
168 190 205
168 190 205
168 190 205
168 191 206
169 192 206
169 192 207
170 193 207
171 194 208
172 195 210
173 196 211
174 197 212
175 198 213
176 199 214
177 201 216
178 202 217
179 203 219
180 204 220
181 206 221
182 207 222
183 208 224
184 209 225
185 210 226
186 211 227
187 212 228
187 212 228
188 213 229
188 213 229
188 214 230
188 214 230
188 213 230
188 213 229
188 213 229
187 212 228
187 212 228
186 211 227
185 210 226
185 209 225
184 208 224
183 207 223
182 206 222
181 205 220
179 203 219
178 202 218
177 201 216
176 200 215
175 198 213
174 197 212
182 207 222
181 205 221
180 204 220
179 203 218
178 202 217
177 200 215
175 199 214
174 198 213
173 197 211
172 195 210
171 195 209
171 194 208
170 193 207
169 192 207
169 191 206
168 191 205
168 191 205
168 190 205
168 190 205
168 191 205
168 191 205
168 191 205
169 191 206
169 192 207
170 193 207
171 194 209
172 195 209
173 196 211
174 197 212
175 198 213
176 199 214
177 201 216
178 202 217
179 203 219
180 204 220
181 206 221
182 207 223
184 208 224
184 209 225
185 210 226
186 211 227
187 212 228
187 212 228
188 213 229
188 213 229
188 214 230
188 213 230
188 214 230
188 213 229
188 213 229
187 213 229
187 212 228
186 211 227
185 210 226
185 209 225
184 208 224
183 207 223
182 206 222
181 205 220
179 204 219
178 202 218
177 201 216
176 200 215
175 198 213
183 208 223
182 207 222
181 205 221
180 204 219
179 203 218
178 202 217
176 200 215
176 199 214
174 198 213
173 197 212
172 196 210
172 195 209
171 194 208
170 193 207
169 192 206
169 192 206
168 191 205
168 190 205
168 190 205
168 190 205
168 190 205
168 191 205
168 191 206
169 192 206
169 192 207
170 193 208
171 194 208
172 195 210
173 196 211
174 197 212
175 198 213
176 199 215
177 201 216
178 202 217
179 203 218
180 205 220
182 206 221
182 207 223
183 208 224
184 209 225
185 210 226
186 211 227
187 212 228
187 212 228
188 213 229
188 213 229
188 214 230
188 213 230
188 213 230
188 213 229
188 213 229
187 212 228
187 212 228
186 211 227
185 210 226
185 209 225
184 208 224
183 207 223
182 206 222
181 205 220
179 204 219
178 202 218
177 201 216
176 200 215
184 209 224
183 208 224
182 207 222
181 205 221
180 204 219
179 203 218
178 202 217
177 200 215
175 199 214
174 198 213
173 197 211
172 196 210
172 195 209
171 194 208
170 193 207
169 192 206
169 191 206
168 191 205
168 191 205
168 190 205
168 190 205
168 191 205
168 191 205
168 191 205
169 192 206
169 192 207
170 193 207
171 194 209
172 195 209
173 196 211
174 197 212
175 198 213
176 200 215
177 200 216
178 202 217
179 203 219
180 204 220
181 206 221
182 207 223
183 208 224
184 209 225
185 210 226
186 211 227
187 212 228
187 213 229
188 213 229
188 213 229
188 213 230
188 214 230
188 214 230
188 213 230
188 213 229
187 212 228
187 212 228
186 211 227
185 210 226
185 209 225
184 208 224
183 207 223
182 206 222
181 205 220
180 204 219
178 202 218
177 201 216
185 210 226
184 209 224
183 208 224
182 207 222
181 206 221
180 204 220
179 203 218
178 201 217
177 200 216
175 199 214
174 198 213
173 197 212
172 195 210
171 194 209
171 193 208
170 193 207
169 192 207
169 191 206
168 191 205
168 190 205
168 191 205
168 190 205
168 190 205
168 191 205
168 191 206
169 191 206
169 192 207
170 193 207
171 194 208
172 195 209
173 196 211
174 197 212
175 198 213
176 199 215
177 201 216
178 202 217
179 203 218
180 205 220
181 206 221
182 207 222
183 208 224
184 209 225
185 210 226
186 211 227
187 212 228
187 212 228
188 213 229
188 213 229
188 213 230
188 214 230
188 214 230
188 213 229
188 213 229
187 213 229
187 212 228
186 211 227
186 211 226
185 209 225
184 208 224
183 207 223
182 206 222
180 205 220
179 204 219
178 202 218
186 211 227
185 210 226
184 209 225
183 208 224
182 207 222
181 205 221
180 204 220
179 203 218
178 202 217
177 200 215
175 199 214
174 198 213
173 197 211
172 196 210
172 195 209
171 194 208
170 193 207
169 192 207
169 191 206
168 191 205
168 191 205
168 190 205
168 190 205
168 190 205
168 191 205
168 191 205
169 192 206
169 192 207
170 193 207
171 194 208
172 195 210
173 196 211
174 197 212
175 198 213
176 199 214
177 201 216
178 202 217
179 203 218
180 204 220
182 206 221
182 207 222
183 208 224
184 209 225
185 210 226
186 211 227
187 212 228
187 212 228
188 213 229
188 213 229
188 213 230
188 214 230
188 214 230
188 213 229
188 213 229
187 213 229
187 212 228
186 211 227
185 210 226
185 209 225
184 208 224
183 207 223
182 206 222
181 205 220
179 203 219
186 211 227
186 211 227
185 210 226
184 209 225
183 208 223
182 207 222
181 205 221
180 204 220
179 203 218
178 201 217
176 200 215
176 199 214
174 198 213
173 196 211
172 196 210
171 194 209
171 194 208
170 193 207
169 192 206
169 191 206
168 191 205
168 191 205
168 190 205
168 190 205
168 190 205
168 191 205
168 191 205
169 191 206
169 192 207
170 193 208
171 194 208
172 195 210
173 196 211
173 197 212
175 198 213
176 199 214
177 200 216
178 202 217
179 203 219
180 205 220
181 206 221
182 207 223
183 208 224
184 209 225
185 210 226
186 211 227
186 212 228
187 212 228
188 213 229
188 213 229
188 214 230
188 213 230
188 213 230
188 213 229
188 213 229
187 213 229
187 212 228
186 211 227
185 210 226
184 209 225
184 208 224
183 207 223
182 206 222
181 205 220
187 212 228
186 212 227
186 211 227
185 210 226
184 209 225
183 208 224
182 207 222
181 205 221
180 204 220
179 203 218
178 202 217
176 200 215
175 199 214
174 198 213
173 197 211
172 195 210
172 195 209
170 193 208
170 193 207
169 192 207
169 191 206
168 191 205
168 190 205
168 191 205
168 190 205
168 190 205
168 191 205
169 191 206
169 192 206
169 192 207
170 193 208
171 194 209
172 195 210
172 196 210
174 197 212
175 198 213
176 199 214
177 201 216
178 202 217
179 203 218
180 204 220
181 206 221
182 207 222
183 208 224
184 209 225
185 210 226
186 211 227
187 212 228
187 212 228
188 213 229
188 213 229
188 214 230
188 214 230
188 214 230
188 213 229
188 213 229
187 212 229
187 212 228
186 211 227
185 210 226
185 209 225
184 209 224
183 207 223
182 206 221
187 213 229
187 212 228
186 211 227
186 211 227
185 210 226
184 209 225
183 208 223
182 206 222
181 205 221
180 204 220
179 203 218
178 201 217
176 200 215
175 199 214
174 198 213
173 197 211
172 196 210
171 194 209
171 194 208
170 193 207
169 192 207
169 192 206
168 191 205
168 191 205
168 190 205
168 190 205
168 191 205
168 191 205
168 191 205
169 191 206
170 192 207
170 193 208
171 194 208
172 195 210
173 196 211
174 197 212
175 198 213
176 199 214
177 201 216
178 202 217
179 203 219
180 204 220
181 206 221
182 207 223
183 208 224
184 209 225
185 210 226
186 211 227
187 212 228
187 212 228
188 213 229
188 213 229
188 214 230
188 214 230
188 213 230
188 213 229
188 213 229
187 213 229
187 212 228
186 211 227
185 210 226
185 210 225
184 208 224
183 207 223
188 213 229
188 213 229
187 212 228
186 211 227
186 211 227
185 210 226
184 209 225
183 208 223
182 207 222
181 205 221
180 204 220
179 203 218
178 202 217
177 200 216
175 199 214
174 198 213
173 197 212
172 195 210
171 194 209
171 193 208
170 193 207
169 192 206
169 191 206
168 191 205
168 190 205
168 190 205
168 190 205
168 191 205
168 191 205
168 191 205
169 192 206
169 192 207
170 193 207
171 194 208
172 195 209
173 196 211
174 197 212
175 198 213
176 199 214
177 201 216
178 202 217
179 203 218
180 204 220
181 206 221
182 207 222
183 208 224
184 209 225
185 210 226
186 211 227
186 212 228
187 212 228
188 213 229
188 213 230
188 213 230
188 214 230
188 213 230
188 213 229
188 213 229
187 212 228
187 212 228
186 211 227
186 211 226
185 209 225
184 208 224
188 214 230
188 213 229
187 213 229
187 212 228
186 212 228
186 211 227
185 210 226
184 209 224
183 208 223
182 207 222
181 205 221
180 204 220
179 203 218
178 202 217
177 200 215
175 199 214
174 198 213
173 197 212
172 196 210
172 195 209
171 194 208
170 193 207
169 192 206
169 191 206
168 191 205
168 191 205
168 190 205
168 190 205
168 190 205
168 191 205
168 191 205
169 191 206
169 192 207
170 193 208
171 194 209
172 195 209
173 196 211
174 197 212
175 198 213
176 199 214
177 201 216
178 202 217
179 203 219
180 205 220
181 206 221
182 207 223
183 208 224
184 209 225
185 210 226
186 211 227
187 212 228
187 212 228
188 213 229
188 213 229
188 214 230
188 213 230
188 214 230
188 213 229
188 213 229
187 213 229
187 212 228
186 211 227
186 210 226
185 210 225
188 214 230
188 214 230
188 213 229
188 213 229
187 212 228
186 211 227
186 211 227
185 210 226
184 209 225
183 208 224
182 207 222
181 205 221
180 204 220
179 203 218
178 202 217
177 200 216
176 199 214
175 198 213
173 197 211
172 195 210
172 195 209
171 194 208
170 193 207
169 192 206
169 192 206
168 191 205
168 191 205
168 190 205
168 190 205
168 190 205
168 191 205
168 191 205
169 192 206
169 192 207
170 193 207
171 194 208
172 195 209
173 196 211
174 197 212
175 198 213
176 199 214
177 201 216
178 202 217
179 203 218
180 204 220
181 206 221
183 207 223
183 208 224
184 209 225
185 210 226
186 211 227
186 212 228
187 212 228
188 213 229
188 213 229
188 213 230
188 214 230
188 214 230
188 213 229
188 213 229
187 213 229
187 212 228
186 211 227
185 210 226
188 214 230
188 214 230
188 214 230
188 213 229
188 213 229
187 212 228
186 211 227
186 211 226
185 210 226
184 209 225
183 208 224
182 207 222
181 205 221
180 204 220
179 203 218
178 202 217
177 200 216
175 199 214
174 198 213
173 197 212
172 196 210
171 194 209
170 193 208
170 193 207
169 192 206
169 192 206
168 191 205
168 190 205
168 190 205
168 190 205
168 191 205
168 191 205
168 191 205
169 192 206
169 192 207
170 193 208
171 194 208
172 195 209
172 196 210
173 197 212
175 198 213
176 200 215
177 201 216
178 202 217
179 203 218
180 204 220
181 206 221
182 207 223
183 208 224
184 209 225
185 210 226
186 211 227
187 212 228
187 212 228
188 213 229
188 213 229
188 213 230
188 213 230
188 213 229
188 213 229
188 213 229
187 213 229
187 212 228
186 211 227
188 213 229
188 214 230
188 214 230
188 213 229
188 213 229
188 213 229
187 212 228
187 212 228
186 211 227
185 210 226
184 209 224
183 208 223
182 206 222
181 205 221
180 204 220
179 203 218
178 202 217
177 200 216
175 199 214
174 198 213
173 197 212
172 195 210
171 194 209
171 194 208
170 193 207
169 192 206
169 192 206
168 191 205
168 191 205
168 190 205
168 190 205
168 190 205
168 191 205
168 191 205
169 192 206
169 192 206
170 193 207
171 194 208
172 195 210
173 196 211
173 197 212
175 198 213
176 199 214
177 201 216
178 202 217
179 203 219
180 205 220
181 206 221
182 207 223
183 208 224
184 209 225
185 210 226
186 211 227
187 212 228
187 212 228
188 213 229
188 213 229
188 214 230
188 213 230
188 213 230
188 213 229
188 213 229
187 213 229
187 212 228
188 213 229
188 213 229
188 213 230
188 214 230
188 213 229
188 213 229
188 213 229
187 212 228
187 212 228
186 211 227
185 210 226
184 209 225
183 208 224
182 207 222
181 205 221
180 204 220
179 203 218
178 201 217
176 200 215
176 199 214
174 198 213
173 197 211
172 195 210
171 194 209
171 194 208
170 193 207
169 192 206
169 191 206
168 191 205
168 190 205
168 190 205
168 190 205
168 190 205
168 191 205
168 191 206
169 192 206
170 192 207
170 193 207
171 194 208
172 195 209
173 196 211
174 197 212
175 198 213
176 199 214
177 201 216
178 202 217
179 203 218
180 204 220
181 206 221
182 207 223
184 208 224
184 209 225
185 210 226
186 211 227
187 212 228
187 212 228
188 213 229
188 213 229
188 214 230
188 214 230
188 214 230
188 213 229
188 213 229
187 212 228
188 213 229
188 213 229
188 214 230
188 214 230
188 213 230
188 214 230
188 213 229
188 213 229
187 212 228
186 211 227
186 211 226
185 210 226
184 209 225
183 208 223
182 207 222
181 205 221
180 204 220
179 203 218
178 202 217
176 200 215
176 199 214
174 198 213
173 197 211
172 196 210
171 194 209
170 193 208
170 193 207
169 192 206
169 191 206
168 191 205
168 191 205
168 190 205
168 190 205
168 190 205
168 191 205
168 191 205
169 192 206
169 192 207
170 193 208
171 194 208
172 195 209
173 196 211
174 197 212
175 198 213
176 199 214
177 201 216
178 202 217
179 203 219
180 205 220
181 206 221
182 207 222
183 208 224
184 209 225
185 210 226
186 211 227
187 212 228
187 213 229
188 213 229
188 213 229
188 213 230
188 214 230
188 214 230
188 213 229
188 213 229
187 212 228
187 213 229
188 213 229
188 213 230
188 213 230
188 214 230
188 213 230
188 213 229
187 213 229
187 212 228
186 212 228
186 211 227
185 210 226
184 209 225
183 208 223
182 207 222
181 205 221
180 204 220
179 203 218
178 201 217
177 200 215
175 199 214
174 198 213
173 197 211
172 195 210
171 195 209
171 193 208
170 193 207
169 192 207
169 191 206
168 191 205
168 191 205
168 190 205
168 190 205
168 190 205
168 191 205
168 191 205
169 192 206
170 192 207
170 193 208
171 194 208
172 195 209
173 196 211
174 197 212
175 198 213
176 200 215
177 201 216
178 202 217
179 203 218
180 205 220
181 206 221
183 207 223
183 208 224
184 209 225
185 210 226
186 211 227
187 212 228
187 212 229
188 213 229
188 213 229
188 213 230
188 213 230
188 213 230
188 213 229
186 211 227
187 212 228
187 213 229
188 213 229
188 214 230
188 214 230
188 213 230
188 213 229
188 213 229
187 213 229
187 212 228
186 211 227
186 211 227
185 210 226
184 209 225
183 208 224
182 207 222
181 205 221
180 204 220
179 203 218
178 202 217
176 200 215
175 199 214
174 198 213
173 197 212
172 195 210
171 195 209
171 194 208
170 193 207
169 192 206
169 191 206
168 191 205
168 191 205
168 190 205
168 190 205
168 190 205
168 191 205
168 191 206
169 192 206
169 192 207
170 193 207
171 194 208
172 195 209
173 196 210
173 197 212
175 198 213
176 199 215
177 201 216
178 202 217
179 203 219
180 205 220
181 206 221
182 207 223
183 208 224
184 209 225
185 210 226
186 211 227
187 212 228
187 212 228
188 213 229
188 213 229
188 214 230
188 214 230
188 213 230
186 210 226
186 211 227
187 212 228
187 213 229
188 213 229
188 214 230
188 214 230
188 214 230
188 214 230
188 213 229
187 213 229
187 212 228
187 212 228
186 211 227
185 210 226
184 209 225
183 208 223
182 207 222
181 206 221
180 204 220
179 203 218
178 202 217
177 200 216
175 199 214
174 198 213
173 197 211
172 196 210
171 195 209
171 194 208
170 193 207
169 192 207
169 191 206
168 191 205
168 191 205
168 190 205
168 190 205
168 191 205
168 191 205
168 191 205
169 192 206
169 192 207
170 193 207
171 194 208
172 195 210
173 196 211
174 197 212
175 198 213
176 199 214
177 201 216
178 202 217
179 203 219
180 205 220
181 206 221
182 207 222
183 208 224
184 209 225
185 210 226
186 211 227
187 212 228
187 213 229
188 213 229
188 213 229
188 214 230
188 214 230
185 210 226
186 211 226
186 212 228
187 212 228
187 213 229
188 213 229
188 213 229
188 214 230
188 214 230
188 214 230
188 213 229
187 213 229
187 212 228
187 212 228
186 211 227
185 210 226
184 209 225
183 208 224
182 207 222
181 205 221
180 204 220
179 203 218
178 201 217
176 200 215
176 199 214
174 198 213
173 196 211
172 196 210
171 195 209
170 193 208
170 193 207
169 192 206
169 191 206
168 191 205
168 190 205
168 190 205
168 190 205
168 190 205
168 191 205
168 191 205
169 192 206
169 192 207
170 193 207
171 194 208
172 195 210
173 196 211
174 197 212
175 198 213
176 199 214
177 201 216
178 202 217
179 203 219
180 205 220
181 206 221
183 207 223
183 208 224
184 209 225
185 210 226
186 211 227
187 212 228
187 213 229
188 213 229
188 213 229
188 214 230
184 209 224
185 210 225
186 211 226
186 211 227
187 212 228
188 213 229
188 213 229
188 213 229
188 213 229
188 213 230
188 213 230
188 213 229
188 213 229
187 212 228
186 211 227
186 211 227
185 210 226
184 209 225
183 208 223
182 207 222
181 205 221
180 204 220
179 203 218
178 202 217
177 200 215
175 199 214
174 198 213
173 197 211
172 196 210
172 195 209
171 194 208
170 193 207
169 192 207
169 191 206
168 191 205
168 191 205
168 190 205
168 190 205
168 190 205
168 191 205
169 191 206
169 191 206
169 192 207
170 193 207
171 194 208
172 195 209
173 196 211
174 197 212
175 198 213
176 200 215
177 201 216
178 202 217
179 203 218
180 204 220
181 206 221
182 207 222
184 208 224
184 209 225
185 210 226
186 211 227
187 212 228
187 212 228
188 213 229
188 213 229
183 208 223
184 209 224
185 210 226
185 210 226
186 212 228
187 212 228
187 213 229
188 213 229
188 213 229
188 213 230
188 213 230
188 214 230
188 213 229
188 213 229
187 212 228
186 211 227
186 211 227
185 210 226
184 209 225
183 208 224
182 207 222
181 206 221
180 204 219
179 203 218
178 202 217
177 200 215
175 199 214
174 198 213
173 196 211
172 196 210
172 195 209
171 193 208
170 193 207
169 192 206
169 191 206
168 191 205
168 191 205
168 190 205
168 190 205
168 191 205
168 191 205
168 191 205
169 191 206
169 192 207
170 193 207
171 194 208
172 195 209
173 196 211
174 197 212
175 198 213
176 199 214
177 201 216
178 202 217
179 203 219
180 204 220
181 206 221
182 207 223
183 208 224
184 209 225
185 210 226
186 211 227
187 212 228
187 213 229
188 213 229
182 207 222
183 208 223
184 209 224
185 210 226
186 211 227
186 211 227
187 212 228
187 213 229
188 213 229
188 213 229
188 214 230
188 213 230
188 213 229
188 213 229
188 213 229
187 212 228
186 211 227
186 211 227
185 210 226
184 209 225
183 208 224
182 206 222
181 205 221
180 204 219
179 203 218
178 202 217
177 200 216
175 199 214
174 198 213
173 197 212
172 196 210
172 195 209
171 194 208
170 193 207
169 192 206
169 191 206
168 191 205
168 191 205
168 190 205
168 190 205
168 190 205
168 191 205
168 191 205
169 191 206
169 192 207
170 193 208
171 194 208
172 195 210
173 196 211
174 197 212
175 198 213
176 199 214
177 201 216
178 202 217
179 203 219
180 205 220
181 206 221
182 207 222
184 208 224
184 209 225
185 210 226
186 211 227
187 212 228
187 212 228
181 205 221
182 207 222
183 207 223
184 209 224
185 210 226
186 210 226
186 211 227
187 212 228
187 213 229
188 213 229
188 213 229
188 214 230
188 214 230
188 214 230
188 213 229
187 213 229
187 212 228
186 212 227
186 211 226
185 210 226
184 209 225
183 208 223
182 206 222
181 205 221
180 204 220
179 203 218
178 201 217
177 200 215
175 199 214
174 198 213
173 196 211
172 195 210
171 194 209
171 194 208
170 193 207
169 192 207
169 192 206
168 191 205
168 191 205
168 190 205
168 190 205
168 190 205
168 191 205
168 191 205
169 191 206
169 192 207
170 193 208
171 194 208
172 195 210
173 196 211
174 197 212
175 198 213
176 199 214
177 201 216
178 202 217
179 203 218
180 204 220
181 206 221
182 207 222
184 208 224
184 209 225
185 210 226
186 211 227
187 212 228
180 204 219
181 205 221
182 206 222
183 207 223
184 209 224
185 210 225
186 211 227
186 211 227
187 212 228
188 213 229
188 213 229
188 213 229
188 213 230
188 214 230
188 213 230
188 213 229
187 213 229
187 212 228
186 211 227
186 211 227
185 210 226
184 209 225
183 208 223
182 207 222
181 206 221
180 204 220
179 203 218
178 201 217
176 200 215
175 199 214
174 198 213
173 197 212
172 195 210
171 194 209
171 194 208
170 193 207
169 192 207
169 192 206
168 191 205
168 190 205
168 190 205
168 190 205
168 190 205
168 191 205
168 191 205
169 192 206
170 192 207
170 193 207
171 194 208
172 195 209
173 196 211
174 197 212
175 198 213
176 200 215
177 201 216
178 202 217
179 203 219
180 205 220
181 206 221
183 207 223
183 208 224
184 209 225
185 210 226
186 211 227
179 203 218
180 204 220
181 205 221
182 206 222
183 207 223
184 209 224
185 210 226
186 210 226
186 212 227
187 212 228
187 213 229
188 213 229
188 213 229
188 214 230
188 214 230
188 213 230
188 213 229
188 213 229
187 212 228
186 212 228
186 211 227
185 210 226
184 209 225
183 208 223
182 207 222
181 205 221
180 204 219
179 203 218
178 202 217
177 200 215
175 199 214
174 198 213
173 197 211
172 195 210
171 194 209
171 193 208
170 193 207
169 192 207
169 191 206
168 191 205
168 190 205
168 190 205
168 190 205
168 191 205
168 191 205
168 191 206
169 192 206
169 192 207
170 193 207
171 194 208
172 195 210
172 196 210
174 197 212
175 198 213
176 199 214
177 201 216
178 202 217
179 203 218
180 205 220
181 206 221
183 207 223
183 208 224
184 209 225
185 210 226
177 201 217
179 203 218
180 204 219
181 205 221
182 206 222
183 208 223
184 209 224
185 210 226
186 210 226
186 211 227
187 212 228
187 213 229
188 213 229
188 213 230
188 214 230
188 214 230
188 214 230
188 213 229
188 213 229
187 212 228
186 211 227
186 211 227
185 210 226
184 209 225
183 208 224
182 207 222
181 205 221
180 204 220
179 203 218
178 202 217
177 200 215
175 199 214
174 198 213
173 197 211
172 196 210
171 195 209
170 193 208
170 193 207
169 192 206
169 191 206
168 191 205
168 191 205
168 191 205
168 190 205
168 191 205
168 191 205
168 191 206
169 192 206
169 192 207
170 193 208
171 194 208
172 195 210
173 196 211
173 197 212
175 198 213
176 199 214
177 201 216
178 202 217
179 203 219
180 204 220
181 206 221
182 207 222
183 208 224
184 209 225
176 200 215
177 201 216
179 203 218
180 204 219
181 205 221
182 206 222
183 208 223
184 209 224
185 210 225
186 211 226
186 212 228
187 212 228
188 213 229
188 213 229
188 213 230
188 214 230
188 213 230
188 213 229
188 213 229
188 213 229
187 212 228
186 212 227
186 211 227
185 210 226
184 209 225
183 208 223
182 207 222
181 205 221
180 204 220
179 203 218
178 202 217
177 200 215
175 199 214
174 198 213
173 197 212
172 196 210
171 194 209
171 194 208
170 193 207
169 192 206
169 192 206
168 191 205
168 191 205
168 190 205
168 190 205
168 190 205
168 191 205
168 191 205
169 192 206
169 192 207
170 193 207
171 194 208
172 195 210
173 196 211
174 197 212
175 198 213
176 199 214
177 201 216
178 202 217
179 203 219
180 205 220
181 206 221
182 207 222
183 208 224
175 199 214
176 200 215
177 201 217
179 203 218
180 204 219
181 205 221
182 206 222
183 208 223
184 209 224
185 210 226
185 210 226
186 212 228
187 212 228
187 212 229
188 213 229
188 213 229
188 213 229
188 213 230
188 214 230
188 213 229
188 213 229
187 212 228
186 212 228
186 211 226
185 210 226
184 209 225
183 208 223
182 207 222
181 205 221
180 204 220
179 203 218
178 201 217
176 200 215
176 199 214
174 198 213
173 197 211
172 195 210
171 195 209
171 193 208
170 193 207
169 192 206
169 192 206
168 191 205
168 191 205
168 190 205
168 190 205
168 190 205
168 191 205
168 191 205
169 192 206
169 192 207
170 193 207
171 194 209
172 195 209
172 196 210
174 197 212
175 198 213
176 200 215
177 201 216
178 202 217
179 203 219
180 204 220
181 206 221
183 207 223
174 197 212
175 199 214
176 200 215
178 201 217
179 203 218
180 204 219
181 205 221
182 206 222
183 208 223
184 209 224
185 210 225
186 211 226
186 211 227
187 212 228
187 213 229
188 213 229
188 213 230
188 214 230
188 213 230
188 213 229
188 213 229
187 213 229
187 212 228
187 212 228
186 211 226
185 210 226
184 209 225
183 208 224
182 207 222
181 205 221
180 204 220
179 203 218
178 201 217
177 200 216
175 199 214
174 198 213
173 197 211
172 196 210
172 195 209
170 193 208
170 193 207
169 192 206
169 191 206
168 191 205
168 191 205
168 190 205
168 190 205
168 190 205
168 191 205
168 191 206
169 191 206
169 192 207
170 193 208
171 194 208
172 195 210
173 196 211
173 197 212
175 198 213
176 199 214
177 201 216
178 202 217
179 203 219
180 205 220
181 206 221
173 196 211
174 198 213
175 199 214
176 200 215
177 201 216
179 203 218
180 204 220
181 205 221
182 207 222
183 208 223
184 209 224
185 210 225
186 211 226
186 212 227
187 212 228
188 213 229
188 213 229
188 213 230
188 213 229
188 214 230
188 213 229
188 213 229
187 213 229
187 212 228
186 211 227
186 211 227
185 210 226
184 209 225
183 208 223
182 207 222
181 206 221
180 204 219
179 203 218
178 202 217
177 200 215
175 199 214
174 198 213
173 197 212
172 196 210
171 194 209
171 194 208
170 193 207
169 192 206
169 191 206
168 191 205
168 191 205
168 190 205
168 190 205
168 190 205
168 191 205
168 191 206
169 192 206
169 192 206
170 193 208
171 194 208
172 195 209
173 196 211
174 197 212
175 198 213
176 199 215
177 201 216
178 202 217
179 203 218
180 204 220
172 195 210
173 197 211
174 198 213
175 199 214
176 200 215
178 201 217
179 203 218
180 204 219
181 205 221
182 206 222
183 208 223
184 209 225
185 210 225
186 211 227
186 211 227
187 212 228
187 213 229
188 213 229
188 214 230
188 213 230
188 213 230
188 213 229
188 213 229
187 213 229
187 212 228
187 212 228
186 211 227
185 210 226
184 209 225
183 208 224
182 207 222
181 205 221
180 204 219
179 203 218
178 202 217
176 200 215
175 199 214
174 198 213
173 197 212
172 195 210
171 194 209
171 194 208
170 193 207
169 192 207
169 191 206
168 191 205
168 191 205
168 190 205
168 190 205
168 190 205
168 191 205
168 191 206
169 191 206
170 192 207
170 193 208
171 194 209
172 195 209
173 196 211
174 197 212
175 198 213
176 199 214
177 201 216
178 202 217
179 203 219
171 194 209
172 195 210
173 197 211
174 198 212
175 199 214
176 200 215
177 201 217
179 203 218
180 204 219
181 205 221
182 207 222
183 208 223
184 209 224
185 210 225
186 211 227
186 211 227
187 212 228
188 213 229
188 213 229
188 213 230
188 213 229
188 214 230
188 213 230
188 213 229
187 213 229
187 212 228
186 211 227
186 211 226
185 210 226
184 209 225
183 208 223
182 206 222
181 205 221
180 204 219
179 203 218
178 201 217
177 200 216
175 199 214
174 198 213
173 197 211
172 196 210
171 194 209
171 194 208
170 193 207
169 192 207
169 192 206
168 191 205
168 191 205
168 190 205
168 190 205
168 190 205
168 191 205
168 191 205
169 192 206
169 192 207
170 193 208
171 194 208
172 195 210
173 196 211
174 197 212
175 198 213
176 199 215
177 201 216
178 202 217
