P3
16 16
255
104 73 50
92 64 44
92 64 44
104 73 50
92 64 44
92 64 44
92 64 44
104 73 50
104 73 50
92 64 44
92 64 44
104 73 50
92 64 44
104 73 50
104 73 50
92 64 44
104 73 50
104 73 50
104 73 50
92 64 44
104 73 50
92 64 44
104 73 50
92 64 44
92 64 44
104 73 50
92 64 44
104 73 50
104 73 50
104 73 50
92 64 44
92 64 44
104 73 50
92 64 44
104 73 50
92 64 44
104 73 50
104 73 50
104 73 50
92 64 44
92 64 44
92 64 44
104 73 50
92 64 44
104 73 50
92 64 44
92 64 44
92 64 44
104 73 50
92 64 44
92 64 44
104 73 50
104 73 50
92 64 44
104 73 50
92 64 44
92 64 44
92 64 44
104 73 50
92 64 44
92 64 44
92 64 44
92 64 44
92 64 44
92 64 44
104 73 50
104 73 50
92 64 44
104 73 50
92 64 44
92 64 44
104 73 50
92 64 44
92 64 44
92 64 44
92 64 44
104 73 50
92 64 44
104 73 50
92 64 44
92 64 44
92 64 44
92 64 44
92 64 44
104 73 50
104 73 50
92 64 44
104 73 50
92 64 44
92 64 44
92 64 44
92 64 44
92 64 44
104 73 50
104 73 50
104 73 50
92 64 44
104 73 50
92 64 44
104 73 50
92 64 44
104 73 50
104 73 50
92 64 44
92 64 44
104 73 50
92 64 44
104 73 50
104 73 50
104 73 50
92 64 44
104 73 50
92 64 44
104 73 50
104 73 50
92 64 44
92 64 44
92 64 44
104 73 50
92 64 44
104 73 50
104 73 50
104 73 50
92 64 44
104 73 50
104 73 50
104 73 50
92 64 44
104 73 50
104 73 50
104 73 50
92 64 44
92 64 44
92 64 44
92 64 44
104 73 50
104 73 50
92 64 44
92 64 44
92 64 44
92 64 44
92 64 44
92 64 44
104 73 50
92 64 44
104 73 50
104 73 50
92 64 44
104 73 50
92 64 44
104 73 50
104 73 50
92 64 44
104 73 50
104 73 50
92 64 44
104 73 50
104 73 50
92 64 44
104 73 50
92 64 44
92 64 44
104 73 50
104 73 50
104 73 50
92 64 44
92 64 44
104 73 50
104 73 50
92 64 44
92 64 44
104 73 50
104 73 50
104 73 50
104 73 50
104 73 50
92 64 44
104 73 50
92 64 44
92 64 44
92 64 44
92 64 44
92 64 44
92 64 44
92 64 44
104 73 50
92 64 44
92 64 44
104 73 50
104 73 50
104 73 50
92 64 44
92 64 44
104 73 50
104 73 50
104 73 50
92 64 44
92 64 44
92 64 44
92 64 44
104 73 50
92 64 44
104 73 50
104 73 50
104 73 50
104 73 50
92 64 44
92 64 44
104 73 50
104 73 50
104 73 50
92 64 44
104 73 50
104 73 50
104 73 50
104 73 50
104 73 50
92 64 44
92 64 44
92 64 44
104 73 50
104 73 50
92 64 44
92 64 44
104 73 50
104 73 50
104 73 50
92 64 44
104 73 50
92 64 44
104 73 50
92 64 44
92 64 44
104 73 50
104 73 50
104 73 50
104 73 50
104 73 50
92 64 44
104 73 50
92 64 44
92 64 44
92 64 44
104 73 50
104 73 50
104 73 50
92 64 44
104 73 50
92 64 44
92 64 44
104 73 50
92 64 44
92 64 44
92 64 44
104 73 50
92 64 44
