P3
16 16
255
42 36 52
22 18 28
22 18 28
22 18 28
42 36 52
22 18 28
22 18 28
22 18 28
42 36 52
22 18 28
22 18 28
22 18 28
42 36 52
22 18 28
22 18 28
22 18 28
22 18 28
22 18 28
22 18 28
42 36 52
22 18 28
22 18 28
22 18 28
42 36 52
22 18 28
22 18 28
22 18 28
42 36 52
22 18 28
22 18 28
22 18 28
42 36 52
22 18 28
22 18 28
42 36 52
22 18 28
22 18 28
22 18 28
42 36 52
22 18 28
22 18 28
22 18 28
42 36 52
22 18 28
22 18 28
22 18 28
42 36 52
22 18 28
22 18 28
42 36 52
22 18 28
22 18 28
22 18 28
42 36 52
22 18 28
22 18 28
22 18 28
42 36 52
22 18 28
22 18 28
22 18 28
42 36 52
22 18 28
22 18 28
42 36 52
22 18 28
22 18 28
22 18 28
42 36 52
22 18 28
22 18 28
22 18 28
42 36 52
22 18 28
22 18 28
22 18 28
42 36 52
22 18 28
22 18 28
22 18 28
22 18 28
22 18 28
22 18 28
42 36 52
22 18 28
22 18 28
22 18 28
42 36 52
22 18 28
22 18 28
22 18 28
42 36 52
22 18 28
22 18 28
22 18 28
42 36 52
22 18 28
22 18 28
42 36 52
22 18 28
22 18 28
22 18 28
42 36 52
22 18 28
22 18 28
22 18 28
42 36 52
22 18 28
22 18 28
22 18 28
42 36 52
22 18 28
22 18 28
42 36 52
22 18 28
22 18 28
22 18 28
42 36 52
22 18 28
22 18 28
22 18 28
42 36 52
22 18 28
22 18 28
22 18 28
42 36 52
22 18 28
22 18 28
42 36 52
22 18 28
22 18 28
22 18 28
42 36 52
22 18 28
22 18 28
22 18 28
42 36 52
22 18 28
22 18 28
22 18 28
42 36 52
22 18 28
22 18 28
22 18 28
22 18 28
22 18 28
22 18 28
42 36 52
22 18 28
22 18 28
22 18 28
42 36 52
22 18 28
22 18 28
22 18 28
42 36 52
22 18 28
22 18 28
22 18 28
42 36 52
22 18 28
22 18 28
42 36 52
22 18 28
22 18 28
22 18 28
42 36 52
22 18 28
22 18 28
22 18 28
42 36 52
22 18 28
22 18 28
22 18 28
42 36 52
22 18 28
22 18 28
42 36 52
22 18 28
22 18 28
22 18 28
42 36 52
22 18 28
22 18 28
22 18 28
42 36 52
22 18 28
22 18 28
22 18 28
42 36 52
22 18 28
22 18 28
42 36 52
22 18 28
22 18 28
22 18 28
42 36 52
22 18 28
22 18 28
22 18 28
42 36 52
22 18 28
22 18 28
22 18 28
42 36 52
22 18 28
22 18 28
22 18 28
22 18 28
22 18 28
22 18 28
42 36 52
22 18 28
22 18 28
22 18 28
42 36 52
22 18 28
22 18 28
22 18 28
42 36 52
22 18 28
22 18 28
22 18 28
42 36 52
22 18 28
22 18 28
42 36 52
22 18 28
22 18 28
22 18 28
42 36 52
22 18 28
22 18 28
22 18 28
42 36 52
22 18 28
22 18 28
22 18 28
42 36 52
22 18 28
22 18 28
42 36 52
22 18 28
22 18 28
22 18 28
42 36 52
22 18 28
22 18 28
22 18 28
42 36 52
22 18 28
22 18 28
22 18 28
42 36 52
22 18 28
22 18 28
