P3
16 48
255
36 78 70
36 78 70
36 78 70
36 78 70
36 78 70
36 78 70
36 78 70
36 78 70
36 78 70
36 78 70
36 78 70
36 78 70
36 78 70
36 78 70
36 78 70
36 78 70
36 78 70
58 110 92
58 110 92
58 110 92
58 110 92
58 110 92
58 110 92
58 110 92
58 110 92
58 110 92
58 110 92
58 110 92
58 110 92
58 110 92
58 110 92
36 78 70
36 78 70
58 110 92
122 172 112
122 172 112
122 172 112
122 172 112
122 172 112
122 172 112
122 172 112
122 172 112
122 172 112
122 172 112
122 172 112
122 172 112
58 110 92
36 78 70
36 78 70
58 110 92
122 172 112
210 208 158
210 208 158
222 220 170
210 208 158
222 220 170
222 220 170
222 220 170
210 208 158
222 220 170
222 220 170
122 172 112
58 110 92
36 78 70
36 78 70
58 110 92
122 172 112
210 208 158
36 78 70
36 78 70
36 78 70
36 78 70
36 78 70
36 78 70
36 78 70
36 78 70
222 220 170
122 172 112
58 110 92
36 78 70
36 78 70
58 110 92
122 172 112
210 208 158
36 78 70
36 78 70
36 78 70
36 78 70
36 78 70
36 78 70
36 78 70
36 78 70
222 220 170
122 172 112
58 110 92
36 78 70
36 78 70
58 110 92
122 172 112
222 220 170
36 78 70
36 78 70
36 78 70
36 78 70
36 78 70
36 78 70
36 78 70
36 78 70
210 208 158
122 172 112
58 110 92
36 78 70
36 78 70
58 110 92
122 172 112
222 220 170
36 78 70
36 78 70
36 78 70
36 78 70
36 78 70
36 78 70
36 78 70
36 78 70
210 208 158
122 172 112
58 110 92
36 78 70
36 78 70
58 110 92
122 172 112
210 208 158
36 78 70
36 78 70
36 78 70
36 78 70
36 78 70
36 78 70
36 78 70
36 78 70
222 220 170
122 172 112
58 110 92
36 78 70
36 78 70
58 110 92
122 172 112
222 220 170
36 78 70
36 78 70
36 78 70
36 78 70
36 78 70
36 78 70
36 78 70
36 78 70
210 208 158
122 172 112
58 110 92
36 78 70
36 78 70
58 110 92
122 172 112
222 220 170
36 78 70
36 78 70
36 78 70
36 78 70
36 78 70
36 78 70
36 78 70
36 78 70
210 208 158
122 172 112
58 110 92
36 78 70
36 78 70
58 110 92
122 172 112
222 220 170
36 78 70
36 78 70
36 78 70
36 78 70
36 78 70
36 78 70
36 78 70
36 78 70
210 208 158
122 172 112
58 110 92
36 78 70
36 78 70
58 110 92
122 172 112
222 220 170
222 220 170
222 220 170
210 208 158
222 220 170
210 208 158
210 208 158
222 220 170
210 208 158
222 220 170
122 172 112
58 110 92
36 78 70
36 78 70
58 110 92
122 172 112
122 172 112
122 172 112
122 172 112
122 172 112
122 172 112
122 172 112
122 172 112
122 172 112
122 172 112
122 172 112
122 172 112
58 110 92
36 78 70
36 78 70
58 110 92
58 110 92
58 110 92
58 110 92
58 110 92
58 110 92
58 110 92
58 110 92
58 110 92
58 110 92
58 110 92
58 110 92
58 110 92
58 110 92
36 78 70
36 78 70
36 78 70
36 78 70
36 78 70
36 78 70
36 78 70
36 78 70
36 78 70
36 78 70
36 78 70
36 78 70
36 78 70
36 78 70
36 78 70
36 78 70
36 78 70
36 78 70
222 220 170
222 220 170
222 220 170
210 208 158
222 220 170
210 208 158
222 220 170
210 208 158
222 220 170
222 220 170
210 208 158
210 208 158
210 208 158
210 208 158
36 78 70
36 78 70
210 208 158
222 220 170
222 220 170
222 220 170
210 208 158
222 220 170
222 220 170
222 220 170
210 208 158
222 220 170
210 208 158
210 208 158
222 220 170
222 220 170
36 78 70
36 78 70
222 220 170
222 220 170
222 220 170
222 220 170
222 220 170
210 208 158
210 208 158
210 208 158
222 220 170
222 220 170
222 220 170
222 220 170
210 208 158
222 220 170
36 78 70
36 78 70
58 110 92
58 110 92
122 172 112
58 110 92
58 110 92
122 172 112
58 110 92
58 110 92
122 172 112
58 110 92
58 110 92
122 172 112
58 110 92
58 110 92
36 78 70
36 78 70
58 110 92
122 172 112
58 110 92
58 110 92
122 172 112
58 110 92
58 110 92
122 172 112
58 110 92
58 110 92
122 172 112
58 110 92
58 110 92
122 172 112
36 78 70
36 78 70
122 172 112
58 110 92
58 110 92
122 172 112
58 110 92
58 110 92
122 172 112
58 110 92
58 110 92
122 172 112
58 110 92
58 110 92
122 172 112
58 110 92
36 78 70
36 78 70
36 78 70
36 78 70
36 78 70
36 78 70
36 78 70
36 78 70
36 78 70
36 78 70
36 78 70
36 78 70
36 78 70
36 78 70
36 78 70
36 78 70
36 78 70
36 78 70
222 220 170
222 220 170
210 208 158
222 220 170
222 220 170
222 220 170
222 220 170
210 208 158
222 220 170
222 220 170
222 220 170
222 220 170
222 220 170
210 208 158
36 78 70
36 78 70
222 220 170
210 208 158
210 208 158
222 220 170
210 208 158
210 208 158
222 220 170
222 220 170
222 220 170
210 208 158
222 220 170
210 208 158
222 220 170
222 220 170
36 78 70
36 78 70
222 220 170
222 220 170
210 208 158
222 220 170
222 220 170
222 220 170
222 220 170
210 208 158
222 220 170
210 208 158
222 220 170
210 208 158
210 208 158
222 220 170
36 78 70
36 78 70
210 208 158
222 220 170
222 220 170
210 208 158
210 208 158
210 208 158
222 220 170
222 220 170
222 220 170
222 220 170
222 220 170
210 208 158
222 220 170
210 208 158
36 78 70
36 78 70
222 220 170
222 220 170
222 220 170
210 208 158
222 220 170
210 208 158
210 208 158
222 220 170
222 220 170
222 220 170
210 208 158
210 208 158
222 220 170
222 220 170
36 78 70
36 78 70
210 208 158
222 220 170
222 220 170
222 220 170
222 220 170
222 220 170
222 220 170
210 208 158
210 208 158
210 208 158
222 220 170
222 220 170
222 220 170
222 220 170
36 78 70
36 78 70
210 208 158
222 220 170
222 220 170
222 220 170
222 220 170
210 208 158
222 220 170
210 208 158
222 220 170
222 220 170
222 220 170
210 208 158
222 220 170
222 220 170
36 78 70
36 78 70
222 220 170
222 220 170
222 220 170
222 220 170
222 220 170
210 208 158
222 220 170
210 208 158
222 220 170
210 208 158
222 220 170
222 220 170
222 220 170
222 220 170
36 78 70
36 78 70
36 78 70
36 78 70
36 78 70
36 78 70
36 78 70
36 78 70
36 78 70
36 78 70
36 78 70
36 78 70
36 78 70
36 78 70
36 78 70
36 78 70
36 78 70
36 78 70
36 78 70
36 78 70
36 78 70
36 78 70
36 78 70
36 78 70
36 78 70
36 78 70
36 78 70
36 78 70
36 78 70
36 78 70
36 78 70
36 78 70
36 78 70
36 78 70
210 208 158
210 208 158
222 220 170
210 208 158
222 220 170
222 220 170
222 220 170
222 220 170
222 220 170
210 208 158
222 220 170
210 208 158
210 208 158
222 220 170
36 78 70
36 78 70
210 208 158
222 220 170
222 220 170
210 208 158
210 208 158
222 220 170
222 220 170
210 208 158
210 208 158
210 208 158
222 220 170
222 220 170
222 220 170
222 220 170
36 78 70
36 78 70
210 208 158
222 220 170
210 208 158
210 208 158
222 220 170
210 208 158
222 220 170
222 220 170
222 220 170
210 208 158
222 220 170
222 220 170
222 220 170
222 220 170
36 78 70
36 78 70
222 220 170
222 220 170
222 220 170
222 220 170
222 220 170
222 220 170
222 220 170
222 220 170
222 220 170
210 208 158
222 220 170
222 220 170
222 220 170
210 208 158
36 78 70
36 78 70
222 220 170
210 208 158
222 220 170
222 220 170
210 208 158
222 220 170
210 208 158
222 220 170
222 220 170
222 220 170
222 220 170
210 208 158
210 208 158
222 220 170
36 78 70
36 78 70
210 208 158
222 220 170
222 220 170
222 220 170
222 220 170
210 208 158
222 220 170
222 220 170
210 208 158
222 220 170
222 220 170
222 220 170
210 208 158
210 208 158
36 78 70
36 78 70
222 220 170
222 220 170
222 220 170
210 208 158
210 208 158
222 220 170
210 208 158
222 220 170
222 220 170
222 220 170
210 208 158
210 208 158
210 208 158
222 220 170
36 78 70
36 78 70
222 220 170
222 220 170
210 208 158
210 208 158
210 208 158
222 220 170
222 220 170
222 220 170
222 220 170
222 220 170
222 220 170
210 208 158
222 220 170
210 208 158
36 78 70
36 78 70
222 220 170
222 220 170
222 220 170
222 220 170
222 220 170
210 208 158
222 220 170
222 220 170
210 208 158
222 220 170
222 220 170
222 220 170
222 220 170
222 220 170
36 78 70
36 78 70
222 220 170
222 220 170
222 220 170
222 220 170
210 208 158
210 208 158
222 220 170
222 220 170
222 220 170
210 208 158
222 220 170
222 220 170
210 208 158
222 220 170
36 78 70
36 78 70
222 220 170
222 220 170
222 220 170
222 220 170
222 220 170
222 220 170
222 220 170
222 220 170
222 220 170
222 220 170
222 220 170
222 220 170
222 220 170
210 208 158
36 78 70
36 78 70
210 208 158
222 220 170
222 220 170
222 220 170
210 208 158
222 220 170
210 208 158
222 220 170
210 208 158
222 220 170
222 220 170
222 220 170
222 220 170
222 220 170
36 78 70
36 78 70
210 208 158
222 220 170
222 220 170
222 220 170
222 220 170
222 220 170
222 220 170
210 208 158
222 220 170
210 208 158
210 208 158
210 208 158
222 220 170
222 220 170
36 78 70
36 78 70
222 220 170
210 208 158
210 208 158
222 220 170
222 220 170
210 208 158
210 208 158
222 220 170
222 220 170
210 208 158
210 208 158
210 208 158
210 208 158
222 220 170
36 78 70
36 78 70
36 78 70
36 78 70
36 78 70
36 78 70
36 78 70
36 78 70
36 78 70
36 78 70
36 78 70
36 78 70
36 78 70
36 78 70
36 78 70
36 78 70
36 78 70
