P3
16 16
255
6 10 20
6 10 20
6 10 20
6 10 20
6 10 20
6 10 20
6 10 20
6 10 20
6 10 20
6 10 20
6 10 20
6 10 20
6 10 20
6 10 20
6 10 20
6 10 20
6 10 20
6 10 20
6 10 20
6 10 20
6 10 20
6 10 20
6 10 20
6 10 20
6 10 20
6 10 20
6 10 20
6 10 20
6 10 20
6 10 20
6 10 20
6 10 20
6 10 20
6 10 20
6 10 20
6 10 20
6 10 20
6 10 20
6 10 20
6 10 20
6 10 20
6 10 20
6 10 20
6 10 20
6 10 20
6 10 20
6 10 20
6 10 20
6 10 20
6 10 20
6 10 20
6 10 20
6 10 20
6 10 20
6 10 20
6 10 20
6 10 20
6 10 20
6 10 20
6 10 20
6 10 20
6 10 20
6 10 20
6 10 20
6 10 20
6 10 20
6 10 20
6 10 20
6 10 20
6 10 20
6 10 20
6 10 20
6 10 20
6 10 20
6 10 20
6 10 20
6 10 20
6 10 20
6 10 20
6 10 20
6 10 20
6 10 20
6 10 20
6 10 20
6 10 20
6 10 20
6 10 20
6 10 20
6 10 20
6 10 20
6 10 20
6 10 20
6 10 20
6 10 20
6 10 20
6 10 20
6 10 20
6 10 20
6 10 20
6 10 20
6 10 20
6 10 20
6 10 20
6 10 20
6 10 20
6 10 20
6 10 20
6 10 20
6 10 20
6 10 20
6 10 20
6 10 20
6 10 20
6 10 20
6 10 20
6 10 20
6 10 20
6 10 20
6 10 20
6 10 20
6 10 20
6 10 20
6 10 20
6 10 20
6 10 20
6 10 20
6 10 20
6 10 20
6 10 20
6 10 20
6 10 20
6 10 20
6 10 20
6 10 20
6 10 20
6 10 20
6 10 20
6 10 20
6 10 20
6 10 20
6 10 20
6 10 20
6 10 20
6 10 20
6 10 20
6 10 20
6 10 20
6 10 20
6 10 20
6 10 20
6 10 20
6 10 20
6 10 20
6 10 20
6 10 20
6 10 20
6 10 20
6 10 20
6 10 20
6 10 20
6 10 20
6 10 20
6 10 20
6 10 20
6 10 20
6 10 20
6 10 20
6 10 20
6 10 20
6 10 20
6 10 20
6 10 20
6 10 20
6 10 20
6 10 20
6 10 20
6 10 20
6 10 20
6 10 20
6 10 20
6 10 20
6 10 20
6 10 20
6 10 20
6 10 20
6 10 20
6 10 20
6 10 20
6 10 20
6 10 20
6 10 20
6 10 20
6 10 20
6 10 20
6 10 20
6 10 20
6 10 20
6 10 20
6 10 20
6 10 20
6 10 20
6 10 20
6 10 20
6 10 20
6 10 20
6 10 20
6 10 20
6 10 20
6 10 20
6 10 20
6 10 20
6 10 20
6 10 20
6 10 20
6 10 20
6 10 20
6 10 20
6 10 20
6 10 20
6 10 20
6 10 20
6 10 20
6 10 20
6 10 20
6 10 20
6 10 20
6 10 20
6 10 20
6 10 20
6 10 20
6 10 20
6 10 20
6 10 20
6 10 20
6 10 20
6 10 20
6 10 20
6 10 20
6 10 20
6 10 20
6 10 20
6 10 20
6 10 20
6 10 20
6 10 20
6 10 20
6 10 20
6 10 20
6 10 20
6 10 20
6 10 20
6 10 20
6 10 20
6 10 20
6 10 20
6 10 20
