P3
16 16
255
228 230 170
219 222 158
228 230 170
228 230 170
186 184 126
186 184 126
228 230 170
219 222 158
228 230 170
198 198 138
198 198 138
198 198 138
198 198 138
219 222 158
198 198 138
228 230 170
228 230 170
219 222 158
186 184 126
228 230 170
186 184 126
219 222 158
228 230 170
186 184 126
186 184 126
228 230 170
228 230 170
198 198 138
219 222 158
198 198 138
198 198 138
219 222 158
219 222 158
219 222 158
219 222 158
219 222 158
228 230 170
198 198 138
219 222 158
198 198 138
219 222 158
228 230 170
198 198 138
219 222 158
228 230 170
198 198 138
228 230 170
228 230 170
219 222 158
228 230 170
219 222 158
228 230 170
198 198 138
219 222 158
186 184 126
219 222 158
219 222 158
219 222 158
198 198 138
228 230 170
219 222 158
219 222 158
219 222 158
228 230 170
228 230 170
228 230 170
186 184 126
228 230 170
198 198 138
198 198 138
186 184 126
219 222 158
198 198 138
186 184 126
219 222 158
219 222 158
198 198 138
186 184 126
186 184 126
186 184 126
228 230 170
198 198 138
198 198 138
228 230 170
198 198 138
228 230 170
186 184 126
198 198 138
228 230 170
198 198 138
219 222 158
198 198 138
219 222 158
219 222 158
228 230 170
228 230 170
198 198 138
228 230 170
219 222 158
186 184 126
219 222 158
228 230 170
228 230 170
228 230 170
198 198 138
228 230 170
198 198 138
198 198 138
198 198 138
198 198 138
186 184 126
219 222 158
186 184 126
198 198 138
198 198 138
198 198 138
198 198 138
219 222 158
198 198 138
219 222 158
198 198 138
186 184 126
228 230 170
219 222 158
228 230 170
228 230 170
228 230 170
228 230 170
198 198 138
198 198 138
198 198 138
219 222 158
198 198 138
198 198 138
198 198 138
219 222 158
228 230 170
198 198 138
228 230 170
186 184 126
228 230 170
198 198 138
228 230 170
219 222 158
219 222 158
219 222 158
219 222 158
198 198 138
219 222 158
228 230 170
228 230 170
219 222 158
228 230 170
186 184 126
219 222 158
219 222 158
228 230 170
198 198 138
219 222 158
186 184 126
228 230 170
198 198 138
228 230 170
228 230 170
219 222 158
219 222 158
228 230 170
198 198 138
228 230 170
198 198 138
228 230 170
228 230 170
198 198 138
219 222 158
198 198 138
228 230 170
219 222 158
228 230 170
198 198 138
198 198 138
228 230 170
228 230 170
219 222 158
198 198 138
198 198 138
228 230 170
219 222 158
198 198 138
228 230 170
198 198 138
198 198 138
198 198 138
228 230 170
228 230 170
198 198 138
219 222 158
198 198 138
186 184 126
228 230 170
198 198 138
198 198 138
186 184 126
198 198 138
228 230 170
219 222 158
228 230 170
198 198 138
198 198 138
219 222 158
228 230 170
198 198 138
186 184 126
198 198 138
186 184 126
228 230 170
198 198 138
198 198 138
219 222 158
228 230 170
198 198 138
228 230 170
186 184 126
228 230 170
186 184 126
198 198 138
219 222 158
198 198 138
219 222 158
228 230 170
198 198 138
186 184 126
219 222 158
228 230 170
228 230 170
186 184 126
219 222 158
198 198 138
228 230 170
198 198 138
219 222 158
228 230 170
228 230 170
228 230 170
228 230 170
219 222 158
228 230 170
219 222 158
198 198 138
219 222 158
228 230 170
228 230 170
228 230 170
219 222 158
228 230 170
198 198 138
186 184 126
