P3
16 16
255
16 56 36
16 56 36
16 56 36
16 56 36
16 56 36
16 56 36
16 56 36
16 56 36
16 56 36
16 56 36
16 56 36
16 56 36
16 56 36
16 56 36
16 56 36
16 56 36
16 56 36
16 56 36
16 56 36
16 56 36
16 56 36
24 84 52
24 84 52
24 84 52
24 84 52
24 84 52
24 84 52
16 56 36
16 56 36
16 56 36
16 56 36
16 56 36
16 56 36
16 56 36
16 56 36
16 56 36
24 84 52
24 84 52
24 84 52
24 84 52
24 84 52
24 84 52
24 84 52
24 84 52
16 56 36
16 56 36
16 56 36
16 56 36
16 56 36
16 56 36
16 56 36
24 84 52
24 84 52
130 210 60
130 210 60
130 210 60
130 210 60
130 210 60
130 210 60
24 84 52
24 84 52
16 56 36
16 56 36
16 56 36
16 56 36
16 56 36
24 84 52
24 84 52
130 210 60
130 210 60
130 210 60
130 210 60
130 210 60
130 210 60
130 210 60
130 210 60
24 84 52
24 84 52
16 56 36
16 56 36
16 56 36
24 84 52
24 84 52
130 210 60
130 210 60
130 210 60
40 190 170
40 190 170
40 190 170
40 190 170
130 210 60
130 210 60
130 210 60
24 84 52
24 84 52
16 56 36
16 56 36
24 84 52
24 84 52
130 210 60
130 210 60
40 190 170
40 190 170
10 10 12
10 10 12
40 190 170
40 190 170
130 210 60
130 210 60
24 84 52
24 84 52
16 56 36
16 56 36
24 84 52
24 84 52
130 210 60
130 210 60
40 190 170
10 10 12
10 10 12
10 10 12
10 10 12
40 190 170
130 210 60
130 210 60
24 84 52
24 84 52
16 56 36
16 56 36
24 84 52
24 84 52
130 210 60
130 210 60
40 190 170
10 10 12
10 10 12
10 10 12
10 10 12
40 190 170
130 210 60
130 210 60
24 84 52
24 84 52
16 56 36
16 56 36
24 84 52
24 84 52
130 210 60
130 210 60
40 190 170
40 190 170
10 10 12
10 10 12
40 190 170
40 190 170
130 210 60
130 210 60
24 84 52
24 84 52
16 56 36
16 56 36
24 84 52
24 84 52
130 210 60
130 210 60
130 210 60
40 190 170
40 190 170
40 190 170
40 190 170
130 210 60
130 210 60
130 210 60
24 84 52
24 84 52
16 56 36
16 56 36
16 56 36
24 84 52
24 84 52
130 210 60
130 210 60
130 210 60
130 210 60
130 210 60
130 210 60
130 210 60
130 210 60
24 84 52
24 84 52
16 56 36
16 56 36
16 56 36
16 56 36
16 56 36
24 84 52
24 84 52
130 210 60
130 210 60
130 210 60
130 210 60
130 210 60
130 210 60
24 84 52
24 84 52
16 56 36
16 56 36
16 56 36
16 56 36
16 56 36
16 56 36
16 56 36
24 84 52
24 84 52
24 84 52
24 84 52
24 84 52
24 84 52
24 84 52
24 84 52
16 56 36
16 56 36
16 56 36
16 56 36
16 56 36
16 56 36
16 56 36
16 56 36
16 56 36
24 84 52
24 84 52
24 84 52
24 84 52
24 84 52
24 84 52
16 56 36
16 56 36
16 56 36
16 56 36
16 56 36
16 56 36
16 56 36
16 56 36
16 56 36
16 56 36
16 56 36
16 56 36
16 56 36
16 56 36
16 56 36
16 56 36
16 56 36
16 56 36
16 56 36
16 56 36
16 56 36
