P3
16 48
255
86 138 48
98 152 54
86 138 48
86 138 48
98 152 54
98 152 54
98 152 54
86 138 48
98 152 54
86 138 48
98 152 54
98 152 54
98 152 54
98 152 54
86 138 48
86 138 48
86 138 48
86 138 48
98 152 54
98 152 54
98 152 54
98 152 54
86 138 48
98 152 54
98 152 54
86 138 48
86 138 48
98 152 54
86 138 48
98 152 54
98 152 54
86 138 48
86 138 48
86 138 48
86 138 48
98 152 54
86 138 48
86 138 48
98 152 54
86 138 48
98 152 54
86 138 48
98 152 54
86 138 48
86 138 48
86 138 48
86 138 48
86 138 48
98 152 54
86 138 48
98 152 54
86 138 48
98 152 54
86 138 48
98 152 54
98 152 54
98 152 54
98 152 54
98 152 54
86 138 48
98 152 54
86 138 48
98 152 54
86 138 48
98 152 54
86 138 48
98 152 54
86 138 48
98 152 54
86 138 48
98 152 54
98 152 54
98 152 54
86 138 48
98 152 54
86 138 48
98 152 54
98 152 54
98 152 54
98 152 54
86 138 48
98 152 54
98 152 54
86 138 48
86 138 48
86 138 48
86 138 48
98 152 54
98 152 54
86 138 48
86 138 48
98 152 54
98 152 54
98 152 54
98 152 54
86 138 48
86 138 48
98 152 54
98 152 54
98 152 54
98 152 54
98 152 54
86 138 48
98 152 54
98 152 54
98 152 54
86 138 48
86 138 48
98 152 54
98 152 54
86 138 48
98 152 54
86 138 48
86 138 48
98 152 54
86 138 48
86 138 48
86 138 48
86 138 48
86 138 48
86 138 48
86 138 48
98 152 54
86 138 48
98 152 54
86 138 48
86 138 48
86 138 48
98 152 54
98 152 54
98 152 54
98 152 54
98 152 54
86 138 48
98 152 54
98 152 54
98 152 54
86 138 48
86 138 48
98 152 54
86 138 48
86 138 48
98 152 54
98 152 54
98 152 54
98 152 54
98 152 54
86 138 48
86 138 48
98 152 54
98 152 54
86 138 48
98 152 54
98 152 54
86 138 48
98 152 54
86 138 48
98 152 54
98 152 54
98 152 54
98 152 54
98 152 54
98 152 54
98 152 54
98 152 54
98 152 54
98 152 54
98 152 54
98 152 54
98 152 54
86 138 48
98 152 54
86 138 48
98 152 54
98 152 54
98 152 54
86 138 48
86 138 48
86 138 48
98 152 54
86 138 48
86 138 48
86 138 48
98 152 54
86 138 48
86 138 48
86 138 48
98 152 54
98 152 54
98 152 54
98 152 54
86 138 48
98 152 54
98 152 54
98 152 54
98 152 54
98 152 54
86 138 48
86 138 48
98 152 54
86 138 48
86 138 48
86 138 48
98 152 54
98 152 54
86 138 48
86 138 48
86 138 48
86 138 48
98 152 54
98 152 54
98 152 54
86 138 48
86 138 48
86 138 48
98 152 54
98 152 54
98 152 54
86 138 48
98 152 54
86 138 48
86 138 48
86 138 48
98 152 54
86 138 48
86 138 48
98 152 54
98 152 54
98 152 54
98 152 54
98 152 54
86 138 48
86 138 48
86 138 48
86 138 48
98 152 54
86 138 48
98 152 54
98 152 54
98 152 54
98 152 54
98 152 54
86 138 48
98 152 54
86 138 48
98 152 54
86 138 48
98 152 54
98 152 54
98 152 54
98 152 54
98 152 54
98 152 54
98 152 54
98 152 54
86 138 48
98 152 54
98 152 54
86 138 48
86 138 48
98 152 54
98 152 54
86 138 48
98 152 54
98 152 54
98 152 54
98 152 54
98 152 54
98 152 54
86 138 48
86 138 48
86 138 48
86 138 48
98 152 54
98 152 54
86 138 48
86 138 48
98 152 54
86 138 48
98 152 54
86 138 48
86 138 48
98 152 54
98 152 54
86 138 48
98 152 54
86 138 48
98 152 54
98 152 54
86 138 48
86 138 48
98 152 54
98 152 54
98 152 54
86 138 48
98 152 54
98 152 54
86 138 48
98 152 54
98 152 54
98 152 54
98 152 54
98 152 54
98 152 54
98 152 54
118 84 58
118 84 58
118 84 58
86 138 48
132 94 66
86 138 48
132 94 66
132 94 66
118 84 58
118 84 58
132 94 66
98 152 54
86 138 48
86 138 48
132 94 66
132 94 66
132 94 66
132 94 66
132 94 66
118 84 58
132 94 66
118 84 58
132 94 66
118 84 58
118 84 58
132 94 66
118 84 58
118 84 58
118 84 58
132 94 66
132 94 66
132 94 66
118 84 58
132 94 66
132 94 66
118 84 58
132 94 66
132 94 66
132 94 66
118 84 58
118 84 58
132 94 66
118 84 58
118 84 58
118 84 58
118 84 58
118 84 58
132 94 66
118 84 58
118 84 58
118 84 58
118 84 58
118 84 58
118 84 58
132 94 66
118 84 58
132 94 66
132 94 66
118 84 58
132 94 66
132 94 66
118 84 58
118 84 58
132 94 66
118 84 58
118 84 58
132 94 66
118 84 58
132 94 66
132 94 66
132 94 66
118 84 58
118 84 58
118 84 58
118 84 58
132 94 66
132 94 66
132 94 66
132 94 66
132 94 66
118 84 58
118 84 58
132 94 66
132 94 66
132 94 66
118 84 58
118 84 58
132 94 66
118 84 58
118 84 58
118 84 58
132 94 66
132 94 66
132 94 66
132 94 66
118 84 58
132 94 66
132 94 66
132 94 66
132 94 66
132 94 66
132 94 66
132 94 66
118 84 58
132 94 66
118 84 58
132 94 66
132 94 66
132 94 66
118 84 58
118 84 58
118 84 58
118 84 58
132 94 66
132 94 66
132 94 66
118 84 58
132 94 66
132 94 66
118 84 58
132 94 66
132 94 66
118 84 58
118 84 58
118 84 58
118 84 58
132 94 66
118 84 58
118 84 58
118 84 58
132 94 66
132 94 66
132 94 66
118 84 58
132 94 66
118 84 58
118 84 58
118 84 58
132 94 66
132 94 66
132 94 66
118 84 58
132 94 66
118 84 58
118 84 58
118 84 58
118 84 58
118 84 58
132 94 66
132 94 66
132 94 66
132 94 66
132 94 66
132 94 66
118 84 58
118 84 58
118 84 58
132 94 66
118 84 58
118 84 58
118 84 58
132 94 66
132 94 66
132 94 66
118 84 58
132 94 66
132 94 66
132 94 66
118 84 58
118 84 58
132 94 66
118 84 58
118 84 58
132 94 66
132 94 66
132 94 66
118 84 58
132 94 66
118 84 58
118 84 58
132 94 66
132 94 66
118 84 58
132 94 66
132 94 66
118 84 58
132 94 66
132 94 66
118 84 58
132 94 66
118 84 58
132 94 66
118 84 58
118 84 58
132 94 66
132 94 66
118 84 58
132 94 66
132 94 66
118 84 58
132 94 66
132 94 66
118 84 58
118 84 58
132 94 66
132 94 66
118 84 58
132 94 66
118 84 58
132 94 66
118 84 58
118 84 58
132 94 66
132 94 66
132 94 66
132 94 66
118 84 58
132 94 66
118 84 58
118 84 58
132 94 66
132 94 66
118 84 58
132 94 66
118 84 58
132 94 66
118 84 58
118 84 58
118 84 58
118 84 58
118 84 58
132 94 66
132 94 66
132 94 66
132 94 66
118 84 58
118 84 58
132 94 66
132 94 66
132 94 66
118 84 58
118 84 58
132 94 66
118 84 58
118 84 58
118 84 58
118 84 58
132 94 66
118 84 58
118 84 58
118 84 58
132 94 66
118 84 58
118 84 58
132 94 66
118 84 58
132 94 66
118 84 58
132 94 66
132 94 66
118 84 58
118 84 58
118 84 58
132 94 66
132 94 66
118 84 58
118 84 58
118 84 58
118 84 58
132 94 66
132 94 66
132 94 66
132 94 66
132 94 66
118 84 58
132 94 66
132 94 66
132 94 66
132 94 66
132 94 66
132 94 66
118 84 58
132 94 66
132 94 66
118 84 58
132 94 66
132 94 66
118 84 58
118 84 58
118 84 58
132 94 66
118 84 58
132 94 66
132 94 66
118 84 58
118 84 58
132 94 66
132 94 66
118 84 58
132 94 66
132 94 66
118 84 58
118 84 58
118 84 58
118 84 58
132 94 66
118 84 58
118 84 58
132 94 66
132 94 66
118 84 58
132 94 66
118 84 58
132 94 66
118 84 58
132 94 66
118 84 58
132 94 66
118 84 58
118 84 58
132 94 66
132 94 66
118 84 58
132 94 66
118 84 58
118 84 58
132 94 66
118 84 58
132 94 66
132 94 66
118 84 58
132 94 66
132 94 66
118 84 58
132 94 66
132 94 66
118 84 58
132 94 66
118 84 58
118 84 58
132 94 66
118 84 58
118 84 58
118 84 58
118 84 58
132 94 66
118 84 58
118 84 58
132 94 66
132 94 66
132 94 66
118 84 58
132 94 66
118 84 58
132 94 66
132 94 66
132 94 66
118 84 58
132 94 66
132 94 66
118 84 58
132 94 66
132 94 66
132 94 66
118 84 58
118 84 58
132 94 66
132 94 66
132 94 66
132 94 66
132 94 66
132 94 66
132 94 66
132 94 66
132 94 66
132 94 66
118 84 58
118 84 58
118 84 58
118 84 58
132 94 66
118 84 58
132 94 66
118 84 58
118 84 58
132 94 66
118 84 58
118 84 58
132 94 66
118 84 58
118 84 58
118 84 58
118 84 58
118 84 58
132 94 66
132 94 66
132 94 66
132 94 66
132 94 66
118 84 58
118 84 58
132 94 66
118 84 58
118 84 58
118 84 58
118 84 58
132 94 66
118 84 58
132 94 66
118 84 58
118 84 58
132 94 66
118 84 58
132 94 66
118 84 58
132 94 66
132 94 66
132 94 66
118 84 58
118 84 58
118 84 58
132 94 66
118 84 58
118 84 58
118 84 58
118 84 58
118 84 58
118 84 58
132 94 66
118 84 58
132 94 66
118 84 58
132 94 66
132 94 66
132 94 66
132 94 66
132 94 66
118 84 58
132 94 66
132 94 66
118 84 58
132 94 66
118 84 58
132 94 66
118 84 58
118 84 58
118 84 58
132 94 66
132 94 66
132 94 66
118 84 58
118 84 58
118 84 58
118 84 58
132 94 66
132 94 66
132 94 66
132 94 66
118 84 58
118 84 58
118 84 58
132 94 66
118 84 58
