P3
16 16
255
60 62 66
196 198 204
110 112 118
110 112 118
60 62 66
196 198 204
110 112 118
110 112 118
60 62 66
196 198 204
110 112 118
110 112 118
60 62 66
196 198 204
110 112 118
110 112 118
60 62 66
196 198 204
150 152 158
150 152 158
60 62 66
196 198 204
150 152 158
150 152 158
60 62 66
196 198 204
150 152 158
150 152 158
60 62 66
196 198 204
150 152 158
150 152 158
60 62 66
196 198 204
150 152 158
150 152 158
60 62 66
196 198 204
150 152 158
150 152 158
60 62 66
196 198 204
150 152 158
150 152 158
60 62 66
196 198 204
150 152 158
150 152 158
60 62 66
196 198 204
150 152 158
150 152 158
60 62 66
196 198 204
150 152 158
150 152 158
60 62 66
196 198 204
150 152 158
150 152 158
60 62 66
196 198 204
150 152 158
150 152 158
60 62 66
196 198 204
150 152 158
150 152 158
60 62 66
196 198 204
150 152 158
150 152 158
60 62 66
196 198 204
150 152 158
150 152 158
60 62 66
196 198 204
150 152 158
150 152 158
60 62 66
196 198 204
150 152 158
150 152 158
60 62 66
196 198 204
150 152 158
150 152 158
60 62 66
196 198 204
150 152 158
150 152 158
60 62 66
196 198 204
150 152 158
150 152 158
60 62 66
196 198 204
150 152 158
150 152 158
60 62 66
196 198 204
150 152 158
150 152 158
60 62 66
196 198 204
150 152 158
150 152 158
60 62 66
196 198 204
150 152 158
150 152 158
60 62 66
196 198 204
150 152 158
150 152 158
60 62 66
196 198 204
150 152 158
150 152 158
60 62 66
196 198 204
150 152 158
150 152 158
60 62 66
196 198 204
150 152 158
150 152 158
60 62 66
196 198 204
110 112 118
110 112 118
60 62 66
196 198 204
110 112 118
110 112 118
60 62 66
196 198 204
110 112 118
110 112 118
60 62 66
196 198 204
110 112 118
110 112 118
60 62 66
196 198 204
150 152 158
150 152 158
60 62 66
196 198 204
150 152 158
150 152 158
60 62 66
196 198 204
150 152 158
150 152 158
60 62 66
196 198 204
150 152 158
150 152 158
60 62 66
196 198 204
150 152 158
150 152 158
60 62 66
196 198 204
150 152 158
150 152 158
60 62 66
196 198 204
150 152 158
150 152 158
60 62 66
196 198 204
150 152 158
150 152 158
60 62 66
196 198 204
150 152 158
150 152 158
60 62 66
196 198 204
150 152 158
150 152 158
60 62 66
196 198 204
150 152 158
150 152 158
60 62 66
196 198 204
150 152 158
150 152 158
60 62 66
196 198 204
150 152 158
150 152 158
60 62 66
196 198 204
150 152 158
150 152 158
60 62 66
196 198 204
150 152 158
150 152 158
60 62 66
196 198 204
150 152 158
150 152 158
60 62 66
196 198 204
150 152 158
150 152 158
60 62 66
196 198 204
150 152 158
150 152 158
60 62 66
196 198 204
150 152 158
150 152 158
60 62 66
196 198 204
150 152 158
150 152 158
60 62 66
196 198 204
150 152 158
150 152 158
60 62 66
196 198 204
150 152 158
150 152 158
60 62 66
196 198 204
150 152 158
150 152 158
60 62 66
196 198 204
150 152 158
150 152 158
60 62 66
196 198 204
150 152 158
150 152 158
60 62 66
196 198 204
150 152 158
150 152 158
60 62 66
196 198 204
150 152 158
150 152 158
60 62 66
196 198 204
150 152 158
150 152 158
