P3
64 64
255
116 116 106
202 202 185
210 210 193
218 218 200
223 223 205
229 229 210
232 232 213
234 234 215
235 235 216
234 234 215
231 231 212
227 227 208
222 222 204
215 215 197
207 207 190
200 200 184
191 191 175
181 181 166
175 175 161
168 168 154
161 161 148
93 93 85
153 153 140
150 150 138
150 150 138
152 152 139
155 155 142
160 160 147
166 166 152
173 173 159
180 180 165
189 189 173
199 199 183
207 207 190
215 215 197
220 220 202
226 226 207
231 231 212
235 235 216
235 235 216
235 235 216
233 233 214
137 137 126
224 224 206
218 218 200
211 211 194
202 202 185
194 194 178
186 186 171
178 178 163
170 170 156
163 163 149
158 158 145
154 154 141
151 151 138
150 150 138
152 152 139
154 154 141
159 159 146
164 164 150
171 171 157
178 178 163
186 186 171
117 117 107
118 118 108
204 204 187
211 211 194
219 219 201
226 226 207
231 231 212
234 234 215
235 235 216
236 236 217
234 234 215
230 230 211
225 225 207
220 220 202
211 211 194
204 204 187
197 197 181
188 188 172
179 179 164
172 172 158
165 165 151
159 159 146
93 93 85
152 152 139
150 150 138
151 151 138
154 154 141
156 156 143
163 163 149
168 168 154
175 175 161
183 183 168
193 193 177
202 202 185
209 209 192
216 216 198
223 223 205
228 228 209
233 233 214
235 235 216
235 235 216
235 235 216
232 232 213
137 137 126
223 223 205
215 215 197
208 208 191
199 199 183
191 191 175
183 183 168
174 174 160
168 168 154
161 161 148
156 156 143
152 152 139
150 150 138
150 150 138
153 153 140
155 155 142
160 160 147
166 166 152
172 172 158
181 181 166
189 189 173
118 118 108
119 119 109
206 206 189
215 215 197
221 221 203
228 228 209
231 231 212
235 235 216
236 236 217
235 235 216
232 232 213
229 229 210
223 223 205
218 218 200
210 210 193
201 201 184
193 193 177
184 184 169
176 176 161
169 169 155
162 162 149
157 157 144
92 92 84
151 151 138
150 150 138
152 152 139
155 155 142
159 159 146
164 164 150
172 172 158
179 179 164
187 187 172
195 195 179
205 205 188
212 212 195
219 219 201
225 225 207
229 229 210
234 234 215
235 235 216
236 236 217
233 233 214
230 230 211
135 135 124
219 219 201
213 213 195
204 204 187
197 197 181
188 188 172
179 179 164
173 173 159
165 165 151
160 160 147
154 154 141
153 153 140
151 151 138
150 150 138
152 152 139
157 157 144
163 163 149
168 168 154
176 176 161
183 183 168
191 191 175
120 120 110
121 121 111
209 209 192
218 218 200
223 223 205
229 229 210
233 233 214
236 236 217
235 235 216
234 234 215
231 231 212
226 226 207
221 221 203
214 214 196
206 206 189
198 198 182
189 189 173
181 181 166
173 173 159
167 167 153
160 160 147
155 155 142
91 91 83
150 150 138
151 151 138
152 152 139
156 156 143
161 161 148
167 167 153
173 173 159
182 182 167
189 189 173
198 198 182
207 207 190
215 215 197
221 221 203
227 227 208
231 231 212
234 234 215
235 235 216
236 236 217
232 232 213
229 229 210
134 134 123
217 217 199
209 209 192
201 201 184
194 194 178
184 184 169
177 177 162
169 169 155
163 163 149
158 158 145
153 153 140
150 150 138
150 150 138
152 152 139
154 154 141
158 158 145
163 163 149
171 171 157
177 177 162
187 187 172
195 195 179
122 122 112
123 123 113
213 213 195
219 219 201
225 225 207
230 230 211
234 234 215
236 236 217
234 234 215
234 234 215
230 230 211
226 226 207
219 219 201
212 212 195
203 203 186
196 196 180
188 188 172
179 179 164
172 172 158
164 164 150
158 158 145
154 154 141
91 91 83
150 150 138
150 150 138
154 154 141
157 157 144
162 162 149
168 168 154
176 176 161
185 185 170
192 192 176
200 200 184
209 209 192
218 218 200
223 223 205
228 228 209
232 232 213
234 234 215
236 236 217
234 234 215
232 232 213
228 228 209
133 133 122
215 215 197
207 207 190
199 199 183
190 190 174
182 182 167
175 175 161
166 166 152
160 160 147
156 156 143
152 152 139
150 150 138
150 150 138
152 152 139
156 156 143
160 160 147
167 167 153
172 172 158
181 181 166
189 189 173
198 198 182
124 124 114
124 124 114
216 216 198
222 222 204
227 227 208
232 232 213
235 235 216
236 236 217
236 236 217
232 232 213
228 228 209
224 224 206
216 216 198
210 210 193
202 202 185
193 193 177
184 184 169
175 175 161
169 169 155
162 162 149
157 157 144
154 154 141
90 90 82
151 151 138
151 151 138
154 154 141
159 159 146
165 165 151
172 172 158
179 179 164
187 187 172
196 196 180
204 204 187
211 211 194
220 220 202
225 225 207
231 231 212
233 233 214
235 235 216
235 235 216
233 233 214
230 230 211
226 226 207
132 132 121
213 213 195
204 204 187
195 195 179
188 188 172
180 180 165
172 172 158
165 165 151
158 158 145
155 155 142
152 152 139
151 151 138
151 151 138
153 153 140
157 157 144
161 161 148
168 168 154
175 175 161
183 183 168
191 191 175
201 201 184
125 125 115
126 126 115
218 218 200
224 224 206
230 230 211
232 232 213
235 235 216
234 234 215
233 233 214
232 232 213
226 226 207
221 221 203
215 215 197
207 207 190
199 199 183
190 190 174
181 181 166
174 174 160
166 166 152
159 159 146
156 156 143
152 152 139
90 90 82
150 150 138
152 152 139
156 156 143
160 160 147
167 167 153
173 173 159
182 182 167
191 191 175
198 198 182
207 207 190
214 214 196
222 222 204
227 227 208
231 231 212
235 235 216
236 236 217
235 235 216
234 234 215
229 229 210
223 223 205
130 130 119
210 210 193
201 201 184
193 193 177
184 184 169
177 177 162
169 169 155
163 163 149
157 157 144
153 153 140
152 152 139
150 150 138
152 152 139
154 154 141
159 159 146
165 165 151
171 171 157
179 179 164
187 187 172
196 196 180
204 204 187
126 126 115
128 128 117
219 219 201
226 226 207
231 231 212
233 233 214
235 235 216
235 235 216
233 233 214
230 230 211
224 224 206
219 219 201
211 211 194
203 203 186
196 196 180
187 187 172
179 179 164
171 171 157
164 164 150
158 158 145
154 154 141
152 152 139
91 91 83
150 150 138
154 154 141
158 158 145
163 163 149
169 169 155
176 176 161
184 184 169
194 194 178
201 201 184
209 209 192
216 216 198
224 224 206
229 229 210
233 233 214
235 235 216
236 236 217
234 234 215
232 232 213
227 227 208
222 222 204
129 129 118
207 207 190
200 200 184
190 190 174
182 182 167
174 174 160
166 166 152
161 161 148
157 157 144
153 153 140
151 151 138
150 150 138
152 152 139
155 155 142
160 160 147
167 167 153
173 173 159
181 181 166
189 189 173
199 199 183
207 207 190
128 128 117
129 129 118
222 222 204
228 228 209
231 231 212
235 235 216
236 236 217
235 235 216
233 233 214
228 228 209
222 222 204
217 217 199
208 208 191
201 201 184
192 192 176
183 183 168
176 176 161
168 168 154
162 162 149
157 157 144
153 153 140
151 151 138
90 90 82
152 152 139
155 155 142
160 160 147
164 164 150
172 172 158
180 180 165
189 189 173
196 196 180
204 204 187
212 212 195
219 219 201
226 226 207
231 231 212
234 234 215
236 236 217
236 236 217
233 233 214
231 231 212
226 226 207
220 220 202
127 127 116
204 204 187
195 195 179
188 188 172
179 179 164
172 172 158
165 165 151
158 158 145
154 154 141
152 152 139
150 150 138
152 152 139
154 154 141
157 157 144
162 162 149
168 168 154
176 176 161
185 185 170
192 192 176
200 200 184
210 210 193
130 130 119
130 130 119
224 224 206
230 230 211
233 233 214
236 236 217
235 235 216
233 233 214
231 231 212
227 227 208
220 220 202
214 214 196
206 206 189
197 197 181
189 189 173
180 180 165
173 173 159
165 165 151
160 160 147
155 155 142
153 153 140
151 151 138
91 91 83
153 153 140
157 157 144
161 161 148
168 168 154
175 175 161
183 183 168
191 191 175
200 200 184
208 208 191
215 215 197
223 223 205
227 227 208
232 232 213
234 234 215
235 235 216
234 234 215
232 232 213
228 228 209
224 224 206
217 217 199
126 126 115
202 202 185
193 193 177
183 183 168
175 175 161
168 168 154
162 162 149
157 157 144
154 154 141
151 151 138
150 150 138
152 152 139
155 155 142
158 158 145
165 165 151
171 171 157
179 179 164
187 187 172
196 196 180
203 203 186
212 212 195
131 131 120
132 132 121
227 227 208
230 230 211
233 233 214
236 236 217
235 235 216
234 234 215
230 230 211
226 226 207
219 219 201
212 212 195
203 203 186
195 195 179
186 186 171
178 178 163
170 170 156
164 164 150
159 159 146
154 154 141
151 151 138
150 150 138
90 90 82
153 153 140
158 158 145
162 162 149
169 169 155
177 177 162
184 184 169
194 194 178
202 202 185
210 210 193
217 217 199
225 225 207
229 229 210
232 232 213
234 234 215
236 236 217
234 234 215
230 230 211
226 226 207
222 222 204
214 214 196
124 124 114
197 197 181
191 191 175
181 181 166
174 174 160
167 167 153
160 160 147
155 155 142
152 152 139
151 151 138
151 151 138
152 152 139
155 155 142
161 161 148
167 167 153
175 175 161
182 182 167
191 191 175
198 198 182
206 206 189
214 214 196
133 133 122
133 133 122
228 228 209
233 233 214
235 235 216
236 236 217
234 234 215
232 232 213
228 228 209
222 222 204
216 216 198
208 208 191
201 201 184
192 192 176
183 183 168
175 175 161
167 167 153
161 161 148
157 157 144
153 153 140
151 151 138
150 150 138
91 91 83
155 155 142
159 159 146
165 165 151
173 173 159
180 180 165
189 189 173
196 196 180
205 205 188
212 212 195
220 220 202
225 225 207
231 231 212
234 234 215
236 236 217
235 235 216
234 234 215
229 229 210
226 226 207
220 220 202
211 211 194
122 122 112
196 196 180
187 187 172
178 178 163
171 171 157
164 164 150
158 158 145
154 154 141
151 151 138
150 150 138
151 151 138
154 154 141
157 157 144
162 162 149
170 170 156
176 176 161
184 184 169
193 193 177
201 201 184
209 209 192
217 217 199
134 134 123
135 135 124
230 230 211
233 233 214
234 234 215
236 236 217
233 233 214
231 231 212
225 225 207
221 221 203
213 213 195
206 206 189
196 196 180
189 189 173
180 180 165
173 173 159
166 166 152
159 159 146
156 156 143
152 152 139
150 150 138
151 151 138
92 92 84
156 156 143
161 161 148
168 168 154
174 174 160
184 184 169
192 192 176
199 199 183
208 208 191
215 215 197
221 221 203
227 227 208
232 232 213
235 235 216
236 236 217
235 235 216
232 232 213
228 228 209
223 223 205
216 216 198
209 209 192
121 121 111
193 193 177
185 185 170
176 176 161
168 168 154
161 161 148
157 157 144
153 153 140
151 151 138
151 151 138
152 152 139
155 155 142
160 160 147
165 165 151
172 172 158
179 179 164
187 187 172
196 196 180
205 205 188
213 213 195
220 220 202
136 136 125
136 136 125
232 232 213
234 234 215
236 236 217
235 235 216
234 234 215
230 230 211
225 225 207
219 219 201
212 212 195
203 203 186
194 194 178
185 185 170
177 177 162
170 170 156
163 163 149
157 157 144
154 154 141
151 151 138
150 150 138
152 152 139
92 92 84
158 158 145
162 162 149
170 170 156
178 178 163
186 186 171
193 193 177
202 202 185
211 211 194
218 218 200
225 225 207
229 229 210
233 233 214
235 235 216
235 235 216
234 234 215
230 230 211
227 227 208
221 221 203
215 215 197
206 206 189
119 119 109
190 190 174
180 180 165
174 174 160
165 165 151
160 160 147
156 156 143
152 152 139
150 150 138
150 150 138
153 153 140
156 156 143
161 161 148
167 167 153
173 173 159
183 183 168
190 190 174
200 200 184
208 208 191
215 215 197
222 222 204
136 136 125
137 137 126
233 233 214
236 236 217
235 235 216
235 235 216
233 233 214
229 229 210
222 222 204
216 216 198
208 208 191
199 199 183
191 191 175
182 182 167
174 174 160
168 168 154
161 161 148
157 157 144
153 153 140
150 150 138
151 151 138
152 152 139
92 92 84
159 159 146
165 165 151
172 172 158
180 180 165
188 188 172
197 197 181
206 206 189
213 213 195
220 220 202
227 227 208
232 232 213
234 234 215
234 234 215
236 236 217
233 233 214
229 229 210
224 224 206
219 219 201
211 211 194
204 204 187
117 117 107
187 187 172
179 179 164
170 170 156
164 164 150
158 158 145
153 153 140
151 151 138
151 151 138
152 152 139
154 154 141
157 157 144
162 162 149
169 169 155
178 178 163
185 185 170
193 193 177
202 202 185
211 211 194
217 217 199
224 224 206
138 138 126
137 137 126
234 234 215
235 235 216
236 236 217
234 234 215
231 231 212
227 227 208
220 220 202
212 212 195
205 205 188
197 197 181
188 188 172
181 181 166
171 171 157
166 166 152
159 159 146
154 154 141
152 152 139
151 151 138
151 151 138
153 153 140
94 94 86
161 161 148
167 167 153
176 176 161
183 183 168
192 192 176
201 201 184
209 209 192
215 215 197
223 223 205
229 229 210
231 231 212
234 234 215
235 235 216
235 235 216
231 231 212
228 228 209
222 222 204
216 216 198
209 209 192
200 200 184
115 115 105
183 183 168
175 175 161
167 167 153
162 162 149
156 156 143
154 154 141
151 151 138
151 151 138
153 153 140
154 154 141
159 159 146
164 164 150
172 172 158
180 180 165
188 188 172
196 196 180
204 204 187
212 212 195
220 220 202
226 226 207
138 138 126
139 139 127
234 234 215
236 236 217
235 235 216
234 234 215
229 229 210
224 224 206
217 217 199
211 211 194
201 201 184
194 194 178
186 186 171
177 177 162
170 170 156
164 164 150
157 157 144
154 154 141
151 151 138
151 151 138
151 151 138
155 155 142
94 94 86
164 164 150
171 171 157
179 179 164
186 186 171
194 194 178
203 203 186
211 211 194
219 219 201
225 225 207
230 230 211
233 233 214
235 235 216
235 235 216
235 235 216
231 231 212
226 226 207
221 221 203
214 214 196
205 205 188
197 197 181
113 113 103
180 180 165
173 173 159
165 165 151
160 160 147
155 155 142
152 152 139
151 151 138
152 152 139
152 152 139
157 157 144
162 162 149
167 167 153
174 174 160
183 183 168
192 192 176
199 199 183
208 208 191
216 216 198
221 221 203
228 228 209
139 139 127
139 139 127
235 235 216
235 235 216
234 234 215
232 232 213
227 227 208
222 222 204
215 215 197
207 207 190
199 199 183
191 191 175
182 182 167
174 174 160
167 167 153
161 161 148
155 155 142
153 153 140
150 150 138
150 150 138
152 152 139
155 155 142
96 96 88
166 166 152
173 173 159
181 181 166
189 189 173
197 197 181
205 205 188
213 213 195
220 220 202
226 226 207
232 232 213
234 234 215
236 236 217
235 235 216
232 232 213
230 230 211
225 225 207
218 218 200
210 210 193
202 202 185
194 194 178
111 111 102
178 178 163
170 170 156
163 163 149
157 157 144
154 154 141
152 152 139
151 151 138
151 151 138
154 154 141
158 158 145
162 162 149
170 170 156
178 178 163
186 186 171
193 193 177
202 202 185
210 210 193
218 218 200
224 224 206
230 230 211
139 139 127
140 140 128
234 234 215
235 235 216
234 234 215
230 230 211
226 226 207
220 220 202
213 213 195
205 205 188
197 197 181
188 188 172
180 180 165
172 172 158
164 164 150
159 159 146
155 155 142
152 152 139
151 151 138
151 151 138
153 153 140
156 156 143
96 96 88
168 168 154
175 175 161
184 184 169
193 193 177
201 201 184
209 209 192
216 216 198
224 224 206
227 227 208
231 231 212
234 234 215
236 236 217
234 234 215
231 231 212
228 228 209
222 222 204
215 215 197
208 208 191
200 200 184
192 192 176
109 109 100
175 175 161
168 168 154
162 162 149
157 157 144
153 153 140
152 152 139
150 150 138
152 152 139
155 155 142
160 160 147
166 166 152
173 173 159
180 180 165
189 189 173
197 197 181
205 205 188
213 213 195
221 221 203
226 226 207
231 231 212
140 140 128
140 140 128
236 236 217
236 236 217
233 233 214
229 229 210
223 223 205
217 217 199
211 211 194
201 201 184
193 193 177
185 185 170
177 177 162
169 169 155
163 163 149
158 158 145
154 154 141
150 150 138
151 151 138
151 151 138
154 154 141
157 157 144
98 98 90
171 171 157
178 178 163
186 186 171
195 195 179
203 203 186
212 212 195
218 218 200
225 225 207
229 229 210
233 233 214
236 236 217
235 235 216
233 233 214
231 231 212
226 226 207
220 220 202
214 214 196
205 205 188
197 197 181
189 189 173
108 108 99
173 173 159
165 165 151
159 159 146
155 155 142
152 152 139
150 150 138
151 151 138
152 152 139
156 156 143
161 161 148
168 168 154
174 174 160
183 183 168
192 192 176
199 199 183
208 208 191
215 215 197
222 222 204
228 228 209
232 232 213
140 140 128
140 140 128
235 235 216
234 234 215
232 232 213
228 228 209
221 221 203
216 216 198
207 207 190
199 199 183
190 190 174
182 182 167
174 174 160
166 166 152
160 160 147
156 156 143
152 152 139
151 151 138
150 150 138
151 151 138
155 155 142
159 159 146
100 100 92
174 174 160
181 181 166
188 188 172
198 198 182
207 207 190
214 214 196
221 221 203
226 226 207
232 232 213
234 234 215
235 235 216
235 235 216
234 234 215
229 229 210
225 225 207
219 219 201
210 210 193
202 202 185
193 193 177
186 186 171
106 106 97
170 170 156
163 163 149
158 158 145
155 155 142
152 152 139
151 151 138
151 151 138
154 154 141
157 157 144
163 163 149
170 170 156
177 177 162
187 187 172
194 194 178
203 203 186
211 211 194
218 218 200
224 224 206
229 229 210
233 233 214
141 141 129
141 141 129
236 236 217
233 233 214
231 231 212
226 226 207
220 220 202
213 213 195
205 205 188
196 196 180
188 188 172
180 180 165
171 171 157
165 165 151
158 158 145
155 155 142
152 152 139
151 151 138
151 151 138
154 154 141
156 156 143
163 163 149
101 101 92
176 176 161
184 184 169
192 192 176
201 201 184
210 210 193
216 216 198
222 222 204
228 228 209
231 231 212
235 235 216
235 235 216
234 234 215
233 233 214
227 227 208
222 222 204
216 216 198
207 207 190
199 199 183
191 191 175
183 183 168
105 105 96
168 168 154
162 162 149
157 157 144
153 153 140
151 151 138
151 151 138
152 152 139
154 154 141
159 159 146
166 166 152
173 173 159
181 181 166
189 189 173
198 198 182
205 205 188
214 214 196
220 220 202
227 227 208
231 231 212
234 234 215
140 140 128
141 141 129
235 235 216
232 232 213
230 230 211
224 224 206
217 217 199
210 210 193
202 202 185
192 192 176
184 184 169
177 177 162
168 168 154
163 163 149
157 157 144
154 154 141
151 151 138
151 151 138
151 151 138
154 154 141
159 159 146
165 165 151
102 102 93
178 178 163
186 186 171
195 195 179
204 204 187
212 212 195
220 220 202
224 224 206
229 229 210
234 234 215
236 236 217
235 235 216
233 233 214
231 231 212
225 225 207
220 220 202
213 213 195
204 204 187
197 197 181
189 189 173
180 180 165
103 103 94
165 165 151
160 160 147
155 155 142
151 151 138
150 150 138
151 151 138
153 153 140
157 157 144
162 162 149
167 167 153
176 176 161
184 184 169
192 192 176
201 201 184
209 209 192
215 215 197
222 222 204
229 229 210
233 233 214
235 235 216
141 141 129
141 141 129
235 235 216
232 232 213
226 226 207
222 222 204
214 214 196
208 208 191
199 199 183
189 189 173
182 182 167
174 174 160
166 166 152
161 161 148
156 156 143
153 153 140
150 150 138
150 150 138
153 153 140
155 155 142
161 161 148
166 166 152
104 104 95
181 181 166
189 189 173
198 198 182
207 207 190
214 214 196
221 221 203
227 227 208
232 232 213
234 234 215
236 236 217
236 236 217
232 232 213
229 229 210
225 225 207
218 218 200
209 209 192
202 202 185
194 194 178
186 186 171
178 178 163
102 102 93
163 163 149
158 158 145
154 154 141
150 150 138
150 150 138
151 151 138
153 153 140
159 159 146
163 163 149
171 171 157
179 179 164
186 186 171
195 195 179
204 204 187
212 212 195
219 219 201
225 225 207
229 229 210
233 233 214
234 234 215
141 141 129
141 141 129
234 234 215
230 230 211
226 226 207
219 219 201
212 212 195
204 204 187
196 196 180
187 187 172
179 179 164
171 171 157
165 165 151
159 159 146
155 155 142
152 152 139
151 151 138
152 152 139
154 154 141
157 157 144
163 163 149
170 170 156
105 105 96
185 185 170
193 193 177
201 201 184
209 209 192
217 217 199
223 223 205
228 228 209
233 233 214
234 234 215
236 236 217
233 233 214
233 233 214
228 228 209
222 222 204
214 214 196
208 208 191
199 199 183
190 190 174
182 182 167
174 174 160
100 100 92
161 161 148
155 155 142
153 153 140
151 151 138
152 152 139
152 152 139
155 155 142
161 161 148
166 166 152
173 173 159
180 180 165
189 189 173
198 198 182
205 205 188
214 214 196
220 220 202
226 226 207
231 231 212
235 235 216
236 236 217
141 141 129
140 140 128
232 232 213
228 228 209
222 222 204
217 217 199
209 209 192
202 202 185
193 193 177
185 185 170
176 176 161
169 169 155
162 162 149
157 157 144
153 153 140
151 151 138
150 150 138
151 151 138
155 155 142
159 159 146
164 164 150
172 172 158
108 108 99
187 187 172
196 196 180
205 205 188
213 213 195
220 220 202
226 226 207
231 231 212
234 234 215
235 235 216
235 235 216
233 233 214
229 229 210
225 225 207
219 219 201
212 212 195
205 205 188
195 195 179
188 188 172
179 179 164
172 172 158
99 99 91
159 159 146
154 154 141
151 151 138
150 150 138
151 151 138
153 153 140
158 158 145
163 163 149
169 169 155
175 175 161
184 184 169
191 191 175
201 201 184
208 208 191
217 217 199
224 224 206
228 228 209
232 232 213
235 235 216
235 235 216
141 141 129
141 141 129
232 232 213
227 227 208
222 222 204
214 214 196
207 207 190
198 198 182
189 189 173
181 181 166
173 173 159
166 166 152
161 161 148
155 155 142
153 153 140
151 151 138
150 150 138
152 152 139
155 155 142
161 161 148
166 166 152
173 173 159
109 109 100
189 189 173
199 199 183
207 207 190
214 214 196
222 222 204
227 227 208
232 232 213
234 234 215
235 235 216
235 235 216
233 233 214
230 230 211
224 224 206
218 218 200
210 210 193
202 202 185
193 193 177
185 185 170
177 177 162
169 169 155
98 98 90
157 157 144
154 154 141
150 150 138
150 150 138
151 151 138
155 155 142
159 159 146
163 163 149
171 171 157
178 178 163
187 187 172
196 196 180
203 203 186
211 211 194
218 218 200
225 225 207
230 230 211
234 234 215
236 236 217
235 235 216
140 140 128
140 140 128
229 229 210
225 225 207
219 219 201
212 212 195
203 203 186
196 196 180
187 187 172
179 179 164
172 172 158
164 164 150
159 159 146
155 155 142
152 152 139
150 150 138
150 150 138
153 153 140
157 157 144
163 163 149
170 170 156
177 177 162
110 110 101
192 192 176
202 202 185
209 209 192
217 217 199
224 224 206
229 229 210
232 232 213
235 235 216
235 235 216
234 234 215
231 231 212
228 228 209
221 221 203
215 215 197
208 208 191
199 199 183
191 191 175
182 182 167
174 174 160
167 167 153
96 96 88
156 156 143
153 153 140
151 151 138
151 151 138
153 153 140
156 156 143
160 160 147
166 166 152
174 174 160
181 181 166
190 190 174
198 198 182
206 206 189
213 213 195
221 221 203
226 226 207
232 232 213
235 235 216
236 236 217
236 236 217
139 139 127
139 139 127
229 229 210
222 222 204
216 216 198
208 208 191
200 200 184
193 193 177
184 184 169
176 176 161
168 168 154
161 161 148
156 156 143
152 152 139
150 150 138
150 150 138
152 152 139
154 154 141
158 158 145
166 166 152
172 172 158
180 180 165
112 112 103
197 197 181
204 204 187
212 212 195
219 219 201
225 225 207
230 230 211
234 234 215
236 236 217
235 235 216
233 233 214
230 230 211
225 225 207
220 220 202
212 212 195
204 204 187
195 195 179
187 187 172
179 179 164
172 172 158
165 165 151
95 95 87
154 154 141
151 151 138
150 150 138
151 151 138
153 153 140
156 156 143
162 162 149
168 168 154
175 175 161
185 185 170
193 193 177
201 201 184
209 209 192
218 218 200
223 223 205
229 229 210
233 233 214
234 234 215
235 235 216
235 235 216
138 138 126
138 138 126
226 226 207
220 220 202
215 215 197
206 206 189
197 197 181
190 190 174
182 182 167
172 172 158
166 166 152
160 160 147
156 156 143
151 151 138
150 150 138
151 151 138
152 152 139
156 156 143
160 160 147
167 167 153
174 174 160
183 183 168
114 114 104
199 199 183
208 208 191
214 214 196
221 221 203
227 227 208
231 231 212
234 234 215
236 236 217
234 234 215
232 232 213
228 228 209
224 224 206
217 217 199
209 209 192
202 202 185
192 192 176
184 184 169
177 177 162
168 168 154
161 161 148
94 94 86
153 153 140
150 150 138
150 150 138
151 151 138
154 154 141
159 159 146
165 165 151
170 170 156
179 179 164
187 187 172
195 195 179
204 204 187
212 212 195
220 220 202
226 226 207
230 230 211
234 234 215
236 236 217
236 236 217
234 234 215
138 138 126
138 138 126
224 224 206
219 219 201
212 212 195
203 203 186
194 194 178
187 187 172
179 179 164
170 170 156
163 163 149
159 159 146
154 154 141
151 151 138
151 151 138
151 151 138
154 154 141
157 157 144
163 163 149
170 170 156
177 177 162
185 185 170
116 116 106
202 202 185
211 211 194
218 218 200
224 224 206
228 228 209
232 232 213
234 234 215
236 236 217
234 234 215
232 232 213
228 228 209
221 221 203
215 215 197
207 207 190
199 199 183
190 190 174
182 182 167
174 174 160
167 167 153
159 159 146
93 93 85
153 153 140
150 150 138
151 151 138
152 152 139
156 156 143
161 161 148
166 166 152
173 173 159
181 181 166
189 189 173
199 199 183
206 206 189
215 215 197
221 221 203
227 227 208
232 232 213
234 234 215
234 234 215
234 234 215
233 233 214
137 137 126
137 137 126
222 222 204
216 216 198
209 209 192
201 201 184
192 192 176
184 184 169
175 175 161
168 168 154
162 162 149
156 156 143
153 153 140
151 151 138
151 151 138
152 152 139
154 154 141
159 159 146
166 166 152
173 173 159
181 181 166
187 187 172
118 118 108
205 205 188
213 213 195
220 220 202
225 225 207
231 231 212
233 233 214
235 235 216
236 236 217
233 233 214
231 231 212
225 225 207
218 218 200
212 212 195
204 204 187
195 195 179
187 187 172
178 178 163
171 171 157
165 165 151
158 158 145
92 92 84
151 151 138
150 150 138
150 150 138
154 154 141
158 158 145
163 163 149
169 169 155
177 177 162
186 186 171
192 192 176
201 201 184
209 209 192
218 218 200
223 223 205
230 230 211
232 232 213
235 235 216
235 235 216
234 234 215
231 231 212
136 136 125
135 135 124
221 221 203
213 213 195
206 206 189
196 196 180
188 188 172
181 181 166
172 172 158
165 165 151
160 160 147
155 155 142
151 151 138
150 150 138
150 150 138
153 153 140
156 156 143
160 160 147
167 167 153
175 175 161
182 182 167
192 192 176
119 119 109
207 207 190
216 216 198
221 221 203
227 227 208
233 233 214
235 235 216
235 235 216
234 234 215
233 233 214
228 228 209
223 223 205
216 216 198
208 208 191
201 201 184
192 192 176
184 184 169
176 176 161
167 167 153
161 161 148
156 156 143
91 91 83
150 150 138
150 150 138
152 152 139
154 154 141
159 159 146
164 164 150
171 171 157
179 179 164
187 187 172
197 197 181
205 205 188
213 213 195
219 219 201
225 225 207
230 230 211
234 234 215
236 236 217
235 235 216
234 234 215
231 231 212
135 135 124
135 135 124
218 218 200
211 211 194
202 202 185
194 194 178
185 185 170
178 178 163
170 170 156
163 163 149
157 157 144
153 153 140
151 151 138
150 150 138
152 152 139
154 154 141
158 158 145
163 163 149
171 171 157
178 178 163
186 186 171
195 195 179
121 121 111
210 210 193
217 217 199
224 224 206
230 230 211
234 234 215
235 235 216
235 235 216
235 235 216
231 231 212
227 227 208
221 221 203
214 214 196
206 206 189
198 198 182
189 189 173
180 180 165
173 173 159
166 166 152
161 161 148
155 155 142
91 91 83
150 150 138
151 151 138
152 152 139
156 156 143
161 161 148
167 167 153
173 173 159
182 182 167
191 191 175
198 198 182
206 206 189
215 215 197
221 221 203
228 228 209
232 232 213
235 235 216
235 235 216
234 234 215
233 233 214
229 229 210
134 134 123
133 133 122
216 216 198
208 208 191
200 200 184
191 191 175
183 183 168
175 175 161
167 167 153
161 161 148
156 156 143
153 153 140
151 151 138
151 151 138
151 151 138
155 155 142
160 160 147
165 165 151
172 172 158
179 179 164
189 189 173
197 197 181
123 123 113
212 212 195
219 219 201
226 226 207
232 232 213
234 234 215
235 235 216
235 235 216
233 233 214
230 230 211
225 225 207
219 219 201
212 212 195
203 203 186
195 195 179
187 187 172
178 178 163
171 171 157
164 164 150
159 159 146
154 154 141
90 90 82
150 150 138
151 151 138
154 154 141
158 158 145
162 162 149
170 170 156
177 177 162
186 186 171
193 193 177
203 203 186
210 210 193
217 217 199
223 223 205
229 229 210
232 232 213
236 236 217
236 236 217
235 235 216
231 231 212
226 226 207
132 132 121
132 132 121
214 214 196
205 205 188
196 196 180
189 189 173
181 181 166
172 172 158
166 166 152
160 160 147
154 154 141
152 152 139
150 150 138
151 151 138
154 154 141
156 156 143
161 161 148
168 168 154
175 175 161
184 184 169
192 192 176
199 199 183
125 125 115
215 215 197
223 223 205
229 229 210
231 231 212
235 235 216
236 236 217
235 235 216
231 231 212
227 227 208
224 224 206
216 216 198
209 209 192
201 201 184
191 191 175
184 184 169
175 175 161
167 167 153
162 162 149
156 156 143
152 152 139
90 90 82
150 150 138
151 151 138
155 155 142
159 159 146
164 164 150
171 171 157
180 180 165
188 188 172
196 196 180
206 206 189
213 213 195
220 220 202
226 226 207
231 231 212
234 234 215
236 236 217
236 236 217
233 233 214
229 229 210
226 226 207
131 131 120
131 131 120
210 210 193
202 202 185
193 193 177
185 185 170
177 177 162
170 170 156
163 163 149
157 157 144
153 153 140
151 151 138
150 150 138
151 151 138
155 155 142
157 157 144
163 163 149
170 170 156
179 179 164
186 186 171
194 194 178
203 203 186
127 127 116
219 219 201
225 225 207
229 229 210
233 233 214
234 234 215
236 236 217
235 235 216
231 231 212
227 227 208
221 221 203
213 213 195
207 207 190
197 197 181
189 189 173
180 180 165
173 173 159
166 166 152
160 160 147
156 156 143
152 152 139
91 91 83
150 150 138
154 154 141
157 157 144
161 161 148
167 167 153
175 175 161
183 183 168
192 192 176
200 200 184
208 208 191
216 216 198
222 222 204
227 227 208
232 232 213
235 235 216
235 235 216
234 234 215
232 232 213
228 228 209
224 224 206
129 129 118
129 129 118
208 208 191
200 200 184
191 191 175
182 182 167
174 174 160
166 166 152
162 162 149
156 156 143
152 152 139
150 150 138
151 151 138
152 152 139
154 154 141
159 159 146
166 166 152
174 174 160
180 180 165
189 189 173
198 198 182
206 206 189
127 127 116
220 220 202
226 226 207
232 232 213
235 235 216
236 236 217
235 235 216
232 232 213
230 230 211
224 224 206
219 219 201
212 212 195
203 203 186
194 194 178
185 185 170
178 178 163
170 170 156
164 164 150
159 159 146
154 154 141
152 152 139
90 90 82
152 152 139
154 154 141
158 158 145
164 164 150
171 171 157
177 177 162
185 185 170
194 194 178
202 202 185
211 211 194
218 218 200
223 223 205
229 229 210
233 233 214
234 234 215
236 236 217
235 235 216
232 232 213
226 226 207
221 221 203
128 128 117
128 128 117
204 204 187
197 197 181
187 187 172
179 179 164
173 173 159
165 165 151
160 160 147
154 154 141
151 151 138
151 151 138
150 150 138
154 154 141
156 156 143
161 161 148
169 169 155
175 175 161
184 184 169
193 193 177
200 200 184
209 209 192
129 129 118
222 222 204
228 228 209
231 231 212
235 235 216
235 235 216
234 234 215
232 232 213
229 229 210
223 223 205
215 215 197
208 208 191
200 200 184
191 191 175
184 184 169
175 175 161
168 168 154
162 162 149
155 155 142
153 153 140
150 150 138
90 90 82
151 151 138
155 155 142
159 159 146
164 164 150
172 172 158
180 180 165
188 188 172
198 198 182
205 205 188
213 213 195
220 220 202
226 226 207
232 232 213
233 233 214
235 235 216
235 235 216
234 234 215
229 229 210
224 224 206
218 218 200
127 127 116
126 126 115
202 202 185
194 194 178
185 185 170
177 177 162
169 169 155
162 162 149
158 158 145
153 153 140
151 151 138
151 151 138
152 152 139
154 154 141
158 158 145
163 163 149
171 171 157
178 178 163
187 187 172
194 194 178
204 204 187
211 211 194
130 130 119
225 225 207
230 230 211
234 234 215
235 235 216
236 236 217
233 233 214
231 231 212
227 227 208
219 219 201
212 212 195
205 205 188
196 196 180
189 189 173
181 181 166
173 173 159
166 166 152
159 159 146
154 154 141
153 153 140
150 150 138
90 90 82
153 153 140
156 156 143
162 162 149
167 167 153
176 176 161
184 184 169
191 191 175
200 200 184
208 208 191
215 215 197
221 221 203
227 227 208
231 231 212
234 234 215
235 235 216
234 234 215
231 231 212
229 229 210
222 222 204
216 216 198
125 125 115
124 124 114
198 198 182
190 190 174
182 182 167
174 174 160
166 166 152
160 160 147
156 156 143
152 152 139
151 151 138
151 151 138
152 152 139
155 155 142
160 160 147
165 165 151
174 174 160
182 182 167
189 189 173
198 198 182
206 206 189
213 213 195
132 132 121
227 227 208
231 231 212
235 235 216
236 236 217
235 235 216
232 232 213
230 230 211
223 223 205
218 218 200
211 211 194
202 202 185
194 194 178
185 185 170
177 177 162
170 170 156
162 162 149
158 158 145
153 153 140
151 151 138
150 150 138
91 91 83
154 154 141
158 158 145
164 164 150
171 171 157
177 177 162
186 186 171
194 194 178
204 204 187
210 210 193
219 219 201
224 224 206
229 229 210
232 232 213
234 234 215
236 236 217
233 233 214
232 232 213
226 226 207
220 220 202
213 213 195
123 123 113
123 123 113
195 195 179
187 187 172
179 179 164
172 172 158
165 165 151
160 160 147
155 155 142
152 152 139
151 151 138
151 151 138
153 153 140
157 157 144
161 161 148
168 168 154
177 177 162
184 184 169
192 192 176
200 200 184
210 210 193
216 216 198
134 134 123
228 228 209
232 232 213
234 234 215
235 235 216
234 234 215
232 232 213
227 227 208
221 221 203
215 215 197
207 207 190
200 200 184
191 191 175
182 182 167
174 174 160
167 167 153
161 161 148
155 155 142
153 153 140
151 151 138
150 150 138
91 91 83
156 156 143
159 159 146
166 166 152
172 172 158
181 181 166
189 189 173
197 197 181
207 207 190
213 213 195
220 220 202
227 227 208
232 232 213
235 235 216
235 235 216
236 236 217
234 234 215
230 230 211
224 224 206
218 218 200
211 211 194
121 121 111
121 121 111
193 193 177
185 185 170
176 176 161
169 169 155
163 163 149
157 157 144
153 153 140
151 151 138
150 150 138
151 151 138
154 154 141
158 158 145
165 165 151
171 171 157
180 180 165
187 187 172
195 195 179
204 204 187
212 212 195
218 218 200
135 135 124
231 231 212
233 233 214
235 235 216
236 236 217
235 235 216
230 230 211
226 226 207
220 220 202
213 213 195
204 204 187
196 196 180
187 187 172
179 179 164
171 171 157
164 164 150
160 160 147
155 155 142
152 152 139
150 150 138
150 150 138
91 91 83
156 156 143
162 162 149
168 168 154
176 176 161
184 184 169
192 192 176
199 199 183
208 208 191
215 215 197
223 223 205
228 228 209
233 233 214
235 235 216
236 236 217
235 235 216
233 233 214
227 227 208
222 222 204
215 215 197
207 207 190
120 120 110
119 119 109
190 190 174
181 181 166
174 174 160
167 167 153
160 160 147
155 155 142
153 153 140
150 150 138
152 152 139
153 153 140
156 156 143
161 161 148
166 166 152
173 173 159
182 182 167
190 190 174
199 199 183
206 206 189
214 214 196
222 222 204
136 136 125
232 232 213
233 233 214
235 235 216
236 236 217
232 232 213
229 229 210
223 223 205
217 217 199
211 211 194
201 201 184
193 193 177
185 185 170
176 176 161
169 169 155
164 164 150
157 157 144
154 154 141
150 150 138
150 150 138
152 152 139
92 92 84
158 158 145
163 163 149
171 171 157
178 178 163
186 186 171
194 194 178
203 203 186
211 211 194
219 219 201
225 225 207
230 230 211
232 232 213
236 236 217
236 236 217
234 234 215
232 232 213
227 227 208
220 220 202
213 213 195
205 205 188
118 118 108
117 117 107
187 187 172
179 179 164
171 171 157
164 164 150
159 159 146
155 155 142
152 152 139
151 151 138
152 152 139
153 153 140
157 157 144
163 163 149
169 169 155
176 176 161
185 185 170
194 194 178
201 201 184
210 210 193
217 217 199
223 223 205
137 137 126
232 232 213
235 235 216
235 235 216
235 235 216
232 232 213
227 227 208
222 222 204
214 214 196
208 208 191
199 199 183
191 191 175
183 183 168
175 175 161
167 167 153
161 161 148
156 156 143
152 152 139
150 150 138
151 151 138
153 153 140
93 93 85
161 161 148
167 167 153
174 174 160
181 181 166
190 190 174
198 198 182
207 207 190
213 213 195
220 220 202
227 227 208
231 231 212
233 233 214
236 236 217
235 235 216
234 234 215
229 229 210
225 225 207
218 218 200
211 211 194
203 203 186
116 116 106
116 116 106
184 184 169
175 175 161
169 169 155
162 162 149
158 158 145
154 154 141
151 151 138
151 151 138
152 152 139
154 154 141
160 160 147
165 165 151
171 171 157
178 178 163
188 188 172
195 195 179
204 204 187
212 212 195
219 219 201
226 226 207
138 138 126
234 234 215
236 236 217
235 235 216
234 234 215
230 230 211
226 226 207
219 219 201
212 212 195
205 205 188
197 197 181
187 187 172
180 180 165
172 172 158
166 166 152
160 160 147
154 154 141
152 152 139
150 150 138
150 150 138
153 153 140
94 94 86
162 162 149
168 168 154
175 175 161
184 184 169
192 192 176
201 201 184
209 209 192
217 217 199
223 223 205
228 228 209
232 232 213
235 235 216
236 236 217
234 234 215
232 232 213
229 229 210
223 223 205
215 215 197
209 209 192
199 199 183
115 115 105
114 114 104
181 181 166
173 173 159
167 167 153
160 160 147
156 156 143
153 153 140
151 151 138
150 150 138
152 152 139
156 156 143
161 161 148
166 166 152
174 174 160
181 181 166
189 189 173
198 198 182
207 207 190
214 214 196
221 221 203
227 227 208
139 139 127
235 235 216
236 236 217
234 234 215
234 234 215
230 230 211
223 223 205
216 216 198
210 210 193
201 201 184
193 193 177
185 185 170
177 177 162
169 169 155
164 164 150
158 158 145
153 153 140
152 152 139
151 151 138
151 151 138
154 154 141
95 95 87
164 164 150
171 171 157
179 179 164
186 186 171
195 195 179
204 204 187
211 211 194
218 218 200
225 225 207
229 229 210
234 234 215
235 235 216
236 236 217
233 233 214
231 231 212
226 226 207
220 220 202
213 213 195
205 205 188
197 197 181
112 112 103
112 112 103
178 178 163
170 170 156
165 165 151
158 158 145
155 155 142
151 151 138
151 151 138
152 152 139
154 154 141
158 158 145
162 162 149
169 169 155
176 176 161
185 185 170
193 193 177
202 202 185
209 209 192
217 217 199
224 224 206
229 229 210
140 140 128
234 234 215
235 235 216
233 233 214
231 231 212
226 226 207
221 221 203
215 215 197
207 207 190
199 199 183
190 190 174
182 182 167
175 175 161
166 166 152
161 161 148
156 156 143
152 152 139
151 151 138
150 150 138
153 153 140
155 155 142
96 96 88
166 166 152
173 173 159
182 182 167
191 191 175
198 198 182
206 206 189
215 215 197
221 221 203
226 226 207
232 232 213
235 235 216
235 235 216
235 235 216
232 232 213
229 229 210
224 224 206
217 217 199
210 210 193
203 203 186
194 194 178
111 111 102
110 110 101
176 176 161
168 168 154
162 162 149
156 156 143
153 153 140
151 151 138
151 151 138
151 151 138
155 155 142
160 160 147
165 165 151
172 172 158
179 179 164
188 188 172
196 196 180
204 204 187
213 213 195
220 220 202
226 226 207
231 231 212
140 140 128
235 235 216
235 235 216
234 234 215
229 229 210
225 225 207
219 219 201
211 211 194
205 205 188
195 195 179
188 188 172
178 178 163
172 172 158
165 165 151
160 160 147
154 154 141
152 152 139
150 150 138
151 151 138
153 153 140
157 157 144
97 97 89
168 168 154
177 177 162
184 184 169
192 192 176
201 201 184
209 209 192
217 217 199
223 223 205
229 229 210
232 232 213
235 235 216
235 235 216
234 234 215
231 231 212
228 228 209
222 222 204
214 214 196
207 207 190
198 198 182
190 190 174
109 109 100
108 108 99
173 173 159
166 166 152
159 159 146
155 155 142
152 152 139
150 150 138
152 152 139
152 152 139
155 155 142
162 162 149
166 166 152
173 173 159
183 183 168
191 191 175
199 199 183
207 207 190
215 215 197
222 222 204
228 228 209
232 232 213
141 141 129
236 236 217
235 235 216
233 233 214
228 228 209
224 224 206
217 217 199
208 208 191
202 202 185
193 193 177
185 185 170
175 175 161
169 169 155
161 161 148
157 157 144
153 153 140
151 151 138
150 150 138
152 152 139
155 155 142
159 159 146
99 99 91
172 172 158
180 180 165
186 186 171
195 195 179
204 204 187
213 213 195
219 219 201
225 225 207
230 230 211
233 233 214
236 236 217
236 236 217
234 234 215
230 230 211
225 225 207
220 220 202
212 212 195
205 205 188
196 196 180
189 189 173
107 107 98
106 106 97
170 170 156
163 163 149
158 158 145
154 154 141
152 152 139
151 151 138
151 151 138
154 154 141
157 157 144
164 164 150
169 169 155
178 178 163
186 186 171
193 193 177
203 203 186
211 211 194
218 218 200
224 224 206
229 229 210
233 233 214
140 140 128
235 235 216
234 234 215
232 232 213
227 227 208
222 222 204
214 214 196
206 206 189
198 198 182
189 189 173
180 180 165
173 173 159
165 165 151
159 159 146
155 155 142
152 152 139
150 150 138
151 151 138
152 152 139
155 155 142
160 160 147
99 99 91
173 173 159
181 181 166
191 191 175
199 199 183
207 207 190
214 214 196
222 222 204
228 228 209
231 231 212
234 234 215
235 235 216
234 234 215
232 232 213
229 229 210
224 224 206
218 218 200
211 211 194
202 202 185
193 193 177
184 184 169
106 106 97
105 105 96
168 168 154
161 161 148
157 157 144
153 153 140
152 152 139
150 150 138
152 152 139
156 156 143
160 160 147
166 166 152
171 171 157
180 180 165
189 189 173
197 197 181
204 204 187
213 213 195
220 220 202
226 226 207
230 230 211
234 234 215
141 141 129
235 235 216
233 233 214
231 231 212
225 225 207
220 220 202
212 212 195
204 204 187
194 194 178
186 186 171
178 178 163
170 170 156
165 165 151
158 158 145
155 155 142
151 151 138
151 151 138
150 150 138
154 154 141
157 157 144
163 163 149
101 101 92
176 176 161
184 184 169
192 192 176
201 201 184
210 210 193
217 217 199
223 223 205
229 229 210
233 233 214
235 235 216
235 235 216
234 234 215
232 232 213
226 226 207
221 221 203
214 214 196
207 207 190
199 199 183
190 190 174
182 182 167
105 105 96
103 103 94
166 166 152
160 160 147
155 155 142
151 151 138
151 151 138
151 151 138
153 153 140
157 157 144
162 162 149
167 167 153
175 175 161
182 182 167
191 191 175
200 200 184
208 208 191
215 215 197
223 223 205
227 227 208
231 231 212
234 234 215
141 141 129
234 234 215
233 233 214
229 229 210
222 222 204
216 216 198
210 210 193
200 200 184
193 193 177
183 183 168
176 176 161
168 168 154
163 163 149
156 156 143
154 154 141
150 150 138
151 151 138
151 151 138
155 155 142
159 159 146
164 164 150
103 103 94
180 180 165
188 188 172
195 195 179
204 204 187
213 213 195
219 219 201
226 226 207
231 231 212
233 233 214
235 235 216
236 236 217
234 234 215
229 229 210
225 225 207
220 220 202
212 212 195
204 204 187
196 196 180
188 188 172
180 180 165
102 102 93
102 102 93
164 164 150
158 158 145
154 154 141
151 151 138
151 151 138
151 151 138
154 154 141
158 158 145
164 164 150
169 169 155
177 177 162
186 186 171
194 194 178
202 202 185
211 211 194
218 218 200
225 225 207
229 229 210
234 234 215
234 234 215
141 141 129
235 235 216
231 231 212
226 226 207
221 221 203
213 213 195
206 206 189
198 198 182
189 189 173
180 180 165
174 174 160
166 166 152
161 161 148
155 155 142
151 151 138
150 150 138
151 151 138
153 153 140
157 157 144
161 161 148
167 167 153
104 104 95
182 182 167
190 190 174
199 199 183
206 206 189
215 215 197
222 222 204
227 227 208
232 232 213
234 234 215
235 235 216
234 234 215
232 232 213
228 228 209
223 223 205
217 217 199
209 209 192
201 201 184
193 193 177
184 184 169
176 176 161
102 102 93
100 100 92
162 162 149
156 156 143
153 153 140
150 150 138
151 151 138
151 151 138
154 154 141
159 159 146
165 165 151
173 173 159
180 180 165
189 189 173
198 198 182
205 205 188
214 214 196
220 220 202
226 226 207
231 231 212
233 233 214
235 235 216
141 141 129
233 233 214
230 230 211
224 224 206
218 218 200
212 212 195
203 203 186
195 195 179
187 187 172
178 178 163
171 171 157
165 165 151
158 158 145
155 155 142
152 152 139
151 151 138
152 152 139
154 154 141
157 157 144
164 164 150
170 170 156
106 106 97
186 186 171
193 193 177
201 201 184
209 209 192
218 218 200
223 223 205
229 229 210
233 233 214
235 235 216
236 236 217
234 234 215
231 231 212
228 228 209
221 221 203
214 214 196
207 207 190
198 198 182
190 190 174
182 182 167
173 173 159
100 100 92
99 99 91
159 159 146
154 154 141
152 152 139
151 151 138
152 152 139
152 152 139
157 157 144
161 161 148
168 168 154
175 175 161
183 183 168
192 192 176
200 200 184
209 209 192
217 217 199
223 223 205
228 228 209
232 232 213
234 234 215
236 236 217
141 141 129
232 232 213
228 228 209
222 222 204
216 216 198
208 208 191
201 201 184
193 193 177
184 184 169
175 175 161
168 168 154
161 161 148
157 157 144
153 153 140
151 151 138
150 150 138
152 152 139
156 156 143
159 159 146
164 164 150
173 173 159
107 107 98
188 188 172
196 196 180
205 205 188
212 212 195
219 219 201
225 225 207
230 230 211
235 235 216
235 235 216
235 235 216
232 232 213
231 231 212
225 225 207
219 219 201
211 211 194
205 205 188
196 196 180
187 187 172
179 179 164
172 172 158
99 99 91
98 98 90
158 158 145
154 154 141
152 152 139
151 151 138
151 151 138
153 153 140
157 157 144
163 163 149
170 170 156
179 179 164
187 187 172
195 195 179
204 204 187
210 210 193
219 219 201
225 225 207
229 229 210
233 233 214
235 235 216
236 236 217
140 140 128
231 231 212
227 227 208
221 221 203
213 213 195
206 206 189
197 197 181
189 189 173
181 181 166
172 172 158
165 165 151
159 159 146
156 156 143
153 153 140
151 151 138
150 150 138
153 153 140
157 157 144
160 160 147
167 167 153
175 175 161
109 109 100
191 191 175
199 199 183
207 207 190
215 215 197
222 222 204
228 228 209
232 232 213
234 234 215
236 236 217
234 234 215
233 233 214
229 229 210
223 223 205
217 217 199
209 209 192
201 201 184
192 192 176
185 185 170
177 177 162
169 169 155
97 97 89
96 96 88
156 156 143
153 153 140
152 152 139
150 150 138
152 152 139
155 155 142
160 160 147
165 165 151
173 173 159
180 180 165
189 189 173
197 197 181
206 206 189
213 213 195
221 221 203
227 227 208
231 231 212
234 234 215
235 235 216
235 235 216
139 139 127
230 230 211
225 225 207
219 219 201
211 211 194
203 203 186
194 194 178
185 185 170
178 178 163
170 170 156
164 164 150
158 158 145
153 153 140
151 151 138
150 150 138
151 151 138
153 153 140
158 158 145
162 162 149
169 169 155
177 177 162
111 111 102
195 195 179
201 201 184
210 210 193
219 219 201
225 225 207
229 229 210
232 232 213
235 235 216
235 235 216
235 235 216
232 232 213
227 227 208
222 222 204
213 213 195
207 207 190
198 198 182
190 190 174
181 181 166
174 174 160
167 167 153
96 96 88
95 95 87
156 156 143
152 152 139
150 150 138
150 150 138
153 153 140
157 157 144
161 161 148
167 167 153
175 175 161
183 183 168
191 191 175
201 201 184
208 208 191
215 215 197
222 222 204
228 228 209
232 232 213
235 235 216
235 235 216
234 234 215
139 139 127
229 229 210
223 223 205
216 216 198
208 208 191
200 200 184
192 192 176
182 182 167
174 174 160
168 168 154
161 161 148
156 156 143
153 153 140
152 152 139
151 151 138
153 153 140
156 156 143
159 159 146
165 165 151
172 172 158
180 180 165
113 113 103
197 197 181
205 205 188
212 212 195
220 220 202
227 227 208
230 230 211
234 234 215
236 236 217
235 235 216
233 233 214
229 229 210
224 224 206
219 219 201
210 210 193
204 204 187
195 195 179
187 187 172
178 178 163
171 171 157
164 164 150
95 95 87
94 94 86
154 154 141
150 150 138
150 150 138
151 151 138
154 154 141
159 159 146
164 164 150
170 170 156
178 178 163
186 186 171
194 194 178
203 203 186
212 212 195
218 218 200
225 225 207
230 230 211
234 234 215
235 235 216
235 235 216
235 235 216
139 139 127
226 226 207
220 220 202
214 214 196
205 205 188
198 198 182
189 189 173
181 181 166
173 173 159
166 166 152
159 159 146
156 156 143
152 152 139
151 151 138
150 150 138
152 152 139
157 157 144
162 162 149
167 167 153
174 174 160
183 183 168
115 115 105
200 200 184
208 208 191
216 216 198
222 222 204
228 228 209
232 232 213
235 235 216
235 235 216
235 235 216
232 232 213
228 228 209
222 222 204
216 216 198
209 209 192
200 200 184
191 191 175
184 184 169
175 175 161
167 167 153
161 161 148
94 94 86
93 93 85
153 153 140
151 151 138
150 150 138
153 153 140
155 155 142
159 159 146
167 167 153
174 174 160
181 181 166
189 189 173
199 199 183
207 207 190
215 215 197
221 221 203
227 227 208
231 231 212
234 234 215
235 235 216
236 236 217
232 232 213
138 138 126
224 224 206
217 217 199
211 211 194
203 203 186
194 194 178
186 186 171
178 178 163
170 170 156
162 162 149
159 159 146
154 154 141
152 152 139
151 151 138
152 152 139
154 154 141
159 159 146
163 163 149
171 171 157
179 179 164
186 186 171
117 117 107
204 204 187
211 211 194
218 218 200
224 224 206
229 229 210
232 232 213
234 234 215
234 234 215
234 234 215
230 230 211
226 226 207
221 221 203
213 213 195
207 207 190
197 197 181
189 189 173
181 181 166
173 173 159
165 165 151
160 160 147
93 93 85
93 93 85
152 152 139
151 151 138
151 151 138
153 153 140
156 156 143
162 162 149
169 169 155
176 176 161
184 184 169
192 192 176
202 202 185
210 210 193
216 216 198
222 222 204
228 228 209
232 232 213
235 235 216
235 235 216
235 235 216
232 232 213
136 136 125
223 223 205
216 216 198
207 207 190
199 199 183
191 191 175
183 183 168
174 174 160
167 167 153
160 160 147
157 157 144
153 153 140
150 150 138
151 151 138
153 153 140
154 154 141
159 159 146
165 165 151
173 173 159
180 180 165
189 189 173
118 118 108
206 206 189
214 214 196
221 221 203
227 227 208
232 232 213
234 234 215
236 236 217
235 235 216
233 233 214
229 229 210
224 224 206
219 219 201
211 211 194
202 202 185
194 194 178
185 185 170
179 179 164
171 171 157
164 164 150
159 159 146
92 92 84
92 92 84
151 151 138
151 151 138
152 152 139
154 154 141
158 158 145
164 164 150
171 171 157
178 178 163
187 187 172
196 196 180
204 204 187
212 212 195
218 218 200
224 224 206
229 229 210
233 233 214
234 234 215
236 236 217
235 235 216
230 230 211
136 136 125
220 220 202
213 213 195
204 204 187
196 196 180
189 189 173
180 180 165
172 172 158
166 166 152
160 160 147
155 155 142
152 152 139
151 151 138
151 151 138
153 153 140
156 156 143
162 162 149
168 168 154
175 175 161
184 184 169
192 192 176
120 120 110
209 209 192
215 215 197
222 222 204
228 228 209
232 232 213
235 235 216
235 235 216
235 235 216
232 232 213
228 228 209
222 222 204
216 216 198
207 207 190
201 201 184
191 191 175
182 182 167
175 175 161
167 167 153
162 162 149
156 156 143
92 92 84
91 91 83
151 151 138
150 150 138
152 152 139
157 157 144
159 159 146
167 167 153
174 174 160
182 182 167
191 191 175
199 199 183
206 206 189
214 214 196
220 220 202
227 227 208
231 231 212
234 234 215
235 235 216
234 234 215
233 233 214
230 230 211
135 135 124
217 217 199
210 210 193
202 202 185
193 193 177
186 186 171
178 178 163
169 169 155
163 163 149
158 158 145
153 153 140
150 150 138
151 151 138
152 152 139
154 154 141
159 159 146
165 165 151
170 170 156
178 178 163
186 186 171
195 195 179
122 122 112
212 212 195
219 219 201
224 224 206
230 230 211
234 234 215
236 236 217
236 236 217
234 234 215
231 231 212
226 226 207
219 219 201
213 213 195
205 205 188
197 197 181
189 189 173
180 180 165
173 173 159
166 166 152
159 159 146
155 155 142
91 91 83
