P3
64 64
255
28 94 26
28 94 26
25 84 24
25 84 24
22 71 21
22 71 21
22 73 21
22 73 21
24 78 23
24 78 23
26 87 24
26 87 24
28 92 26
28 92 26
32 110 29
32 110 29
28 93 26
28 93 26
28 93 26
28 93 26
25 83 24
25 83 24
29 98 27
29 98 27
30 100 27
30 100 27
28 92 26
28 92 26
28 94 26
28 94 26
27 90 25
27 90 25
24 80 23
24 80 23
24 78 22
24 78 22
27 89 25
27 89 25
24 78 23
24 78 23
20 62 19
20 62 19
19 61 19
19 61 19
27 88 25
27 88 25
22 72 21
22 72 21
22 73 21
22 73 21
27 90 25
27 90 25
24 78 22
24 78 22
20 65 20
20 65 20
33 110 30
33 110 30
33 111 30
33 111 30
29 97 27
29 97 27
27 88 25
27 88 25
28 94 26
28 94 26
25 84 24
25 84 24
22 71 21
22 71 21
22 73 21
22 73 21
24 78 23
24 78 23
26 87 24
26 87 24
28 92 26
28 92 26
32 110 29
32 110 29
28 93 26
28 93 26
28 93 26
28 93 26
25 83 24
25 83 24
29 98 27
29 98 27
30 100 27
30 100 27
28 92 26
28 92 26
28 94 26
28 94 26
27 90 25
27 90 25
24 80 23
24 80 23
24 78 22
24 78 22
27 89 25
27 89 25
24 78 23
24 78 23
20 62 19
20 62 19
19 61 19
19 61 19
27 88 25
27 88 25
22 72 21
22 72 21
22 73 21
22 73 21
27 90 25
27 90 25
24 78 22
24 78 22
20 65 20
20 65 20
33 110 30
33 110 30
33 111 30
33 111 30
29 97 27
29 97 27
27 88 25
27 88 25
30 101 27
30 101 27
28 93 26
28 93 26
25 82 23
25 82 23
18 58 18
18 58 18
27 89 25
27 89 25
22 72 21
22 72 21
32 107 29
32 107 29
33 112 30
33 112 30
29 96 26
29 96 26
27 89 25
27 89 25
30 101 28
30 101 28
29 96 26
29 96 26
28 94 26
28 94 26
28 93 26
28 93 26
31 106 29
31 106 29
33 114 30
33 114 30
27 89 25
27 89 25
26 87 25
26 87 25
30 99 27
30 99 27
25 81 23
25 81 23
24 77 22
24 77 22
24 78 23
24 78 23
26 84 24
26 84 24
25 83 24
25 83 24
23 76 22
23 76 22
26 86 24
26 86 24
22 73 21
22 73 21
24 80 23
24 80 23
27 90 25
27 90 25
34 115 31
34 115 31
29 96 26
29 96 26
30 99 27
30 99 27
30 101 27
30 101 27
28 93 26
28 93 26
25 82 23
25 82 23
18 58 18
18 58 18
27 89 25
27 89 25
22 72 21
22 72 21
32 107 29
32 107 29
33 112 30
33 112 30
29 96 26
29 96 26
27 89 25
27 89 25
30 101 28
30 101 28
29 96 26
29 96 26
28 94 26
28 94 26
28 93 26
28 93 26
31 106 29
31 106 29
33 114 30
33 114 30
27 89 25
27 89 25
26 87 25
26 87 25
30 99 27
30 99 27
25 81 23
25 81 23
24 77 22
24 77 22
24 78 23
24 78 23
26 84 24
26 84 24
25 83 24
25 83 24
23 76 22
23 76 22
26 86 24
26 86 24
22 73 21
22 73 21
24 80 23
24 80 23
27 90 25
27 90 25
34 115 31
34 115 31
29 96 26
29 96 26
30 99 27
30 99 27
23 76 22
23 76 22
27 90 25
27 90 25
23 77 22
23 77 22
26 85 24
26 85 24
23 74 22
23 74 22
24 78 23
24 78 23
21 67 20
21 67 20
20 64 20
20 64 20
27 90 25
27 90 25
22 72 21
22 72 21
29 99 27
29 99 27
28 94 26
28 94 26
35 119 31
35 119 31
29 98 27
29 98 27
28 94 26
28 94 26
29 96 26
29 96 26
26 86 24
26 86 24
27 92 25
27 92 25
27 90 25
27 90 25
30 100 27
30 100 27
30 100 27
30 100 27
29 96 27
29 96 27
32 109 29
32 109 29
32 107 29
32 107 29
24 79 23
24 79 23
27 89 25
27 89 25
30 100 27
30 100 27
28 94 26
28 94 26
27 89 25
27 89 25
26 87 25
26 87 25
31 103 28
31 103 28
24 80 23
24 80 23
23 76 22
23 76 22
27 90 25
27 90 25
23 77 22
23 77 22
26 85 24
26 85 24
23 74 22
23 74 22
24 78 23
24 78 23
21 67 20
21 67 20
20 64 20
20 64 20
27 90 25
27 90 25
22 72 21
22 72 21
29 99 27
29 99 27
28 94 26
28 94 26
35 119 31
35 119 31
29 98 27
29 98 27
28 94 26
28 94 26
29 96 26
29 96 26
26 86 24
26 86 24
27 92 25
27 92 25
27 90 25
27 90 25
30 100 27
30 100 27
30 100 27
30 100 27
29 96 27
29 96 27
32 109 29
32 109 29
32 107 29
32 107 29
24 79 23
24 79 23
27 89 25
27 89 25
30 100 27
30 100 27
28 94 26
28 94 26
27 89 25
27 89 25
26 87 25
26 87 25
31 103 28
31 103 28
24 80 23
24 80 23
27 90 25
27 90 25
27 89 25
27 89 25
25 81 23
25 81 23
26 85 24
26 85 24
24 79 23
24 79 23
26 85 24
26 85 24
24 79 23
24 79 23
26 86 24
26 86 24
24 77 22
24 77 22
27 89 25
27 89 25
31 103 28
31 103 28
26 87 24
26 87 24
29 97 27
29 97 27
34 117 31
34 117 31
26 86 24
26 86 24
26 85 24
26 85 24
27 90 25
27 90 25
28 93 26
28 93 26
27 91 25
27 91 25
30 102 28
30 102 28
33 112 30
33 112 30
33 112 30
33 112 30
31 106 29
31 106 29
30 102 28
30 102 28
23 75 22
23 75 22
27 90 25
27 90 25
28 95 26
28 95 26
30 102 28
30 102 28
30 101 27
30 101 27
29 96 26
29 96 26
26 85 24
26 85 24
27 91 25
27 91 25
27 90 25
27 90 25
27 89 25
27 89 25
25 81 23
25 81 23
26 85 24
26 85 24
24 79 23
24 79 23
26 85 24
26 85 24
24 79 23
24 79 23
26 86 24
26 86 24
24 77 22
24 77 22
27 89 25
27 89 25
31 103 28
31 103 28
26 87 24
26 87 24
29 97 27
29 97 27
34 117 31
34 117 31
26 86 24
26 86 24
26 85 24
26 85 24
27 90 25
27 90 25
28 93 26
28 93 26
27 91 25
27 91 25
30 102 28
30 102 28
33 112 30
33 112 30
33 112 30
33 112 30
31 106 29
31 106 29
30 102 28
30 102 28
23 75 22
23 75 22
27 90 25
27 90 25
28 95 26
28 95 26
30 102 28
30 102 28
30 101 27
30 101 27
29 96 26
29 96 26
26 85 24
26 85 24
27 91 25
27 91 25
27 89 25
27 89 25
21 68 20
21 68 20
33 111 30
33 111 30
31 103 28
31 103 28
23 75 22
23 75 22
28 94 26
28 94 26
31 104 28
31 104 28
29 96 26
29 96 26
30 100 27
30 100 27
29 98 27
29 98 27
27 91 25
27 91 25
32 108 29
32 108 29
23 75 22
23 75 22
24 78 23
24 78 23
20 63 19
20 63 19
24 77 22
24 77 22
27 91 25
27 91 25
26 87 24
26 87 24
22 70 21
22 70 21
24 78 23
24 78 23
25 84 24
25 84 24
25 84 24
25 84 24
30 102 28
30 102 28
32 109 29
32 109 29
34 117 31
34 117 31
30 102 28
30 102 28
26 85 24
26 85 24
24 79 23
24 79 23
26 86 24
26 86 24
28 92 26
28 92 26
26 84 24
26 84 24
27 91 25
27 91 25
27 89 25
27 89 25
21 68 20
21 68 20
33 111 30
33 111 30
31 103 28
31 103 28
23 75 22
23 75 22
28 94 26
28 94 26
31 104 28
31 104 28
29 96 26
29 96 26
30 100 27
30 100 27
29 98 27
29 98 27
27 91 25
27 91 25
32 108 29
32 108 29
23 75 22
23 75 22
24 78 23
24 78 23
20 63 19
20 63 19
24 77 22
24 77 22
27 91 25
27 91 25
26 87 24
26 87 24
22 70 21
22 70 21
24 78 23
24 78 23
25 84 24
25 84 24
25 84 24
25 84 24
30 102 28
30 102 28
32 109 29
32 109 29
34 117 31
34 117 31
30 102 28
30 102 28
26 85 24
26 85 24
24 79 23
24 79 23
26 86 24
26 86 24
28 92 26
28 92 26
26 84 24
26 84 24
27 91 25
27 91 25
21 67 20
21 67 20
23 75 22
23 75 22
33 110 30
33 110 30
32 107 29
32 107 29
25 83 24
25 83 24
25 81 23
25 81 23
31 103 28
31 103 28
32 108 29
32 108 29
31 106 29
31 106 29
35 118 31
35 118 31
28 94 26
28 94 26
31 106 29
31 106 29
23 76 22
23 76 22
27 89 25
27 89 25
25 82 24
25 82 24
21 67 20
21 67 20
28 94 26
28 94 26
27 90 25
27 90 25
27 88 25
27 88 25
28 94 26
28 94 26
24 80 23
24 80 23
22 72 21
22 72 21
29 96 26
29 96 26
32 108 29
32 108 29
28 95 26
28 95 26
31 106 29
31 106 29
30 102 28
30 102 28
29 99 27
29 99 27
23 75 22
23 75 22
26 85 24
26 85 24
23 74 22
23 74 22
25 84 24
25 84 24
21 67 20
21 67 20
23 75 22
23 75 22
33 110 30
33 110 30
32 107 29
32 107 29
25 83 24
25 83 24
25 81 23
25 81 23
31 103 28
31 103 28
32 108 29
32 108 29
31 106 29
31 106 29
35 118 31
35 118 31
28 94 26
28 94 26
31 106 29
31 106 29
23 76 22
23 76 22
27 89 25
27 89 25
25 82 24
25 82 24
21 67 20
21 67 20
28 94 26
28 94 26
27 90 25
27 90 25
27 88 25
27 88 25
28 94 26
28 94 26
24 80 23
24 80 23
22 72 21
22 72 21
29 96 26
29 96 26
32 108 29
32 108 29
28 95 26
28 95 26
31 106 29
31 106 29
30 102 28
30 102 28
29 99 27
29 99 27
23 75 22
23 75 22
26 85 24
26 85 24
23 74 22
23 74 22
25 84 24
25 84 24
24 78 22
24 78 22
24 80 23
24 80 23
31 105 28
31 105 28
26 86 24
26 86 24
22 72 21
22 72 21
25 84 24
25 84 24
25 82 23
25 82 23
26 85 24
26 85 24
28 93 26
28 93 26
27 89 25
27 89 25
32 109 29
32 109 29
27 89 25
27 89 25
28 93 26
28 93 26
24 80 23
24 80 23
25 81 23
25 81 23
25 82 23
25 82 23
25 82 23
25 82 23
26 84 24
26 84 24
26 86 24
26 86 24
26 86 24
26 86 24
31 104 28
31 104 28
33 111 30
33 111 30
29 97 27
29 97 27
27 88 25
27 88 25
34 117 31
34 117 31
34 114 30
34 114 30
26 88 25
26 88 25
22 72 21
22 72 21
23 77 22
23 77 22
24 80 23
24 80 23
20 65 20
20 65 20
21 68 20
21 68 20
24 78 22
24 78 22
24 80 23
24 80 23
31 105 28
31 105 28
26 86 24
26 86 24
22 72 21
22 72 21
25 84 24
25 84 24
25 82 23
25 82 23
26 85 24
26 85 24
28 93 26
28 93 26
27 89 25
27 89 25
32 109 29
32 109 29
27 89 25
27 89 25
28 93 26
28 93 26
24 80 23
24 80 23
25 81 23
25 81 23
25 82 23
25 82 23
25 82 23
25 82 23
26 84 24
26 84 24
26 86 24
26 86 24
26 86 24
26 86 24
31 104 28
31 104 28
33 111 30
33 111 30
29 97 27
29 97 27
27 88 25
27 88 25
34 117 31
34 117 31
34 114 30
34 114 30
26 88 25
26 88 25
22 72 21
22 72 21
23 77 22
23 77 22
24 80 23
24 80 23
20 65 20
20 65 20
21 68 20
21 68 20
29 96 26
29 96 26
27 90 25
27 90 25
27 88 25
27 88 25
29 99 27
29 99 27
27 89 25
27 89 25
20 66 20
20 66 20
20 64 20
20 64 20
21 68 20
21 68 20
26 88 25
26 88 25
22 73 21
22 73 21
29 96 26
29 96 26
31 104 28
31 104 28
25 83 24
25 83 24
22 72 21
22 72 21
23 74 22
23 74 22
27 91 25
27 91 25
25 83 24
25 83 24
25 84 24
25 84 24
26 87 24
26 87 24
25 82 23
25 82 23
30 100 27
30 100 27
29 98 27
29 98 27
30 102 28
30 102 28
27 88 25
27 88 25
30 100 27
30 100 27
32 109 29
32 109 29
27 88 25
27 88 25
27 92 25
27 92 25
22 69 21
22 69 21
26 87 24
26 87 24
22 71 21
22 71 21
24 77 22
24 77 22
29 96 26
29 96 26
27 90 25
27 90 25
27 88 25
27 88 25
29 99 27
29 99 27
27 89 25
27 89 25
20 66 20
20 66 20
20 64 20
20 64 20
21 68 20
21 68 20
26 88 25
26 88 25
22 73 21
22 73 21
29 96 26
29 96 26
31 104 28
31 104 28
25 83 24
25 83 24
22 72 21
22 72 21
23 74 22
23 74 22
27 91 25
27 91 25
25 83 24
25 83 24
25 84 24
25 84 24
26 87 24
26 87 24
25 82 23
25 82 23
30 100 27
30 100 27
29 98 27
29 98 27
30 102 28
30 102 28
27 88 25
27 88 25
30 100 27
30 100 27
32 109 29
32 109 29
27 88 25
27 88 25
27 92 25
27 92 25
22 69 21
22 69 21
26 87 24
26 87 24
22 71 21
22 71 21
24 77 22
24 77 22
28 92 26
28 92 26
28 94 26
28 94 26
28 94 26
28 94 26
29 97 27
29 97 27
21 69 21
21 69 21
19 60 19
19 60 19
30 102 28
30 102 28
27 90 25
27 90 25
28 94 26
28 94 26
25 82 23
25 82 23
24 78 23
24 78 23
26 87 24
26 87 24
29 96 26
29 96 26
25 82 24
25 82 24
22 70 21
22 70 21
20 63 19
20 63 19
27 91 25
27 91 25
25 81 23
25 81 23
24 79 23
24 79 23
21 68 20
21 68 20
24 80 23
24 80 23
24 78 23
24 78 23
22 73 21
22 73 21
22 73 21
22 73 21
32 109 29
32 109 29
26 87 25
26 87 25
27 89 25
27 89 25
26 87 25
26 87 25
23 74 22
23 74 22
24 79 23
24 79 23
25 82 23
25 82 23
26 85 24
26 85 24
28 92 26
28 92 26
28 94 26
28 94 26
28 94 26
28 94 26
29 97 27
29 97 27
21 69 21
21 69 21
19 60 19
19 60 19
30 102 28
30 102 28
27 90 25
27 90 25
28 94 26
28 94 26
25 82 23
25 82 23
24 78 23
24 78 23
26 87 24
26 87 24
29 96 26
29 96 26
25 82 24
25 82 24
22 70 21
22 70 21
20 63 19
20 63 19
27 91 25
27 91 25
25 81 23
25 81 23
24 79 23
24 79 23
21 68 20
21 68 20
24 80 23
24 80 23
24 78 23
24 78 23
22 73 21
22 73 21
22 73 21
22 73 21
32 109 29
32 109 29
26 87 25
26 87 25
27 89 25
27 89 25
26 87 25
26 87 25
23 74 22
23 74 22
24 79 23
24 79 23
25 82 23
25 82 23
26 85 24
26 85 24
26 87 25
26 87 25
30 101 28
30 101 28
23 74 22
23 74 22
26 85 24
26 85 24
22 70 21
22 70 21
21 67 20
21 67 20
29 97 27
29 97 27
30 101 28
30 101 28
26 87 24
26 87 24
30 100 27
30 100 27
25 82 24
25 82 24
28 95 26
28 95 26
24 80 23
24 80 23
28 93 26
28 93 26
20 63 19
20 63 19
25 81 23
25 81 23
29 96 26
29 96 26
26 87 25
26 87 25
22 72 21
22 72 21
22 72 21
22 72 21
26 85 24
26 85 24
25 82 23
25 82 23
21 66 20
21 66 20
21 68 20
21 68 20
28 94 26
28 94 26
32 109 29
32 109 29
28 95 26
28 95 26
30 102 28
30 102 28
21 68 20
21 68 20
21 69 21
21 69 21
27 89 25
27 89 25
29 99 27
29 99 27
26 87 25
26 87 25
30 101 28
30 101 28
23 74 22
23 74 22
26 85 24
26 85 24
22 70 21
22 70 21
21 67 20
21 67 20
29 97 27
29 97 27
30 101 28
30 101 28
26 87 24
26 87 24
30 100 27
30 100 27
25 82 24
25 82 24
28 95 26
28 95 26
24 80 23
24 80 23
28 93 26
28 93 26
20 63 19
20 63 19
25 81 23
25 81 23
29 96 26
29 96 26
26 87 25
26 87 25
22 72 21
22 72 21
22 72 21
22 72 21
26 85 24
26 85 24
25 82 23
25 82 23
21 66 20
21 66 20
21 68 20
21 68 20
28 94 26
28 94 26
32 109 29
32 109 29
28 95 26
28 95 26
30 102 28
30 102 28
21 68 20
21 68 20
21 69 21
21 69 21
27 89 25
27 89 25
29 99 27
29 99 27
25 81 23
25 81 23
27 89 25
27 89 25
28 95 26
28 95 26
26 86 24
26 86 24
29 98 27
29 98 27
26 85 24
26 85 24
24 79 23
24 79 23
24 77 22
24 77 22
25 83 24
25 83 24
25 84 24
25 84 24
19 60 19
19 60 19
23 74 22
23 74 22
25 83 24
25 83 24
26 88 25
26 88 25
18 56 18
18 56 18
19 62 19
19 62 19
23 74 22
23 74 22
21 66 20
21 66 20
20 65 20
20 65 20
23 76 22
23 76 22
30 101 28
30 101 28
30 103 28
30 103 28
27 88 25
27 88 25
29 99 27
29 99 27
19 62 19
19 62 19
24 79 23
24 79 23
29 97 27
29 97 27
28 94 26
28 94 26
26 84 24
26 84 24
27 88 25
27 88 25
27 89 25
27 89 25
29 97 27
29 97 27
25 81 23
25 81 23
27 89 25
27 89 25
28 95 26
28 95 26
26 86 24
26 86 24
29 98 27
29 98 27
26 85 24
26 85 24
24 79 23
24 79 23
24 77 22
24 77 22
25 83 24
25 83 24
25 84 24
25 84 24
19 60 19
19 60 19
23 74 22
23 74 22
25 83 24
25 83 24
26 88 25
26 88 25
18 56 18
18 56 18
19 62 19
19 62 19
23 74 22
23 74 22
21 66 20
21 66 20
20 65 20
20 65 20
23 76 22
23 76 22
30 101 28
30 101 28
30 103 28
30 103 28
27 88 25
27 88 25
29 99 27
29 99 27
19 62 19
19 62 19
24 79 23
24 79 23
29 97 27
29 97 27
28 94 26
28 94 26
26 84 24
26 84 24
27 88 25
27 88 25
27 89 25
27 89 25
29 97 27
29 97 27
27 90 25
27 90 25
24 80 23
24 80 23
31 105 28
31 105 28
31 104 28
31 104 28
32 107 29
32 107 29
26 87 25
26 87 25
24 80 23
24 80 23
23 76 22
23 76 22
25 84 24
25 84 24
28 94 26
28 94 26
23 73 22
23 73 22
22 70 21
22 70 21
27 91 25
27 91 25
25 82 23
25 82 23
24 79 23
24 79 23
25 81 23
25 81 23
23 74 22
23 74 22
25 82 23
25 82 23
21 67 20
21 67 20
24 78 22
24 78 22
31 106 29
31 106 29
33 112 30
33 112 30
29 97 27
29 97 27
29 97 27
29 97 27
24 79 23
24 79 23
24 80 23
24 80 23
28 92 26
28 92 26
26 84 24
26 84 24
25 82 23
25 82 23
23 73 22
23 73 22
24 79 23
24 79 23
29 95 26
29 95 26
27 90 25
27 90 25
24 80 23
24 80 23
31 105 28
31 105 28
31 104 28
31 104 28
32 107 29
32 107 29
26 87 25
26 87 25
24 80 23
24 80 23
23 76 22
23 76 22
25 84 24
25 84 24
28 94 26
28 94 26
23 73 22
23 73 22
22 70 21
22 70 21
27 91 25
27 91 25
25 82 23
25 82 23
24 79 23
24 79 23
25 81 23
25 81 23
23 74 22
23 74 22
25 82 23
25 82 23
21 67 20
21 67 20
24 78 22
24 78 22
31 106 29
31 106 29
33 112 30
33 112 30
29 97 27
29 97 27
29 97 27
29 97 27
24 79 23
24 79 23
24 80 23
24 80 23
28 92 26
28 92 26
26 84 24
26 84 24
25 82 23
25 82 23
23 73 22
23 73 22
24 79 23
24 79 23
29 95 26
29 95 26
22 69 21
22 69 21
24 80 23
24 80 23
28 92 26
28 92 26
23 74 22
23 74 22
30 100 27
30 100 27
31 105 28
31 105 28
24 79 23
24 79 23
27 92 25
27 92 25
28 94 26
28 94 26
34 114 30
34 114 30
20 62 19
20 62 19
24 78 23
24 78 23
22 69 21
22 69 21
22 71 21
22 71 21
24 77 22
24 77 22
22 71 21
22 71 21
29 96 26
29 96 26
28 93 26
28 93 26
30 99 27
30 99 27
29 97 27
29 97 27
28 93 26
28 93 26
29 96 26
29 96 26
28 94 26
28 94 26
26 85 24
26 85 24
22 73 21
22 73 21
22 72 21
22 72 21
33 112 30
33 112 30
31 105 28
31 105 28
19 60 19
19 60 19
23 75 22
23 75 22
18 58 18
18 58 18
23 76 22
23 76 22
22 69 21
22 69 21
24 80 23
24 80 23
28 92 26
28 92 26
23 74 22
23 74 22
30 100 27
30 100 27
31 105 28
31 105 28
24 79 23
24 79 23
27 92 25
27 92 25
28 94 26
28 94 26
34 114 30
34 114 30
20 62 19
20 62 19
24 78 23
24 78 23
22 69 21
22 69 21
22 71 21
22 71 21
24 77 22
24 77 22
22 71 21
22 71 21
29 96 26
29 96 26
28 93 26
28 93 26
30 99 27
30 99 27
29 97 27
29 97 27
28 93 26
28 93 26
29 96 26
29 96 26
28 94 26
28 94 26
26 85 24
26 85 24
22 73 21
22 73 21
22 72 21
22 72 21
33 112 30
33 112 30
31 105 28
31 105 28
19 60 19
19 60 19
23 75 22
23 75 22
18 58 18
18 58 18
23 76 22
23 76 22
21 68 20
21 68 20
23 75 22
23 75 22
22 72 21
22 72 21
29 96 26
29 96 26
29 96 26
29 96 26
31 105 28
31 105 28
30 101 27
30 101 27
28 93 26
28 93 26
28 94 26
28 94 26
29 98 27
29 98 27
21 68 20
21 68 20
22 72 21
22 72 21
21 68 20
21 68 20
24 79 23
24 79 23
23 75 22
23 75 22
24 80 23
24 80 23
27 90 25
27 90 25
33 110 30
33 110 30
27 91 25
27 91 25
29 97 27
29 97 27
28 92 26
28 92 26
31 103 28
31 103 28
23 76 22
23 76 22
27 90 25
27 90 25
19 59 19
19 59 19
19 59 19
19 59 19
30 103 28
30 103 28
33 111 30
33 111 30
21 66 20
21 66 20
23 75 22
23 75 22
23 74 22
23 74 22
23 73 22
23 73 22
21 68 20
21 68 20
23 75 22
23 75 22
22 72 21
22 72 21
29 96 26
29 96 26
29 96 26
29 96 26
31 105 28
31 105 28
30 101 27
30 101 27
28 93 26
28 93 26
28 94 26
28 94 26
29 98 27
29 98 27
21 68 20
21 68 20
22 72 21
22 72 21
21 68 20
21 68 20
24 79 23
24 79 23
23 75 22
23 75 22
24 80 23
24 80 23
27 90 25
27 90 25
33 110 30
33 110 30
27 91 25
27 91 25
29 97 27
29 97 27
28 92 26
28 92 26
31 103 28
31 103 28
23 76 22
23 76 22
27 90 25
27 90 25
19 59 19
19 59 19
19 59 19
19 59 19
30 103 28
30 103 28
33 111 30
33 111 30
21 66 20
21 66 20
23 75 22
23 75 22
23 74 22
23 74 22
23 73 22
23 73 22
26 85 24
26 85 24
23 76 22
23 76 22
27 90 25
27 90 25
28 93 26
28 93 26
19 62 19
19 62 19
23 76 22
23 76 22
25 82 24
25 82 24
21 69 21
21 69 21
21 69 21
21 69 21
24 78 23
24 78 23
24 80 23
24 80 23
18 56 18
18 56 18
28 93 26
28 93 26
31 105 28
31 105 28
23 75 22
23 75 22
21 67 20
21 67 20
22 73 21
22 73 21
22 72 21
22 72 21
21 68 20
21 68 20
22 72 21
22 72 21
22 70 21
22 70 21
24 78 22
24 78 22
23 75 22
23 75 22
26 88 25
26 88 25
28 95 26
28 95 26
29 96 26
29 96 26
22 73 21
22 73 21
21 68 20
21 68 20
28 93 26
28 93 26
30 101 28
30 101 28
30 102 28
30 102 28
31 106 29
31 106 29
26 85 24
26 85 24
23 76 22
23 76 22
27 90 25
27 90 25
28 93 26
28 93 26
19 62 19
19 62 19
23 76 22
23 76 22
25 82 24
25 82 24
21 69 21
21 69 21
21 69 21
21 69 21
24 78 23
24 78 23
24 80 23
24 80 23
18 56 18
18 56 18
28 93 26
28 93 26
31 105 28
31 105 28
23 75 22
23 75 22
21 67 20
21 67 20
22 73 21
22 73 21
22 72 21
22 72 21
21 68 20
21 68 20
22 72 21
22 72 21
22 70 21
22 70 21
24 78 22
24 78 22
23 75 22
23 75 22
26 88 25
26 88 25
28 95 26
28 95 26
29 96 26
29 96 26
22 73 21
22 73 21
21 68 20
21 68 20
28 93 26
28 93 26
30 101 28
30 101 28
30 102 28
30 102 28
31 106 29
31 106 29
23 75 22
23 75 22
25 81 23
25 81 23
30 102 28
30 102 28
27 91 25
27 91 25
21 68 20
21 68 20
22 72 21
22 72 21
26 85 24
26 85 24
26 86 24
26 86 24
19 60 19
19 60 19
21 67 20
21 67 20
22 71 21
22 71 21
20 62 19
20 62 19
29 97 27
29 97 27
28 92 26
28 92 26
26 85 24
26 85 24
25 83 24
25 83 24
22 73 21
22 73 21
20 64 20
20 64 20
23 76 22
23 76 22
19 62 19
19 62 19
24 78 23
24 78 23
24 77 22
24 77 22
22 70 21
22 70 21
25 83 24
25 83 24
27 90 25
27 90 25
27 91 25
27 91 25
22 70 21
22 70 21
21 69 21
21 69 21
34 116 31
34 116 31
28 95 26
28 95 26
27 92 25
27 92 25
28 93 26
28 93 26
23 75 22
23 75 22
25 81 23
25 81 23
30 102 28
30 102 28
27 91 25
27 91 25
21 68 20
21 68 20
22 72 21
22 72 21
26 85 24
26 85 24
26 86 24
26 86 24
19 60 19
19 60 19
21 67 20
21 67 20
22 71 21
22 71 21
20 62 19
20 62 19
29 97 27
29 97 27
28 92 26
28 92 26
26 85 24
26 85 24
25 83 24
25 83 24
22 73 21
22 73 21
20 64 20
20 64 20
23 76 22
23 76 22
19 62 19
19 62 19
24 78 23
24 78 23
24 77 22
24 77 22
22 70 21
22 70 21
25 83 24
25 83 24
27 90 25
27 90 25
27 91 25
27 91 25
22 70 21
22 70 21
21 69 21
21 69 21
34 116 31
34 116 31
28 95 26
28 95 26
27 92 25
27 92 25
28 93 26
28 93 26
23 74 22
23 74 22
28 94 26
28 94 26
31 105 28
31 105 28
32 107 29
32 107 29
21 68 20
21 68 20
23 74 22
23 74 22
22 71 21
22 71 21
25 84 24
25 84 24
31 105 28
31 105 28
30 100 27
30 100 27
24 79 23
24 79 23
28 95 26
28 95 26
23 76 22
23 76 22
25 82 23
25 82 23
25 82 23
25 82 23
26 85 24
26 85 24
22 71 21
22 71 21
28 95 26
28 95 26
25 81 23
25 81 23
26 88 25
26 88 25
25 81 23
25 81 23
27 89 25
27 89 25
23 76 22
23 76 22
18 58 18
18 58 18
26 88 25
26 88 25
24 77 22
24 77 22
31 105 28
31 105 28
28 92 26
28 92 26
26 84 24
26 84 24
22 70 21
22 70 21
32 110 29
32 110 29
30 100 27
30 100 27
23 74 22
23 74 22
28 94 26
28 94 26
31 105 28
31 105 28
32 107 29
32 107 29
21 68 20
21 68 20
23 74 22
23 74 22
22 71 21
22 71 21
25 84 24
25 84 24
31 105 28
31 105 28
30 100 27
30 100 27
24 79 23
24 79 23
28 95 26
28 95 26
23 76 22
23 76 22
25 82 23
25 82 23
25 82 23
25 82 23
26 85 24
26 85 24
22 71 21
22 71 21
28 95 26
28 95 26
25 81 23
25 81 23
26 88 25
26 88 25
25 81 23
25 81 23
27 89 25
27 89 25
23 76 22
23 76 22
18 58 18
18 58 18
26 88 25
26 88 25
24 77 22
24 77 22
31 105 28
31 105 28
28 92 26
28 92 26
26 84 24
26 84 24
22 70 21
22 70 21
32 110 29
32 110 29
30 100 27
30 100 27
22 73 21
22 73 21
28 92 26
28 92 26
25 84 24
25 84 24
27 88 25
27 88 25
22 71 21
22 71 21
24 79 23
24 79 23
22 73 21
22 73 21
25 82 23
25 82 23
30 101 28
30 101 28
32 110 29
32 110 29
25 83 24
25 83 24
26 85 24
26 85 24
23 74 22
23 74 22
24 80 23
24 80 23
23 74 22
23 74 22
27 90 25
27 90 25
27 91 25
27 91 25
26 88 25
26 88 25
26 87 24
26 87 24
25 84 24
25 84 24
26 84 24
26 84 24
26 87 25
26 87 25
22 72 21
22 72 21
20 64 20
20 64 20
29 96 26
29 96 26
26 87 25
26 87 25
28 92 26
28 92 26
27 91 25
27 91 25
20 64 20
20 64 20
22 71 21
22 71 21
28 92 26
28 92 26
29 98 27
29 98 27
22 73 21
22 73 21
28 92 26
28 92 26
25 84 24
25 84 24
27 88 25
27 88 25
22 71 21
22 71 21
24 79 23
24 79 23
22 73 21
22 73 21
25 82 23
25 82 23
30 101 28
30 101 28
32 110 29
32 110 29
25 83 24
25 83 24
26 85 24
26 85 24
23 74 22
23 74 22
24 80 23
24 80 23
23 74 22
23 74 22
27 90 25
27 90 25
27 91 25
27 91 25
26 88 25
26 88 25
26 87 24
26 87 24
25 84 24
25 84 24
26 84 24
26 84 24
26 87 25
26 87 25
22 72 21
22 72 21
20 64 20
20 64 20
29 96 26
29 96 26
26 87 25
26 87 25
28 92 26
28 92 26
27 91 25
27 91 25
20 64 20
20 64 20
22 71 21
22 71 21
28 92 26
28 92 26
29 98 27
29 98 27
30 100 27
30 100 27
26 87 24
26 87 24
29 96 26
29 96 26
30 100 27
30 100 27
27 90 25
27 90 25
26 87 25
26 87 25
23 75 22
23 75 22
27 91 25
27 91 25
26 88 25
26 88 25
30 102 28
30 102 28
27 88 25
27 88 25
29 96 26
29 96 26
29 97 27
29 97 27
27 89 25
27 89 25
33 111 30
33 111 30
27 91 25
27 91 25
18 57 18
18 57 18
19 60 19
19 60 19
25 83 24
25 83 24
25 82 23
25 82 23
22 71 21
22 71 21
23 73 22
23 73 22
27 89 25
27 89 25
23 74 22
23 74 22
28 93 26
28 93 26
27 90 25
27 90 25
33 111 30
33 111 30
34 115 31
34 115 31
27 91 25
27 91 25
27 88 25
27 88 25
26 87 25
26 87 25
31 106 29
31 106 29
30 100 27
30 100 27
26 87 24
26 87 24
29 96 26
29 96 26
30 100 27
30 100 27
27 90 25
27 90 25
26 87 25
26 87 25
23 75 22
23 75 22
27 91 25
27 91 25
26 88 25
26 88 25
30 102 28
30 102 28
27 88 25
27 88 25
29 96 26
29 96 26
29 97 27
29 97 27
27 89 25
27 89 25
33 111 30
33 111 30
27 91 25
27 91 25
18 57 18
18 57 18
19 60 19
19 60 19
25 83 24
25 83 24
25 82 23
25 82 23
22 71 21
22 71 21
23 73 22
23 73 22
27 89 25
27 89 25
23 74 22
23 74 22
28 93 26
28 93 26
27 90 25
27 90 25
33 111 30
33 111 30
34 115 31
34 115 31
27 91 25
27 91 25
27 88 25
27 88 25
26 87 25
26 87 25
31 106 29
31 106 29
27 89 25
27 89 25
24 80 23
24 80 23
32 110 29
32 110 29
30 102 28
30 102 28
27 89 25
27 89 25
24 77 22
24 77 22
26 87 25
26 87 25
29 98 27
29 98 27
27 90 25
27 90 25
32 108 29
32 108 29
25 82 23
25 82 23
29 97 27
29 97 27
27 89 25
27 89 25
26 87 25
26 87 25
29 98 27
29 98 27
31 105 28
31 105 28
25 81 23
25 81 23
24 79 23
24 79 23
21 66 20
21 66 20
20 63 19
20 63 19
22 72 21
22 72 21
28 93 26
28 93 26
23 77 22
23 77 22
24 79 23
24 79 23
25 83 24
25 83 24
24 79 23
24 79 23
28 94 26
28 94 26
32 110 29
32 110 29
29 97 27
29 97 27
22 73 21
22 73 21
29 97 27
29 97 27
30 100 27
30 100 27
27 89 25
27 89 25
24 80 23
24 80 23
32 110 29
32 110 29
30 102 28
30 102 28
27 89 25
27 89 25
24 77 22
24 77 22
26 87 25
26 87 25
29 98 27
29 98 27
27 90 25
27 90 25
32 108 29
32 108 29
25 82 23
25 82 23
29 97 27
29 97 27
27 89 25
27 89 25
26 87 25
26 87 25
29 98 27
29 98 27
31 105 28
31 105 28
25 81 23
25 81 23
24 79 23
24 79 23
21 66 20
21 66 20
20 63 19
20 63 19
22 72 21
22 72 21
28 93 26
28 93 26
23 77 22
23 77 22
24 79 23
24 79 23
25 83 24
25 83 24
24 79 23
24 79 23
28 94 26
28 94 26
32 110 29
32 110 29
29 97 27
29 97 27
22 73 21
22 73 21
29 97 27
29 97 27
30 100 27
30 100 27
31 104 28
31 104 28
31 105 28
31 105 28
28 95 26
28 95 26
29 99 27
29 99 27
27 89 25
27 89 25
31 106 29
31 106 29
25 81 23
25 81 23
21 66 20
21 66 20
28 92 26
28 92 26
30 99 27
30 99 27
28 92 26
28 92 26
24 80 23
24 80 23
28 92 26
28 92 26
27 89 25
27 89 25
32 107 29
32 107 29
28 95 26
28 95 26
27 89 25
27 89 25
26 88 25
26 88 25
30 99 27
30 99 27
24 80 23
24 80 23
24 79 23
24 79 23
26 87 24
26 87 24
27 90 25
27 90 25
27 90 25
27 90 25
29 99 27
29 99 27
28 95 26
28 95 26
33 114 30
33 114 30
34 114 30
34 114 30
27 90 25
27 90 25
30 102 28
30 102 28
21 67 20
21 67 20
20 65 20
20 65 20
31 104 28
31 104 28
31 105 28
31 105 28
28 95 26
28 95 26
29 99 27
29 99 27
27 89 25
27 89 25
31 106 29
31 106 29
25 81 23
25 81 23
21 66 20
21 66 20
28 92 26
28 92 26
30 99 27
30 99 27
28 92 26
28 92 26
24 80 23
24 80 23
28 92 26
28 92 26
27 89 25
27 89 25
32 107 29
32 107 29
28 95 26
28 95 26
27 89 25
27 89 25
26 88 25
26 88 25
30 99 27
30 99 27
24 80 23
24 80 23
24 79 23
24 79 23
26 87 24
26 87 24
27 90 25
27 90 25
27 90 25
27 90 25
29 99 27
29 99 27
28 95 26
28 95 26
33 114 30
33 114 30
34 114 30
34 114 30
27 90 25
27 90 25
30 102 28
30 102 28
21 67 20
21 67 20
20 65 20
20 65 20
30 100 27
30 100 27
30 99 27
30 99 27
29 96 26
29 96 26
34 115 30
34 115 30
26 86 24
26 86 24
32 109 29
32 109 29
25 83 24
25 83 24
27 91 25
27 91 25
27 91 25
27 91 25
26 87 25
26 87 25
26 85 24
26 85 24
23 75 22
23 75 22
27 89 25
27 89 25
33 112 30
33 112 30
34 115 30
34 115 30
32 110 29
32 110 29
25 81 23
25 81 23
26 88 25
26 88 25
28 92 26
28 92 26
30 99 27
30 99 27
22 72 21
22 72 21
26 86 24
26 86 24
21 68 20
21 68 20
25 81 23
25 81 23
31 105 28
31 105 28
29 99 27
29 99 27
33 113 30
33 113 30
30 101 28
30 101 28
33 113 30
33 113 30
34 114 30
34 114 30
24 77 22
24 77 22
25 81 23
25 81 23
30 100 27
30 100 27
30 99 27
30 99 27
29 96 26
29 96 26
34 115 30
34 115 30
26 86 24
26 86 24
32 109 29
32 109 29
25 83 24
25 83 24
27 91 25
27 91 25
27 91 25
27 91 25
26 87 25
26 87 25
26 85 24
26 85 24
23 75 22
23 75 22
27 89 25
27 89 25
33 112 30
33 112 30
34 115 30
34 115 30
32 110 29
32 110 29
25 81 23
25 81 23
26 88 25
26 88 25
28 92 26
28 92 26
30 99 27
30 99 27
22 72 21
22 72 21
26 86 24
26 86 24
21 68 20
21 68 20
25 81 23
25 81 23
31 105 28
31 105 28
29 99 27
29 99 27
33 113 30
33 113 30
30 101 28
30 101 28
33 113 30
33 113 30
34 114 30
34 114 30
24 77 22
24 77 22
25 81 23
25 81 23
24 80 23
24 80 23
28 93 26
28 93 26
29 97 27
29 97 27
26 86 24
26 86 24
28 95 26
28 95 26
27 88 25
27 88 25
29 99 27
29 99 27
32 110 29
32 110 29
21 67 20
21 67 20
22 72 21
22 72 21
26 86 24
26 86 24
27 91 25
27 91 25
27 90 25
27 90 25
24 78 22
24 78 22
30 102 28
30 102 28
29 95 26
29 95 26
23 76 22
23 76 22
21 66 20
21 66 20
30 99 27
30 99 27
29 97 27
29 97 27
34 116 31
34 116 31
32 107 29
32 107 29
29 97 27
29 97 27
26 85 24
26 85 24
25 81 23
25 81 23
24 78 23
24 78 23
22 71 21
22 71 21
26 87 24
26 87 24
28 92 26
28 92 26
23 75 22
23 75 22
29 96 26
29 96 26
26 88 25
26 88 25
24 80 23
24 80 23
28 93 26
28 93 26
29 97 27
29 97 27
26 86 24
26 86 24
28 95 26
28 95 26
27 88 25
27 88 25
29 99 27
29 99 27
32 110 29
32 110 29
21 67 20
21 67 20
22 72 21
22 72 21
26 86 24
26 86 24
27 91 25
27 91 25
27 90 25
27 90 25
24 78 22
24 78 22
30 102 28
30 102 28
29 95 26
29 95 26
23 76 22
23 76 22
21 66 20
21 66 20
30 99 27
30 99 27
29 97 27
29 97 27
34 116 31
34 116 31
32 107 29
32 107 29
29 97 27
29 97 27
26 85 24
26 85 24
25 81 23
25 81 23
24 78 23
24 78 23
22 71 21
22 71 21
26 87 24
26 87 24
28 92 26
28 92 26
23 75 22
23 75 22
29 96 26
29 96 26
26 88 25
26 88 25
26 88 25
26 88 25
25 82 23
25 82 23
32 107 29
32 107 29
27 90 25
27 90 25
29 96 26
29 96 26
30 102 28
30 102 28
31 104 28
31 104 28
33 113 30
33 113 30
22 71 21
22 71 21
24 80 23
24 80 23
28 94 26
28 94 26
29 96 26
29 96 26
29 97 27
29 97 27
23 76 22
23 76 22
33 112 30
33 112 30
31 104 28
31 104 28
24 80 23
24 80 23
20 63 19
20 63 19
32 109 29
32 109 29
29 99 27
29 99 27
31 104 28
31 104 28
31 106 29
31 106 29
24 79 23
24 79 23
29 98 27
29 98 27
22 73 21
22 73 21
21 68 21
21 68 21
22 72 21
22 72 21
24 79 23
24 79 23
25 83 24
25 83 24
25 82 23
25 82 23
29 98 27
29 98 27
31 104 28
31 104 28
26 88 25
26 88 25
25 82 23
25 82 23
32 107 29
32 107 29
27 90 25
27 90 25
29 96 26
29 96 26
30 102 28
30 102 28
31 104 28
31 104 28
33 113 30
33 113 30
22 71 21
22 71 21
24 80 23
24 80 23
28 94 26
28 94 26
29 96 26
29 96 26
29 97 27
29 97 27
23 76 22
23 76 22
33 112 30
33 112 30
31 104 28
31 104 28
24 80 23
24 80 23
20 63 19
20 63 19
32 109 29
32 109 29
29 99 27
29 99 27
31 104 28
31 104 28
31 106 29
31 106 29
24 79 23
24 79 23
29 98 27
29 98 27
22 73 21
22 73 21
21 68 21
21 68 21
22 72 21
22 72 21
24 79 23
24 79 23
25 83 24
25 83 24
25 82 23
25 82 23
29 98 27
29 98 27
31 104 28
31 104 28
27 91 25
27 91 25
22 72 21
22 72 21
31 104 28
31 104 28
30 102 28
30 102 28
24 80 23
24 80 23
21 69 21
21 69 21
25 83 24
25 83 24
32 107 29
32 107 29
28 93 26
28 93 26
29 96 26
29 96 26
27 91 25
27 91 25
26 85 24
26 85 24
22 70 21
22 70 21
21 66 20
21 66 20
20 65 20
20 65 20
21 68 20
21 68 20
34 116 31
34 116 31
29 98 27
29 98 27
29 97 27
29 97 27
25 84 24
25 84 24
29 97 27
29 97 27
29 97 27
29 97 27
27 91 25
27 91 25
28 95 26
28 95 26
20 63 19
20 63 19
21 68 20
21 68 20
24 79 23
24 79 23
28 94 26
28 94 26
19 61 19
19 61 19
22 70 21
22 70 21
25 81 23
25 81 23
28 93 26
28 93 26
27 91 25
27 91 25
22 72 21
22 72 21
31 104 28
31 104 28
30 102 28
30 102 28
24 80 23
24 80 23
21 69 21
21 69 21
25 83 24
25 83 24
32 107 29
32 107 29
28 93 26
28 93 26
29 96 26
29 96 26
27 91 25
27 91 25
26 85 24
26 85 24
22 70 21
22 70 21
21 66 20
21 66 20
20 65 20
20 65 20
21 68 20
21 68 20
34 116 31
34 116 31
29 98 27
29 98 27
29 97 27
29 97 27
25 84 24
25 84 24
29 97 27
29 97 27
29 97 27
29 97 27
27 91 25
27 91 25
28 95 26
28 95 26
20 63 19
20 63 19
21 68 20
21 68 20
24 79 23
24 79 23
28 94 26
28 94 26
19 61 19
19 61 19
22 70 21
22 70 21
25 81 23
25 81 23
28 93 26
28 93 26
23 75 22
23 75 22
22 71 21
22 71 21
31 105 28
31 105 28
25 83 24
25 83 24
23 75 22
23 75 22
22 72 21
22 72 21
30 102 28
30 102 28
27 90 25
27 90 25
25 81 23
25 81 23
26 87 25
26 87 25
28 92 26
28 92 26
23 76 22
23 76 22
22 70 21
22 70 21
23 77 22
23 77 22
18 57 18
18 57 18
21 69 21
21 69 21
28 93 26
28 93 26
33 111 30
33 111 30
26 87 25
26 87 25
27 91 25
27 91 25
29 99 27
29 99 27
31 105 28
31 105 28
33 113 30
33 113 30
29 96 26
29 96 26
19 61 19
19 61 19
19 61 19
19 61 19
24 78 23
24 78 23
24 77 22
24 77 22
19 59 19
19 59 19
24 77 22
24 77 22
29 98 27
29 98 27
27 89 25
27 89 25
23 75 22
23 75 22
22 71 21
22 71 21
31 105 28
31 105 28
25 83 24
25 83 24
23 75 22
23 75 22
22 72 21
22 72 21
30 102 28
30 102 28
27 90 25
27 90 25
25 81 23
25 81 23
26 87 25
26 87 25
28 92 26
28 92 26
23 76 22
23 76 22
22 70 21
22 70 21
23 77 22
23 77 22
18 57 18
18 57 18
21 69 21
21 69 21
28 93 26
28 93 26
33 111 30
33 111 30
26 87 25
26 87 25
27 91 25
27 91 25
29 99 27
29 99 27
31 105 28
31 105 28
33 113 30
33 113 30
29 96 26
29 96 26
19 61 19
19 61 19
19 61 19
19 61 19
24 78 23
24 78 23
24 77 22
24 77 22
19 59 19
19 59 19
24 77 22
24 77 22
29 98 27
29 98 27
27 89 25
27 89 25
26 86 24
26 86 24
28 94 26
28 94 26
29 95 26
29 95 26
31 104 28
31 104 28
22 70 21
22 70 21
23 73 22
23 73 22
30 101 27
30 101 27
29 96 26
29 96 26
22 71 21
22 71 21
21 66 20
21 66 20
31 106 29
31 106 29
27 89 25
27 89 25
32 110 29
32 110 29
33 114 30
33 114 30
25 81 23
25 81 23
18 56 18
18 56 18
28 92 26
28 92 26
29 96 27
29 96 27
25 82 23
25 82 23
26 87 25
26 87 25
24 80 23
24 80 23
29 96 26
29 96 26
27 91 25
27 91 25
32 109 29
32 109 29
24 79 23
24 79 23
23 76 22
23 76 22
25 82 23
25 82 23
26 87 24
26 87 24
25 81 23
25 81 23
28 95 26
28 95 26
26 86 24
26 86 24
26 85 24
26 85 24
26 86 24
26 86 24
28 94 26
28 94 26
29 95 26
29 95 26
31 104 28
31 104 28
22 70 21
22 70 21
23 73 22
23 73 22
30 101 27
30 101 27
29 96 26
29 96 26
22 71 21
22 71 21
21 66 20
21 66 20
31 106 29
31 106 29
27 89 25
27 89 25
32 110 29
32 110 29
33 114 30
33 114 30
25 81 23
25 81 23
18 56 18
18 56 18
28 92 26
28 92 26
29 96 27
29 96 27
25 82 23
25 82 23
26 87 25
26 87 25
24 80 23
24 80 23
29 96 26
29 96 26
27 91 25
27 91 25
32 109 29
32 109 29
24 79 23
24 79 23
23 76 22
23 76 22
25 82 23
25 82 23
26 87 24
26 87 24
25 81 23
25 81 23
28 95 26
28 95 26
26 86 24
26 86 24
26 85 24
26 85 24
32 107 29
32 107 29
28 95 26
28 95 26
28 93 26
28 93 26
30 101 27
30 101 27
20 63 19
20 63 19
23 76 22
23 76 22
29 98 27
29 98 27
28 93 26
28 93 26
23 75 22
23 75 22
20 65 20
20 65 20
26 86 24
26 86 24
28 93 26
28 93 26
32 107 29
32 107 29
30 102 28
30 102 28
19 61 19
19 61 19
18 58 18
18 58 18
31 104 28
31 104 28
28 95 26
28 95 26
23 74 22
23 74 22
22 72 21
22 72 21
30 102 28
30 102 28
24 80 23
24 80 23
32 110 29
32 110 29
32 107 29
32 107 29
26 86 24
26 86 24
24 79 23
24 79 23
28 94 26
28 94 26
29 95 26
29 95 26
26 85 24
26 85 24
26 87 25
26 87 25
27 90 25
27 90 25
25 81 23
25 81 23
32 107 29
32 107 29
28 95 26
28 95 26
28 93 26
28 93 26
30 101 27
30 101 27
20 63 19
20 63 19
23 76 22
23 76 22
29 98 27
29 98 27
28 93 26
28 93 26
23 75 22
23 75 22
20 65 20
20 65 20
26 86 24
26 86 24
28 93 26
28 93 26
32 107 29
32 107 29
30 102 28
30 102 28
19 61 19
19 61 19
18 58 18
18 58 18
31 104 28
31 104 28
28 95 26
28 95 26
23 74 22
23 74 22
22 72 21
22 72 21
30 102 28
30 102 28
24 80 23
24 80 23
32 110 29
32 110 29
32 107 29
32 107 29
26 86 24
26 86 24
24 79 23
24 79 23
28 94 26
28 94 26
29 95 26
29 95 26
26 85 24
26 85 24
26 87 25
26 87 25
27 90 25
27 90 25
25 81 23
25 81 23
32 108 29
32 108 29
29 95 26
29 95 26
31 106 29
31 106 29
29 96 27
29 96 27
28 95 26
28 95 26
24 77 22
24 77 22
31 104 28
31 104 28
28 92 26
28 92 26
18 57 18
18 57 18
22 70 21
22 70 21
22 72 21
22 72 21
21 67 20
21 67 20
31 106 29
31 106 29
30 100 27
30 100 27
28 94 26
28 94 26
25 81 23
25 81 23
32 109 29
32 109 29
30 100 27
30 100 27
27 92 25
27 92 25
31 104 28
31 104 28
25 82 23
25 82 23
22 72 21
22 72 21
26 85 24
26 85 24
29 97 27
29 97 27
22 73 21
22 73 21
23 76 22
23 76 22
20 63 19
20 63 19
24 78 22
24 78 22
25 84 24
25 84 24
24 78 23
24 78 23
29 99 27
29 99 27
25 83 24
25 83 24
32 108 29
32 108 29
29 95 26
29 95 26
31 106 29
31 106 29
29 96 27
29 96 27
28 95 26
28 95 26
24 77 22
24 77 22
31 104 28
31 104 28
28 92 26
28 92 26
18 57 18
18 57 18
22 70 21
22 70 21
22 72 21
22 72 21
21 67 20
21 67 20
31 106 29
31 106 29
30 100 27
30 100 27
28 94 26
28 94 26
25 81 23
25 81 23
32 109 29
32 109 29
30 100 27
30 100 27
27 92 25
27 92 25
31 104 28
31 104 28
25 82 23
25 82 23
22 72 21
22 72 21
26 85 24
26 85 24
29 97 27
29 97 27
22 73 21
22 73 21
23 76 22
23 76 22
20 63 19
20 63 19
24 78 22
24 78 22
25 84 24
25 84 24
24 78 23
24 78 23
29 99 27
29 99 27
25 83 24
25 83 24
34 114 30
34 114 30
30 100 27
30 100 27
28 93 26
28 93 26
28 95 26
28 95 26
27 91 25
27 91 25
27 90 25
27 90 25
27 91 25
27 91 25
24 80 23
24 80 23
22 72 21
22 72 21
19 58 18
19 58 18
21 68 20
21 68 20
24 77 22
24 77 22
29 95 26
29 95 26
29 98 27
29 98 27
28 95 26
28 95 26
24 80 23
24 80 23
31 104 28
31 104 28
27 88 25
27 88 25
31 104 28
31 104 28
28 93 26
28 93 26
22 72 21
22 72 21
23 76 22
23 76 22
26 87 25
26 87 25
30 99 27
30 99 27
26 86 24
26 86 24
26 87 25
26 87 25
21 69 21
21 69 21
20 66 20
20 66 20
27 89 25
27 89 25
26 86 24
26 86 24
27 88 25
27 88 25
24 79 23
24 79 23
34 114 30
34 114 30
30 100 27
30 100 27
28 93 26
28 93 26
28 95 26
28 95 26
27 91 25
27 91 25
27 90 25
27 90 25
27 91 25
27 91 25
24 80 23
24 80 23
22 72 21
22 72 21
19 58 18
19 58 18
21 68 20
21 68 20
24 77 22
24 77 22
29 95 26
29 95 26
29 98 27
29 98 27
28 95 26
28 95 26
24 80 23
24 80 23
31 104 28
31 104 28
27 88 25
27 88 25
31 104 28
31 104 28
28 93 26
28 93 26
22 72 21
22 72 21
23 76 22
23 76 22
26 87 25
26 87 25
30 99 27
30 99 27
26 86 24
26 86 24
26 87 25
26 87 25
21 69 21
21 69 21
20 66 20
20 66 20
27 89 25
27 89 25
26 86 24
26 86 24
27 88 25
27 88 25
24 79 23
24 79 23
19 61 19
19 61 19
23 75 22
23 75 22
27 90 25
27 90 25
28 94 26
28 94 26
23 74 22
23 74 22
29 96 26
29 96 26
24 80 23
24 80 23
27 88 25
27 88 25
26 87 25
26 87 25
26 87 25
26 87 25
27 91 25
27 91 25
25 82 23
25 82 23
26 87 24
26 87 24
27 91 25
27 91 25
19 60 19
19 60 19
19 59 19
19 59 19
29 97 27
29 97 27
24 77 22
24 77 22
29 97 27
29 97 27
33 111 30
33 111 30
22 69 21
22 69 21
24 80 23
24 80 23
26 87 24
26 87 24
30 103 28
30 103 28
26 86 24
26 86 24
26 85 24
26 85 24
30 102 28
30 102 28
27 91 25
27 91 25
27 89 25
27 89 25
22 70 21
22 70 21
26 87 24
26 87 24
27 90 25
27 90 25
19 61 19
19 61 19
23 75 22
23 75 22
27 90 25
27 90 25
28 94 26
28 94 26
23 74 22
23 74 22
29 96 26
29 96 26
24 80 23
24 80 23
27 88 25
27 88 25
26 87 25
26 87 25
26 87 25
26 87 25
27 91 25
27 91 25
25 82 23
25 82 23
26 87 24
26 87 24
27 91 25
27 91 25
19 60 19
19 60 19
19 59 19
19 59 19
29 97 27
29 97 27
24 77 22
24 77 22
29 97 27
29 97 27
33 111 30
33 111 30
22 69 21
22 69 21
24 80 23
24 80 23
26 87 24
26 87 24
30 103 28
30 103 28
26 86 24
26 86 24
26 85 24
26 85 24
30 102 28
30 102 28
27 91 25
27 91 25
27 89 25
27 89 25
22 70 21
22 70 21
26 87 24
26 87 24
27 90 25
27 90 25
22 72 21
22 72 21
20 62 19
20 62 19
28 94 26
28 94 26
32 108 29
32 108 29
26 85 24
26 85 24
22 72 21
22 72 21
26 87 25
26 87 25
27 91 25
27 91 25
25 83 24
25 83 24
26 85 24
26 85 24
27 91 25
27 91 25
26 86 24
26 86 24
29 97 27
29 97 27
28 94 26
28 94 26
19 59 19
19 59 19
19 61 19
19 61 19
29 96 26
29 96 26
23 74 22
23 74 22
33 111 30
33 111 30
28 92 26
28 92 26
24 77 22
24 77 22
24 79 23
24 79 23
25 83 24
25 83 24
29 98 27
29 98 27
31 103 28
31 103 28
30 99 27
30 99 27
32 110 29
32 110 29
32 107 29
32 107 29
24 80 23
24 80 23
29 96 26
29 96 26
25 83 24
25 83 24
26 86 24
26 86 24
22 72 21
22 72 21
20 62 19
20 62 19
28 94 26
28 94 26
32 108 29
32 108 29
26 85 24
26 85 24
22 72 21
22 72 21
26 87 25
26 87 25
27 91 25
27 91 25
25 83 24
25 83 24
26 85 24
26 85 24
27 91 25
27 91 25
26 86 24
26 86 24
29 97 27
29 97 27
28 94 26
28 94 26
19 59 19
19 59 19
19 61 19
19 61 19
29 96 26
29 96 26
23 74 22
23 74 22
33 111 30
33 111 30
28 92 26
28 92 26
24 77 22
24 77 22
24 79 23
24 79 23
25 83 24
25 83 24
29 98 27
29 98 27
31 103 28
31 103 28
30 99 27
30 99 27
32 110 29
32 110 29
32 107 29
32 107 29
24 80 23
24 80 23
29 96 26
29 96 26
25 83 24
25 83 24
26 86 24
26 86 24
