P3
16 16
255
20 15 30
14 10 20
20 15 30
14 10 20
20 15 30
20 15 30
20 15 30
14 10 20
20 15 30
20 15 30
14 10 20
14 10 20
14 10 20
20 15 30
14 10 20
14 10 20
14 10 20
14 10 20
14 10 20
14 10 20
20 15 30
14 10 20
20 15 30
14 10 20
20 15 30
14 10 20
20 15 30
14 10 20
58 34 88
14 10 20
14 10 20
14 10 20
20 15 30
20 15 30
14 10 20
58 34 88
14 10 20
14 10 20
14 10 20
14 10 20
14 10 20
14 10 20
20 15 30
14 10 20
14 10 20
14 10 20
14 10 20
14 10 20
20 15 30
14 10 20
14 10 20
14 10 20
20 15 30
20 15 30
14 10 20
20 15 30
14 10 20
14 10 20
14 10 20
20 15 30
14 10 20
14 10 20
14 10 20
58 34 88
20 15 30
14 10 20
20 15 30
14 10 20
14 10 20
14 10 20
14 10 20
14 10 20
20 15 30
14 10 20
14 10 20
14 10 20
14 10 20
20 15 30
14 10 20
20 15 30
14 10 20
20 15 30
14 10 20
14 10 20
58 34 88
14 10 20
20 15 30
14 10 20
14 10 20
20 15 30
14 10 20
58 34 88
14 10 20
14 10 20
14 10 20
20 15 30
14 10 20
20 15 30
14 10 20
14 10 20
20 15 30
20 15 30
14 10 20
20 15 30
14 10 20
20 15 30
14 10 20
14 10 20
14 10 20
14 10 20
14 10 20
20 15 30
14 10 20
20 15 30
20 15 30
14 10 20
14 10 20
14 10 20
14 10 20
14 10 20
20 15 30
14 10 20
14 10 20
14 10 20
14 10 20
20 15 30
20 15 30
14 10 20
14 10 20
14 10 20
14 10 20
14 10 20
14 10 20
14 10 20
20 15 30
14 10 20
20 15 30
14 10 20
14 10 20
14 10 20
58 34 88
14 10 20
20 15 30
14 10 20
20 15 30
14 10 20
20 15 30
14 10 20
20 15 30
20 15 30
14 10 20
20 15 30
14 10 20
14 10 20
58 34 88
20 15 30
20 15 30
20 15 30
14 10 20
20 15 30
20 15 30
14 10 20
14 10 20
14 10 20
20 15 30
20 15 30
14 10 20
14 10 20
20 15 30
20 15 30
14 10 20
14 10 20
20 15 30
14 10 20
14 10 20
58 34 88
20 15 30
14 10 20
14 10 20
14 10 20
14 10 20
20 15 30
20 15 30
14 10 20
20 15 30
20 15 30
14 10 20
14 10 20
14 10 20
14 10 20
14 10 20
20 15 30
20 15 30
20 15 30
14 10 20
20 15 30
58 34 88
20 15 30
14 10 20
20 15 30
14 10 20
14 10 20
14 10 20
14 10 20
14 10 20
14 10 20
14 10 20
20 15 30
14 10 20
14 10 20
58 34 88
14 10 20
20 15 30
14 10 20
14 10 20
14 10 20
14 10 20
58 34 88
20 15 30
14 10 20
20 15 30
20 15 30
14 10 20
14 10 20
20 15 30
20 15 30
14 10 20
20 15 30
14 10 20
14 10 20
20 15 30
20 15 30
14 10 20
20 15 30
20 15 30
14 10 20
14 10 20
14 10 20
14 10 20
14 10 20
14 10 20
14 10 20
20 15 30
14 10 20
14 10 20
20 15 30
20 15 30
20 15 30
14 10 20
14 10 20
14 10 20
20 15 30
14 10 20
20 15 30
14 10 20
20 15 30
