P3
64 64
255
85 85 79
85 85 79
85 85 79
85 85 79
85 85 79
85 85 79
85 85 79
85 85 79
85 85 79
85 85 79
85 85 79
85 85 79
85 85 79
85 85 79
85 85 79
85 85 79
85 85 79
85 85 79
85 85 79
85 85 79
85 85 79
85 85 79
85 85 79
85 85 79
85 85 79
85 85 79
85 85 79
85 85 79
85 85 79
85 85 79
85 85 79
85 85 79
85 85 79
85 85 79
85 85 79
85 85 79
85 85 79
85 85 79
85 85 79
85 85 79
85 85 79
85 85 79
85 85 79
85 85 79
85 85 79
85 85 79
85 85 79
85 85 79
85 85 79
85 85 79
85 85 79
85 85 79
85 85 79
85 85 79
85 85 79
85 85 79
85 85 79
85 85 79
85 85 79
85 85 79
85 85 79
85 85 79
85 85 79
85 85 79
85 85 79
126 126 118
136 136 127
141 141 132
126 126 118
125 125 117
136 136 127
130 130 122
126 126 118
143 143 134
139 139 130
142 142 133
126 126 118
143 143 134
146 146 137
129 129 121
85 85 79
134 134 125
140 140 131
136 136 127
139 139 130
135 135 126
126 126 118
140 140 131
131 131 123
138 138 129
143 143 134
139 139 130
135 135 126
135 135 126
147 147 138
132 132 124
85 85 79
133 133 125
128 128 120
141 141 132
143 143 134
135 135 126
138 138 129
132 132 124
131 131 123
139 139 130
140 140 131
128 128 120
136 136 127
128 128 120
145 145 136
138 138 129
85 85 79
127 127 119
142 142 133
131 131 123
133 133 125
131 131 123
128 128 120
129 129 121
134 134 125
138 138 129
138 138 129
125 125 117
130 130 122
127 127 119
129 129 121
134 134 125
85 85 79
134 134 125
132 132 124
128 128 120
146 146 137
142 142 133
139 139 130
133 133 125
134 134 125
127 127 119
145 145 136
125 125 117
128 128 120
140 140 131
128 128 120
127 127 119
85 85 79
132 132 124
125 125 117
137 137 128
137 137 128
144 144 135
127 127 119
144 144 135
141 141 132
125 125 117
135 135 126
134 134 125
140 140 131
145 145 136
131 131 123
129 129 121
85 85 79
129 129 121
135 135 126
129 129 121
146 146 137
130 130 122
142 142 133
129 129 121
144 144 135
139 139 130
140 140 131
145 145 136
143 143 134
141 141 132
131 131 123
140 140 131
85 85 79
137 137 128
125 125 117
142 142 133
133 133 125
139 139 130
133 133 125
134 134 125
132 132 124
147 147 138
145 145 136
145 145 136
130 130 122
128 128 120
142 142 133
140 140 131
85 85 79
133 133 125
128 128 120
134 134 125
137 137 128
133 133 125
132 132 124
130 130 122
137 137 128
135 135 126
126 126 118
147 147 138
146 146 137
131 131 123
131 131 123
142 142 133
85 85 79
139 139 130
147 147 138
134 134 125
132 132 124
127 127 119
125 125 117
132 132 124
131 131 123
142 142 133
132 132 124
131 131 123
141 141 132
145 145 136
135 135 126
136 136 127
85 85 79
145 145 136
128 128 120
128 128 120
136 136 127
143 143 134
142 142 133
141 141 132
146 146 137
139 139 130
129 129 121
139 139 130
128 128 120
137 137 128
140 140 131
134 134 125
85 85 79
138 138 129
135 135 126
137 137 128
128 128 120
144 144 135
147 147 138
141 141 132
126 126 118
145 145 136
136 136 127
127 127 119
136 136 127
129 129 121
127 127 119
146 146 137
85 85 79
146 146 137
135 135 126
126 126 118
127 127 119
135 135 126
142 142 133
126 126 118
145 145 136
132 132 124
133 133 125
132 132 124
132 132 124
143 143 134
147 147 138
140 140 131
85 85 79
129 129 121
142 142 133
143 143 134
128 128 120
147 147 138
137 137 128
138 138 129
142 142 133
129 129 121
139 139 130
129 129 121
134 134 125
142 142 133
142 142 133
126 126 118
85 85 79
140 140 131
127 127 119
136 136 127
135 135 126
146 146 137
125 125 117
142 142 133
135 135 126
134 134 125
129 129 121
132 132 124
126 126 118
126 126 118
130 130 122
145 145 136
85 85 79
144 144 135
132 132 124
125 125 117
131 131 123
128 128 120
133 133 125
127 127 119
128 128 120
131 131 123
144 144 135
131 131 123
128 128 120
145 145 136
130 130 122
131 131 123
85 85 79
138 138 129
139 139 130
144 144 135
135 135 126
129 129 121
133 133 125
144 144 135
133 133 125
141 141 132
139 139 130
143 143 134
127 127 119
145 145 136
147 147 138
125 125 117
85 85 79
127 127 119
142 142 133
133 133 125
130 130 122
127 127 119
138 138 129
142 142 133
142 142 133
138 138 129
143 143 134
134 134 125
129 129 121
146 146 137
145 145 136
139 139 130
85 85 79
146 146 137
142 142 133
131 131 123
134 134 125
146 146 137
130 130 122
147 147 138
139 139 130
138 138 129
145 145 136
140 140 131
138 138 129
147 147 138
128 128 120
144 144 135
85 85 79
131 131 123
128 128 120
128 128 120
126 126 118
134 134 125
143 143 134
128 128 120
147 147 138
141 141 132
128 128 120
125 125 117
132 132 124
147 147 138
141 141 132
144 144 135
85 85 79
141 141 132
146 146 137
146 146 137
141 141 132
146 146 137
126 126 118
141 141 132
141 141 132
136 136 127
138 138 129
136 136 127
139 139 130
146 146 137
147 147 138
144 144 135
85 85 79
127 127 119
145 145 136
137 137 128
127 127 119
140 140 131
145 145 136
131 131 123
125 125 117
138 138 129
141 141 132
136 136 127
130 130 122
142 142 133
136 136 127
138 138 129
85 85 79
127 127 119
139 139 130
138 138 129
133 133 125
127 127 119
128 128 120
140 140 131
144 144 135
133 133 125
134 134 125
146 146 137
133 133 125
130 130 122
138 138 129
137 137 128
85 85 79
126 126 118
130 130 122
127 127 119
131 131 123
145 145 136
142 142 133
130 130 122
142 142 133
137 137 128
141 141 132
144 144 135
145 145 136
134 134 125
129 129 121
130 130 122
85 85 79
134 134 125
131 131 123
141 141 132
137 137 128
126 126 118
143 143 134
134 134 125
144 144 135
127 127 119
131 131 123
132 132 124
132 132 124
141 141 132
144 144 135
134 134 125
85 85 79
128 128 120
127 127 119
146 146 137
140 140 131
141 141 132
140 140 131
135 135 126
143 143 134
139 139 130
126 126 118
145 145 136
143 143 134
143 143 134
143 143 134
146 146 137
85 85 79
136 136 127
127 127 119
146 146 137
138 138 129
139 139 130
125 125 117
144 144 135
131 131 123
147 147 138
138 138 129
126 126 118
147 147 138
126 126 118
141 141 132
146 146 137
85 85 79
145 145 136
132 132 124
143 143 134
133 133 125
126 126 118
145 145 136
143 143 134
126 126 118
144 144 135
146 146 137
141 141 132
138 138 129
134 134 125
137 137 128
125 125 117
85 85 79
85 85 79
85 85 79
85 85 79
85 85 79
85 85 79
85 85 79
85 85 79
85 85 79
85 85 79
85 85 79
85 85 79
85 85 79
85 85 79
85 85 79
85 85 79
85 85 79
85 85 79
85 85 79
85 85 79
85 85 79
85 85 79
85 85 79
85 85 79
85 85 79
85 85 79
85 85 79
85 85 79
85 85 79
85 85 79
85 85 79
85 85 79
85 85 79
85 85 79
85 85 79
85 85 79
85 85 79
85 85 79
85 85 79
85 85 79
85 85 79
85 85 79
85 85 79
85 85 79
85 85 79
85 85 79
85 85 79
85 85 79
85 85 79
85 85 79
85 85 79
85 85 79
85 85 79
85 85 79
85 85 79
85 85 79
85 85 79
85 85 79
85 85 79
85 85 79
85 85 79
85 85 79
85 85 79
85 85 79
137 137 128
134 134 125
137 137 128
139 139 130
136 136 127
135 135 126
142 142 133
131 131 123
85 85 79
140 140 131
135 135 126
144 144 135
144 144 135
127 127 119
137 137 128
137 137 128
145 145 136
145 145 136
131 131 123
125 125 117
132 132 124
143 143 134
131 131 123
131 131 123
85 85 79
141 141 132
143 143 134
143 143 134
125 125 117
147 147 138
138 138 129
136 136 127
130 130 122
146 146 137
125 125 117
141 141 132
140 140 131
144 144 135
130 130 122
134 134 125
85 85 79
146 146 137
135 135 126
143 143 134
133 133 125
136 136 127
144 144 135
147 147 138
139 139 130
145 145 136
132 132 124
141 141 132
128 128 120
126 126 118
131 131 123
139 139 130
85 85 79
142 142 133
143 143 134
138 138 129
133 133 125
143 143 134
136 136 127
130 130 122
135 135 126
138 138 129
141 141 132
144 144 135
132 132 124
125 125 117
135 135 126
134 134 125
85 85 79
146 146 137
141 141 132
131 131 123
130 130 122
125 125 117
134 134 125
133 133 125
142 142 133
135 135 126
137 137 128
132 132 124
142 142 133
136 136 127
137 137 128
127 127 119
85 85 79
140 140 131
143 143 134
134 134 125
127 127 119
133 133 125
126 126 118
131 131 123
129 129 121
125 125 117
132 132 124
133 133 125
145 145 136
143 143 134
128 128 120
137 137 128
85 85 79
142 142 133
140 140 131
141 141 132
137 137 128
138 138 129
125 125 117
133 133 125
127 127 119
146 146 137
141 141 132
129 129 121
139 139 130
129 129 121
141 141 132
127 127 119
85 85 79
139 139 130
135 135 126
142 142 133
133 133 125
138 138 129
145 145 136
135 135 126
142 142 133
128 128 120
145 145 136
134 134 125
137 137 128
134 134 125
144 144 135
135 135 126
85 85 79
127 127 119
134 134 125
134 134 125
142 142 133
133 133 125
136 136 127
128 128 120
135 135 126
146 146 137
133 133 125
138 138 129
137 137 128
127 127 119
145 145 136
143 143 134
85 85 79
139 139 130
125 125 117
145 145 136
140 140 131
132 132 124
136 136 127
140 140 131
139 139 130
136 136 127
130 130 122
145 145 136
128 128 120
142 142 133
132 132 124
127 127 119
85 85 79
138 138 129
138 138 129
146 146 137
133 133 125
125 125 117
125 125 117
127 127 119
132 132 124
140 140 131
126 126 118
141 141 132
129 129 121
127 127 119
140 140 131
144 144 135
85 85 79
133 133 125
139 139 130
141 141 132
128 128 120
134 134 125
126 126 118
133 133 125
139 139 130
129 129 121
143 143 134
144 144 135
129 129 121
144 144 135
146 146 137
138 138 129
85 85 79
130 130 122
128 128 120
135 135 126
125 125 117
140 140 131
137 137 128
129 129 121
134 134 125
127 127 119
131 131 123
128 128 120
145 145 136
136 136 127
134 134 125
140 140 131
85 85 79
134 134 125
134 134 125
138 138 129
140 140 131
135 135 126
133 133 125
146 146 137
140 140 131
141 141 132
138 138 129
130 130 122
133 133 125
130 130 122
134 134 125
133 133 125
85 85 79
131 131 123
145 145 136
130 130 122
144 144 135
146 146 137
145 145 136
133 133 125
128 128 120
130 130 122
146 146 137
143 143 134
140 140 131
143 143 134
141 141 132
144 144 135
85 85 79
140 140 131
131 131 123
145 145 136
138 138 129
139 139 130
139 139 130
137 137 128
146 146 137
128 128 120
135 135 126
145 145 136
145 145 136
129 129 121
131 131 123
130 130 122
85 85 79
140 140 131
131 131 123
136 136 127
132 132 124
127 127 119
130 130 122
126 126 118
134 134 125
132 132 124
132 132 124
134 134 125
146 146 137
141 141 132
134 134 125
129 129 121
85 85 79
139 139 130
133 133 125
132 132 124
142 142 133
141 141 132
142 142 133
140 140 131
127 127 119
130 130 122
125 125 117
142 142 133
143 143 134
125 125 117
145 145 136
132 132 124
85 85 79
125 125 117
139 139 130
130 130 122
146 146 137
141 141 132
137 137 128
144 144 135
134 134 125
128 128 120
142 142 133
128 128 120
143 143 134
142 142 133
129 129 121
133 133 125
85 85 79
140 140 131
125 125 117
128 128 120
137 137 128
127 127 119
143 143 134
144 144 135
133 133 125
129 129 121
142 142 133
131 131 123
127 127 119
146 146 137
135 135 126
126 126 118
85 85 79
134 134 125
128 128 120
128 128 120
143 143 134
139 139 130
134 134 125
128 128 120
142 142 133
130 130 122
130 130 122
144 144 135
128 128 120
142 142 133
141 141 132
129 129 121
85 85 79
143 143 134
131 131 123
144 144 135
144 144 135
131 131 123
142 142 133
139 139 130
145 145 136
143 143 134
141 141 132
140 140 131
146 146 137
136 136 127
125 125 117
128 128 120
85 85 79
144 144 135
132 132 124
138 138 129
137 137 128
125 125 117
136 136 127
145 145 136
129 129 121
133 133 125
128 128 120
130 130 122
137 137 128
144 144 135
139 139 130
128 128 120
85 85 79
137 137 128
137 137 128
134 134 125
139 139 130
133 133 125
127 127 119
125 125 117
125 125 117
141 141 132
141 141 132
143 143 134
125 125 117
142 142 133
126 126 118
136 136 127
85 85 79
142 142 133
133 133 125
136 136 127
138 138 129
147 147 138
133 133 125
142 142 133
126 126 118
127 127 119
137 137 128
132 132 124
139 139 130
145 145 136
145 145 136
127 127 119
85 85 79
128 128 120
134 134 125
146 146 137
135 135 126
126 126 118
132 132 124
136 136 127
134 134 125
132 132 124
142 142 133
140 140 131
141 141 132
144 144 135
132 132 124
131 131 123
85 85 79
143 143 134
141 141 132
127 127 119
133 133 125
129 129 121
141 141 132
135 135 126
126 126 118
145 145 136
144 144 135
134 134 125
146 146 137
144 144 135
130 130 122
144 144 135
85 85 79
147 147 138
125 125 117
140 140 131
132 132 124
140 140 131
127 127 119
131 131 123
85 85 79
85 85 79
85 85 79
85 85 79
85 85 79
85 85 79
85 85 79
85 85 79
85 85 79
85 85 79
85 85 79
85 85 79
85 85 79
85 85 79
85 85 79
85 85 79
85 85 79
85 85 79
85 85 79
85 85 79
85 85 79
85 85 79
85 85 79
85 85 79
85 85 79
85 85 79
85 85 79
85 85 79
85 85 79
85 85 79
85 85 79
85 85 79
85 85 79
85 85 79
85 85 79
85 85 79
85 85 79
85 85 79
85 85 79
85 85 79
85 85 79
85 85 79
85 85 79
85 85 79
85 85 79
85 85 79
85 85 79
85 85 79
85 85 79
85 85 79
85 85 79
85 85 79
85 85 79
85 85 79
85 85 79
85 85 79
85 85 79
85 85 79
85 85 79
85 85 79
85 85 79
85 85 79
85 85 79
85 85 79
85 85 79
125 125 117
143 143 134
140 140 131
130 130 122
140 140 131
144 144 135
138 138 129
133 133 125
126 126 118
136 136 127
140 140 131
129 129 121
125 125 117
125 125 117
132 132 124
85 85 79
138 138 129
135 135 126
137 137 128
129 129 121
131 131 123
139 139 130
147 147 138
145 145 136
128 128 120
126 126 118
127 127 119
146 146 137
131 131 123
128 128 120
140 140 131
85 85 79
146 146 137
135 135 126
134 134 125
130 130 122
136 136 127
138 138 129
130 130 122
127 127 119
131 131 123
133 133 125
127 127 119
139 139 130
141 141 132
135 135 126
135 135 126
85 85 79
139 139 130
132 132 124
127 127 119
128 128 120
125 125 117
146 146 137
146 146 137
129 129 121
134 134 125
144 144 135
129 129 121
135 135 126
127 127 119
143 143 134
140 140 131
85 85 79
130 130 122
136 136 127
147 147 138
144 144 135
140 140 131
128 128 120
141 141 132
128 128 120
135 135 126
140 140 131
127 127 119
142 142 133
144 144 135
146 146 137
134 134 125
85 85 79
147 147 138
130 130 122
130 130 122
130 130 122
134 134 125
142 142 133
125 125 117
130 130 122
125 125 117
140 140 131
125 125 117
131 131 123
136 136 127
131 131 123
141 141 132
85 85 79
133 133 125
140 140 131
133 133 125
146 146 137
143 143 134
138 138 129
132 132 124
142 142 133
138 138 129
136 136 127
132 132 124
135 135 126
144 144 135
130 130 122
141 141 132
85 85 79
129 129 121
144 144 135
141 141 132
142 142 133
143 143 134
135 135 126
132 132 124
138 138 129
126 126 118
130 130 122
132 132 124
134 134 125
131 131 123
138 138 129
136 136 127
85 85 79
125 125 117
131 131 123
143 143 134
130 130 122
141 141 132
136 136 127
146 146 137
129 129 121
125 125 117
130 130 122
129 129 121
143 143 134
133 133 125
141 141 132
145 145 136
85 85 79
144 144 135
144 144 135
140 140 131
140 140 131
147 147 138
146 146 137
135 135 126
137 137 128
141 141 132
142 142 133
146 146 137
133 133 125
128 128 120
128 128 120
128 128 120
85 85 79
129 129 121
145 145 136
129 129 121
138 138 129
129 129 121
142 142 133
146 146 137
147 147 138
125 125 117
137 137 128
133 133 125
132 132 124
147 147 138
129 129 121
130 130 122
85 85 79
131 131 123
134 134 125
132 132 124
128 128 120
146 146 137
131 131 123
133 133 125
142 142 133
146 146 137
127 127 119
135 135 126
142 142 133
131 131 123
141 141 132
133 133 125
85 85 79
137 137 128
127 127 119
137 137 128
132 132 124
143 143 134
136 136 127
138 138 129
130 130 122
141 141 132
128 128 120
130 130 122
139 139 130
144 144 135
139 139 130
132 132 124
85 85 79
128 128 120
140 140 131
127 127 119
137 137 128
142 142 133
138 138 129
130 130 122
128 128 120
145 145 136
130 130 122
138 138 129
133 133 125
136 136 127
127 127 119
139 139 130
85 85 79
140 140 131
136 136 127
128 128 120
139 139 130
133 133 125
145 145 136
134 134 125
139 139 130
132 132 124
140 140 131
125 125 117
142 142 133
128 128 120
125 125 117
135 135 126
85 85 79
137 137 128
132 132 124
127 127 119
138 138 129
129 129 121
144 144 135
139 139 130
125 125 117
140 140 131
138 138 129
131 131 123
143 143 134
142 142 133
130 130 122
131 131 123
85 85 79
138 138 129
125 125 117
134 134 125
130 130 122
128 128 120
127 127 119
133 133 125
136 136 127
136 136 127
127 127 119
144 144 135
136 136 127
138 138 129
128 128 120
127 127 119
85 85 79
139 139 130
132 132 124
137 137 128
140 140 131
130 130 122
134 134 125
143 143 134
138 138 129
144 144 135
138 138 129
135 135 126
139 139 130
142 142 133
133 133 125
138 138 129
85 85 79
131 131 123
141 141 132
129 129 121
137 137 128
138 138 129
126 126 118
130 130 122
139 139 130
137 137 128
141 141 132
143 143 134
146 146 137
143 143 134
138 138 129
138 138 129
85 85 79
140 140 131
147 147 138
136 136 127
129 129 121
142 142 133
142 142 133
134 134 125
146 146 137
133 133 125
132 132 124
137 137 128
133 133 125
138 138 129
140 140 131
143 143 134
85 85 79
134 134 125
144 144 135
125 125 117
132 132 124
127 127 119
128 128 120
141 141 132
138 138 129
143 143 134
138 138 129
132 132 124
139 139 130
143 143 134
130 130 122
133 133 125
85 85 79
129 129 121
138 138 129
133 133 125
144 144 135
128 128 120
136 136 127
133 133 125
141 141 132
139 139 130
130 130 122
129 129 121
143 143 134
132 132 124
145 145 136
129 129 121
85 85 79
140 140 131
127 127 119
125 125 117
126 126 118
140 140 131
130 130 122
132 132 124
133 133 125
143 143 134
136 136 127
140 140 131
135 135 126
138 138 129
137 137 128
142 142 133
85 85 79
130 130 122
140 140 131
126 126 118
147 147 138
142 142 133
125 125 117
139 139 130
126 126 118
136 136 127
127 127 119
145 145 136
142 142 133
129 129 121
125 125 117
137 137 128
85 85 79
133 133 125
137 137 128
129 129 121
144 144 135
132 132 124
138 138 129
133 133 125
132 132 124
139 139 130
141 141 132
130 130 122
139 139 130
140 140 131
136 136 127
138 138 129
85 85 79
140 140 131
126 126 118
141 141 132
130 130 122
137 137 128
144 144 135
132 132 124
131 131 123
127 127 119
136 136 127
129 129 121
135 135 126
137 137 128
131 131 123
126 126 118
85 85 79
137 137 128
135 135 126
139 139 130
142 142 133
129 129 121
129 129 121
138 138 129
126 126 118
132 132 124
145 145 136
139 139 130
143 143 134
146 146 137
134 134 125
143 143 134
85 85 79
131 131 123
143 143 134
137 137 128
143 143 134
131 131 123
146 146 137
129 129 121
140 140 131
146 146 137
144 144 135
136 136 127
137 137 128
133 133 125
136 136 127
135 135 126
85 85 79
85 85 79
85 85 79
85 85 79
85 85 79
85 85 79
85 85 79
85 85 79
85 85 79
85 85 79
85 85 79
85 85 79
85 85 79
85 85 79
85 85 79
85 85 79
85 85 79
85 85 79
85 85 79
85 85 79
85 85 79
85 85 79
85 85 79
85 85 79
85 85 79
85 85 79
85 85 79
85 85 79
85 85 79
85 85 79
85 85 79
85 85 79
85 85 79
85 85 79
85 85 79
85 85 79
85 85 79
85 85 79
85 85 79
85 85 79
85 85 79
85 85 79
85 85 79
85 85 79
85 85 79
85 85 79
85 85 79
85 85 79
85 85 79
85 85 79
85 85 79
85 85 79
85 85 79
85 85 79
85 85 79
85 85 79
85 85 79
85 85 79
85 85 79
85 85 79
85 85 79
85 85 79
85 85 79
85 85 79
144 144 135
132 132 124
138 138 129
136 136 127
135 135 126
132 132 124
126 126 118
128 128 120
85 85 79
133 133 125
132 132 124
146 146 137
137 137 128
146 146 137
129 129 121
143 143 134
127 127 119
132 132 124
135 135 126
126 126 118
143 143 134
137 137 128
146 146 137
147 147 138
85 85 79
138 138 129
142 142 133
128 128 120
127 127 119
130 130 122
129 129 121
129 129 121
133 133 125
147 147 138
141 141 132
145 145 136
143 143 134
138 138 129
138 138 129
131 131 123
85 85 79
141 141 132
145 145 136
128 128 120
143 143 134
143 143 134
134 134 125
144 144 135
144 144 135
129 129 121
141 141 132
142 142 133
137 137 128
129 129 121
129 129 121
135 135 126
85 85 79
137 137 128
128 128 120
140 140 131
131 131 123
143 143 134
134 134 125
144 144 135
137 137 128
134 134 125
143 143 134
145 145 136
146 146 137
137 137 128
126 126 118
127 127 119
85 85 79
127 127 119
146 146 137
141 141 132
129 129 121
142 142 133
125 125 117
130 130 122
133 133 125
129 129 121
128 128 120
125 125 117
142 142 133
143 143 134
125 125 117
138 138 129
85 85 79
126 126 118
125 125 117
143 143 134
140 140 131
133 133 125
130 130 122
146 146 137
145 145 136
142 142 133
144 144 135
146 146 137
144 144 135
136 136 127
129 129 121
139 139 130
85 85 79
125 125 117
130 130 122
145 145 136
133 133 125
134 134 125
143 143 134
127 127 119
136 136 127
133 133 125
140 140 131
143 143 134
144 144 135
138 138 129
127 127 119
144 144 135
85 85 79
138 138 129
143 143 134
139 139 130
143 143 134
126 126 118
139 139 130
126 126 118
133 133 125
141 141 132
136 136 127
143 143 134
142 142 133
128 128 120
136 136 127
133 133 125
85 85 79
140 140 131
131 131 123
137 137 128
143 143 134
127 127 119
129 129 121
135 135 126
139 139 130
126 126 118
125 125 117
136 136 127
129 129 121
138 138 129
146 146 137
131 131 123
85 85 79
136 136 127
136 136 127
132 132 124
133 133 125
129 129 121
127 127 119
136 136 127
125 125 117
138 138 129
145 145 136
138 138 129
139 139 130
145 145 136
143 143 134
128 128 120
85 85 79
127 127 119
146 146 137
144 144 135
137 137 128
138 138 129
145 145 136
125 125 117
138 138 129
147 147 138
141 141 132
142 142 133
127 127 119
135 135 126
134 134 125
140 140 131
85 85 79
144 144 135
147 147 138
142 142 133
129 129 121
128 128 120
134 134 125
130 130 122
142 142 133
141 141 132
144 144 135
145 145 136
133 133 125
145 145 136
125 125 117
144 144 135
85 85 79
126 126 118
129 129 121
135 135 126
132 132 124
146 146 137
130 130 122
146 146 137
133 133 125
140 140 131
143 143 134
145 145 136
146 146 137
134 134 125
143 143 134
144 144 135
85 85 79
143 143 134
126 126 118
136 136 127
144 144 135
125 125 117
146 146 137
142 142 133
130 130 122
126 126 118
136 136 127
142 142 133
141 141 132
125 125 117
146 146 137
137 137 128
85 85 79
144 144 135
138 138 129
127 127 119
131 131 123
125 125 117
146 146 137
133 133 125
143 143 134
139 139 130
130 130 122
134 134 125
128 128 120
138 138 129
128 128 120
132 132 124
85 85 79
132 132 124
136 136 127
132 132 124
142 142 133
139 139 130
131 131 123
129 129 121
142 142 133
136 136 127
128 128 120
132 132 124
140 140 131
145 145 136
131 131 123
141 141 132
85 85 79
131 131 123
126 126 118
129 129 121
137 137 128
145 145 136
127 127 119
146 146 137
129 129 121
128 128 120
134 134 125
141 141 132
135 135 126
147 147 138
131 131 123
145 145 136
85 85 79
125 125 117
128 128 120
145 145 136
127 127 119
137 137 128
129 129 121
139 139 130
140 140 131
133 133 125
135 135 126
138 138 129
140 140 131
130 130 122
146 146 137
138 138 129
85 85 79
135 135 126
138 138 129
134 134 125
146 146 137
138 138 129
139 139 130
129 129 121
141 141 132
133 133 125
143 143 134
135 135 126
133 133 125
146 146 137
135 135 126
135 135 126
85 85 79
133 133 125
130 130 122
146 146 137
147 147 138
138 138 129
129 129 121
143 143 134
146 146 137
126 126 118
145 145 136
143 143 134
130 130 122
134 134 125
135 135 126
147 147 138
85 85 79
134 134 125
125 125 117
127 127 119
135 135 126
138 138 129
142 142 133
129 129 121
126 126 118
141 141 132
133 133 125
142 142 133
128 128 120
128 128 120
145 145 136
125 125 117
85 85 79
141 141 132
137 137 128
146 146 137
130 130 122
139 139 130
141 141 132
134 134 125
141 141 132
139 139 130
132 132 124
134 134 125
131 131 123
126 126 118
142 142 133
136 136 127
85 85 79
146 146 137
140 140 131
140 140 131
128 128 120
133 133 125
129 129 121
135 135 126
146 146 137
131 131 123
147 147 138
146 146 137
141 141 132
147 147 138
129 129 121
147 147 138
85 85 79
146 146 137
139 139 130
130 130 122
146 146 137
140 140 131
137 137 128
142 142 133
143 143 134
129 129 121
143 143 134
143 143 134
141 141 132
138 138 129
126 126 118
145 145 136
85 85 79
134 134 125
143 143 134
135 135 126
142 142 133
146 146 137
126 126 118
134 134 125
141 141 132
144 144 135
141 141 132
145 145 136
135 135 126
147 147 138
145 145 136
138 138 129
85 85 79
138 138 129
137 137 128
145 145 136
140 140 131
134 134 125
139 139 130
137 137 128
134 134 125
145 145 136
141 141 132
132 132 124
133 133 125
128 128 120
136 136 127
138 138 129
85 85 79
129 129 121
134 134 125
128 128 120
138 138 129
135 135 126
130 130 122
141 141 132
128 128 120
133 133 125
146 146 137
130 130 122
143 143 134
138 138 129
144 144 135
142 142 133
85 85 79
132 132 124
141 141 132
138 138 129
137 137 128
129 129 121
134 134 125
136 136 127
85 85 79
85 85 79
85 85 79
85 85 79
85 85 79
85 85 79
85 85 79
85 85 79
85 85 79
85 85 79
85 85 79
85 85 79
85 85 79
85 85 79
85 85 79
85 85 79
85 85 79
85 85 79
85 85 79
85 85 79
85 85 79
85 85 79
85 85 79
85 85 79
85 85 79
85 85 79
85 85 79
85 85 79
85 85 79
85 85 79
85 85 79
85 85 79
85 85 79
85 85 79
85 85 79
85 85 79
85 85 79
85 85 79
85 85 79
85 85 79
85 85 79
85 85 79
85 85 79
85 85 79
85 85 79
85 85 79
85 85 79
85 85 79
85 85 79
85 85 79
85 85 79
85 85 79
85 85 79
85 85 79
85 85 79
85 85 79
85 85 79
85 85 79
85 85 79
85 85 79
85 85 79
85 85 79
85 85 79
85 85 79
85 85 79
132 132 124
147 147 138
140 140 131
147 147 138
144 144 135
142 142 133
141 141 132
125 125 117
129 129 121
139 139 130
146 146 137
130 130 122
137 137 128
132 132 124
132 132 124
85 85 79
140 140 131
147 147 138
144 144 135
142 142 133
134 134 125
134 134 125
141 141 132
134 134 125
129 129 121
129 129 121
137 137 128
144 144 135
147 147 138
147 147 138
127 127 119
85 85 79
127 127 119
141 141 132
137 137 128
129 129 121
142 142 133
129 129 121
136 136 127
125 125 117
131 131 123
136 136 127
126 126 118
126 126 118
145 145 136
126 126 118
126 126 118
85 85 79
141 141 132
137 137 128
130 130 122
137 137 128
146 146 137
146 146 137
126 126 118
138 138 129
132 132 124
145 145 136
125 125 117
143 143 134
125 125 117
125 125 117
143 143 134
85 85 79
137 137 128
146 146 137
141 141 132
135 135 126
136 136 127
132 132 124
131 131 123
140 140 131
146 146 137
140 140 131
135 135 126
134 134 125
134 134 125
147 147 138
134 134 125
85 85 79
143 143 134
126 126 118
132 132 124
125 125 117
125 125 117
125 125 117
127 127 119
142 142 133
136 136 127
128 128 120
127 127 119
131 131 123
128 128 120
125 125 117
141 141 132
85 85 79
125 125 117
143 143 134
137 137 128
128 128 120
132 132 124
139 139 130
125 125 117
144 144 135
128 128 120
132 132 124
135 135 126
131 131 123
133 133 125
141 141 132
138 138 129
85 85 79
146 146 137
146 146 137
131 131 123
145 145 136
126 126 118
128 128 120
140 140 131
132 132 124
129 129 121
138 138 129
139 139 130
127 127 119
138 138 129
139 139 130
145 145 136
85 85 79
130 130 122
135 135 126
135 135 126
139 139 130
126 126 118
137 137 128
125 125 117
147 147 138
130 130 122
143 143 134
138 138 129
130 130 122
136 136 127
142 142 133
132 132 124
85 85 79
130 130 122
140 140 131
141 141 132
141 141 132
146 146 137
133 133 125
141 141 132
135 135 126
146 146 137
130 130 122
135 135 126
143 143 134
140 140 131
125 125 117
141 141 132
85 85 79
128 128 120
134 134 125
146 146 137
127 127 119
138 138 129
144 144 135
126 126 118
132 132 124
137 137 128
139 139 130
141 141 132
135 135 126
144 144 135
134 134 125
142 142 133
85 85 79
145 145 136
139 139 130
129 129 121
127 127 119
127 127 119
140 140 131
130 130 122
146 146 137
131 131 123
139 139 130
131 131 123
145 145 136
144 144 135
133 133 125
139 139 130
85 85 79
147 147 138
143 143 134
135 135 126
125 125 117
134 134 125
139 139 130
126 126 118
133 133 125
132 132 124
125 125 117
139 139 130
128 128 120
132 132 124
143 143 134
132 132 124
85 85 79
143 143 134
146 146 137
144 144 135
126 126 118
140 140 131
125 125 117
131 131 123
139 139 130
140 140 131
127 127 119
146 146 137
134 134 125
133 133 125
142 142 133
144 144 135
85 85 79
127 127 119
138 138 129
131 131 123
143 143 134
145 145 136
126 126 118
127 127 119
137 137 128
145 145 136
127 127 119
138 138 129
134 134 125
135 135 126
129 129 121
129 129 121
85 85 79
143 143 134
140 140 131
141 141 132
140 140 131
128 128 120
127 127 119
139 139 130
145 145 136
138 138 129
138 138 129
126 126 118
140 140 131
142 142 133
133 133 125
125 125 117
85 85 79
137 137 128
145 145 136
142 142 133
131 131 123
147 147 138
140 140 131
133 133 125
125 125 117
141 141 132
143 143 134
135 135 126
126 126 118
134 134 125
133 133 125
131 131 123
85 85 79
139 139 130
143 143 134
135 135 126
130 130 122
127 127 119
133 133 125
143 143 134
126 126 118
130 130 122
139 139 130
145 145 136
142 142 133
145 145 136
126 126 118
126 126 118
85 85 79
129 129 121
145 145 136
142 142 133
142 142 133
145 145 136
126 126 118
133 133 125
131 131 123
146 146 137
142 142 133
137 137 128
137 137 128
143 143 134
136 136 127
132 132 124
85 85 79
140 140 131
136 136 127
126 126 118
133 133 125
144 144 135
133 133 125
135 135 126
128 128 120
142 142 133
138 138 129
146 146 137
140 140 131
126 126 118
127 127 119
132 132 124
85 85 79
131 131 123
128 128 120
126 126 118
139 139 130
145 145 136
135 135 126
136 136 127
131 131 123
125 125 117
127 127 119
137 137 128
126 126 118
137 137 128
133 133 125
145 145 136
85 85 79
144 144 135
146 146 137
144 144 135
134 134 125
125 125 117
132 132 124
141 141 132
129 129 121
126 126 118
130 130 122
128 128 120
142 142 133
145 145 136
135 135 126
125 125 117
85 85 79
140 140 131
132 132 124
128 128 120
134 134 125
143 143 134
143 143 134
129 129 121
128 128 120
128 128 120
132 132 124
140 140 131
139 139 130
125 125 117
128 128 120
138 138 129
85 85 79
146 146 137
129 129 121
139 139 130
126 126 118
127 127 119
138 138 129
132 132 124
133 133 125
132 132 124
131 131 123
139 139 130
140 140 131
144 144 135
133 133 125
129 129 121
85 85 79
143 143 134
139 139 130
146 146 137
144 144 135
133 133 125
126 126 118
128 128 120
128 128 120
138 138 129
143 143 134
130 130 122
135 135 126
138 138 129
131 131 123
127 127 119
85 85 79
127 127 119
135 135 126
126 126 118
141 141 132
127 127 119
130 130 122
132 132 124
140 140 131
135 135 126
134 134 125
133 133 125
127 127 119
129 129 121
134 134 125
143 143 134
85 85 79
137 137 128
135 135 126
129 129 121
140 140 131
146 146 137
131 131 123
131 131 123
138 138 129
130 130 122
126 126 118
125 125 117
142 142 133
143 143 134
132 132 124
134 134 125
85 85 79
138 138 129
129 129 121
143 143 134
145 145 136
147 147 138
143 143 134
135 135 126
125 125 117
144 144 135
145 145 136
131 131 123
131 131 123
126 126 118
132 132 124
129 129 121
85 85 79
85 85 79
85 85 79
85 85 79
85 85 79
85 85 79
85 85 79
85 85 79
85 85 79
85 85 79
85 85 79
85 85 79
85 85 79
85 85 79
85 85 79
85 85 79
85 85 79
85 85 79
85 85 79
85 85 79
85 85 79
85 85 79
85 85 79
85 85 79
85 85 79
85 85 79
85 85 79
85 85 79
85 85 79
85 85 79
85 85 79
85 85 79
85 85 79
85 85 79
85 85 79
85 85 79
85 85 79
85 85 79
85 85 79
85 85 79
85 85 79
85 85 79
85 85 79
85 85 79
85 85 79
85 85 79
85 85 79
85 85 79
85 85 79
85 85 79
85 85 79
85 85 79
85 85 79
85 85 79
85 85 79
85 85 79
85 85 79
85 85 79
85 85 79
85 85 79
85 85 79
85 85 79
85 85 79
85 85 79
141 141 132
139 139 130
126 126 118
133 133 125
139 139 130
135 135 126
143 143 134
143 143 134
85 85 79
135 135 126
129 129 121
147 147 138
140 140 131
132 132 124
134 134 125
139 139 130
129 129 121
129 129 121
140 140 131
146 146 137
136 136 127
147 147 138
130 130 122
146 146 137
85 85 79
140 140 131
143 143 134
137 137 128
145 145 136
137 137 128
136 136 127
130 130 122
125 125 117
134 134 125
126 126 118
132 132 124
125 125 117
127 127 119
137 137 128
135 135 126
85 85 79
138 138 129
144 144 135
146 146 137
126 126 118
131 131 123
130 130 122
133 133 125
132 132 124
144 144 135
143 143 134
133 133 125
144 144 135
134 134 125
126 126 118
130 130 122
85 85 79
134 134 125
136 136 127
142 142 133
141 141 132
136 136 127
141 141 132
144 144 135
125 125 117
131 131 123
126 126 118
130 130 122
141 141 132
142 142 133
147 147 138
145 145 136
85 85 79
132 132 124
130 130 122
136 136 127
145 145 136
133 133 125
134 134 125
143 143 134
134 134 125
126 126 118
140 140 131
133 133 125
136 136 127
137 137 128
143 143 134
128 128 120
85 85 79
127 127 119
146 146 137
147 147 138
132 132 124
125 125 117
130 130 122
134 134 125
145 145 136
146 146 137
128 128 120
126 126 118
143 143 134
134 134 125
147 147 138
127 127 119
85 85 79
141 141 132
142 142 133
146 146 137
136 136 127
136 136 127
128 128 120
127 127 119
127 127 119
128 128 120
136 136 127
145 145 136
125 125 117
133 133 125
140 140 131
132 132 124
85 85 79
143 143 134
143 143 134
129 129 121
129 129 121
144 144 135
145 145 136
133 133 125
141 141 132
137 137 128
142 142 133
146 146 137
141 141 132
127 127 119
140 140 131
129 129 121
85 85 79
143 143 134
142 142 133
141 141 132
143 143 134
129 129 121
128 128 120
134 134 125
146 146 137
125 125 117
138 138 129
136 136 127
125 125 117
143 143 134
133 133 125
129 129 121
85 85 79
146 146 137
135 135 126
145 145 136
145 145 136
141 141 132
138 138 129
130 130 122
126 126 118
139 139 130
134 134 125
125 125 117
143 143 134
130 130 122
136 136 127
139 139 130
85 85 79
139 139 130
132 132 124
134 134 125
128 128 120
142 142 133
137 137 128
138 138 129
145 145 136
128 128 120
130 130 122
139 139 130
144 144 135
130 130 122
134 134 125
142 142 133
85 85 79
143 143 134
133 133 125
134 134 125
146 146 137
141 141 132
140 140 131
131 131 123
140 140 131
139 139 130
134 134 125
146 146 137
130 130 122
128 128 120
128 128 120
127 127 119
85 85 79
125 125 117
145 145 136
137 137 128
147 147 138
142 142 133
128 128 120
132 132 124
140 140 131
140 140 131
146 146 137
145 145 136
144 144 135
135 135 126
145 145 136
145 145 136
85 85 79
135 135 126
141 141 132
138 138 129
125 125 117
140 140 131
129 129 121
147 147 138
129 129 121
143 143 134
129 129 121
133 133 125
128 128 120
144 144 135
142 142 133
134 134 125
85 85 79
136 136 127
133 133 125
141 141 132
128 128 120
136 136 127
139 139 130
126 126 118
136 136 127
134 134 125
129 129 121
140 140 131
135 135 126
137 137 128
140 140 131
143 143 134
85 85 79
136 136 127
130 130 122
136 136 127
141 141 132
132 132 124
136 136 127
146 146 137
147 147 138
128 128 120
143 143 134
142 142 133
132 132 124
133 133 125
134 134 125
137 137 128
85 85 79
137 137 128
138 138 129
128 128 120
142 142 133
132 132 124
131 131 123
130 130 122
135 135 126
130 130 122
129 129 121
132 132 124
139 139 130
137 137 128
126 126 118
134 134 125
85 85 79
130 130 122
130 130 122
128 128 120
134 134 125
143 143 134
134 134 125
139 139 130
146 146 137
129 129 121
136 136 127
139 139 130
127 127 119
133 133 125
146 146 137
138 138 129
85 85 79
144 144 135
138 138 129
125 125 117
142 142 133
139 139 130
127 127 119
140 140 131
132 132 124
126 126 118
147 147 138
126 126 118
144 144 135
127 127 119
126 126 118
142 142 133
85 85 79
128 128 120
130 130 122
134 134 125
130 130 122
146 146 137
145 145 136
142 142 133
135 135 126
132 132 124
143 143 134
143 143 134
132 132 124
141 141 132
126 126 118
139 139 130
85 85 79
135 135 126
139 139 130
135 135 126
139 139 130
133 133 125
143 143 134
146 146 137
137 137 128
133 133 125
129 129 121
125 125 117
144 144 135
129 129 121
125 125 117
138 138 129
85 85 79
141 141 132
125 125 117
145 145 136
145 145 136
139 139 130
132 132 124
143 143 134
143 143 134
147 147 138
136 136 127
141 141 132
133 133 125
135 135 126
146 146 137
126 126 118
85 85 79
142 142 133
134 134 125
143 143 134
145 145 136
136 136 127
141 141 132
146 146 137
130 130 122
140 140 131
130 130 122
126 126 118
133 133 125
133 133 125
139 139 130
146 146 137
85 85 79
129 129 121
125 125 117
130 130 122
140 140 131
130 130 122
133 133 125
139 139 130
130 130 122
134 134 125
142 142 133
146 146 137
146 146 137
136 136 127
130 130 122
128 128 120
85 85 79
133 133 125
135 135 126
130 130 122
138 138 129
137 137 128
143 143 134
146 146 137
140 140 131
144 144 135
140 140 131
125 125 117
131 131 123
135 135 126
126 126 118
145 145 136
85 85 79
145 145 136
129 129 121
126 126 118
145 145 136
139 139 130
139 139 130
139 139 130
132 132 124
135 135 126
129 129 121
126 126 118
147 147 138
141 141 132
145 145 136
145 145 136
85 85 79
142 142 133
140 140 131
129 129 121
145 145 136
143 143 134
125 125 117
135 135 126
125 125 117
142 142 133
128 128 120
143 143 134
127 127 119
138 138 129
131 131 123
136 136 127
85 85 79
141 141 132
145 145 136
129 129 121
142 142 133
126 126 118
127 127 119
135 135 126
85 85 79
85 85 79
85 85 79
85 85 79
85 85 79
85 85 79
85 85 79
85 85 79
85 85 79
85 85 79
85 85 79
85 85 79
85 85 79
85 85 79
85 85 79
85 85 79
85 85 79
85 85 79
85 85 79
85 85 79
85 85 79
85 85 79
85 85 79
85 85 79
85 85 79
85 85 79
85 85 79
85 85 79
85 85 79
85 85 79
85 85 79
85 85 79
85 85 79
85 85 79
85 85 79
85 85 79
85 85 79
85 85 79
85 85 79
85 85 79
85 85 79
85 85 79
85 85 79
85 85 79
85 85 79
85 85 79
85 85 79
85 85 79
85 85 79
85 85 79
85 85 79
85 85 79
85 85 79
85 85 79
85 85 79
85 85 79
85 85 79
85 85 79
85 85 79
85 85 79
85 85 79
85 85 79
85 85 79
85 85 79
85 85 79
137 137 128
137 137 128
129 129 121
125 125 117
129 129 121
143 143 134
139 139 130
132 132 124
128 128 120
142 142 133
132 132 124
139 139 130
128 128 120
138 138 129
139 139 130
85 85 79
140 140 131
139 139 130
138 138 129
144 144 135
139 139 130
128 128 120
128 128 120
130 130 122
136 136 127
143 143 134
128 128 120
130 130 122
127 127 119
125 125 117
146 146 137
85 85 79
147 147 138
144 144 135
141 141 132
137 137 128
129 129 121
130 130 122
134 134 125
133 133 125
139 139 130
133 133 125
125 125 117
132 132 124
147 147 138
133 133 125
137 137 128
85 85 79
131 131 123
137 137 128
134 134 125
146 146 137
126 126 118
127 127 119
126 126 118
142 142 133
138 138 129
126 126 118
128 128 120
145 145 136
125 125 117
131 131 123
132 132 124
85 85 79
128 128 120
130 130 122
134 134 125
134 134 125
131 131 123
145 145 136
147 147 138
143 143 134
127 127 119
140 140 131
139 139 130
137 137 128
139 139 130
147 147 138
143 143 134
85 85 79
140 140 131
135 135 126
141 141 132
137 137 128
129 129 121
131 131 123
134 134 125
129 129 121
142 142 133
132 132 124
133 133 125
147 147 138
129 129 121
137 137 128
147 147 138
85 85 79
141 141 132
127 127 119
139 139 130
133 133 125
142 142 133
140 140 131
147 147 138
132 132 124
133 133 125
138 138 129
131 131 123
137 137 128
143 143 134
125 125 117
143 143 134
85 85 79
134 134 125
142 142 133
138 138 129
140 140 131
133 133 125
142 142 133
141 141 132
129 129 121
133 133 125
144 144 135
125 125 117
136 136 127
137 137 128
142 142 133
139 139 130
85 85 79
130 130 122
136 136 127
147 147 138
131 131 123
128 128 120
142 142 133
137 137 128
145 145 136
132 132 124
135 135 126
131 131 123
141 141 132
130 130 122
141 141 132
130 130 122
85 85 79
133 133 125
145 145 136
137 137 128
145 145 136
142 142 133
134 134 125
126 126 118
131 131 123
136 136 127
145 145 136
139 139 130
146 146 137
142 142 133
138 138 129
147 147 138
85 85 79
125 125 117
139 139 130
126 126 118
128 128 120
128 128 120
137 137 128
129 129 121
136 136 127
140 140 131
143 143 134
131 131 123
146 146 137
147 147 138
127 127 119
143 143 134
85 85 79
140 140 131
142 142 133
128 128 120
147 147 138
141 141 132
140 140 131
131 131 123
126 126 118
134 134 125
128 128 120
141 141 132
129 129 121
126 126 118
143 143 134
141 141 132
85 85 79
129 129 121
125 125 117
132 132 124
142 142 133
130 130 122
126 126 118
133 133 125
136 136 127
146 146 137
127 127 119
139 139 130
141 141 132
142 142 133
142 142 133
143 143 134
85 85 79
147 147 138
126 126 118
138 138 129
130 130 122
125 125 117
131 131 123
143 143 134
135 135 126
125 125 117
137 137 128
127 127 119
141 141 132
135 135 126
132 132 124
126 126 118
85 85 79
141 141 132
133 133 125
133 133 125
143 143 134
144 144 135
125 125 117
128 128 120
128 128 120
132 132 124
132 132 124
129 129 121
130 130 122
138 138 129
125 125 117
142 142 133
85 85 79
130 130 122
145 145 136
138 138 129
128 128 120
128 128 120
131 131 123
142 142 133
131 131 123
132 132 124
142 142 133
146 146 137
129 129 121
135 135 126
130 130 122
144 144 135
85 85 79
126 126 118
135 135 126
129 129 121
142 142 133
145 145 136
146 146 137
130 130 122
130 130 122
142 142 133
139 139 130
128 128 120
146 146 137
125 125 117
126 126 118
142 142 133
85 85 79
140 140 131
127 127 119
127 127 119
125 125 117
128 128 120
133 133 125
137 137 128
146 146 137
140 140 131
139 139 130
125 125 117
136 136 127
133 133 125
138 138 129
136 136 127
85 85 79
128 128 120
135 135 126
144 144 135
134 134 125
126 126 118
138 138 129
139 139 130
140 140 131
130 130 122
140 140 131
132 132 124
131 131 123
144 144 135
143 143 134
133 133 125
85 85 79
128 128 120
144 144 135
140 140 131
140 140 131
137 137 128
141 141 132
125 125 117
139 139 130
146 146 137
132 132 124
140 140 131
145 145 136
127 127 119
129 129 121
131 131 123
85 85 79
126 126 118
128 128 120
146 146 137
130 130 122
142 142 133
147 147 138
145 145 136
140 140 131
133 133 125
133 133 125
128 128 120
144 144 135
134 134 125
130 130 122
125 125 117
85 85 79
140 140 131
138 138 129
144 144 135
142 142 133
135 135 126
134 134 125
139 139 130
135 135 126
131 131 123
126 126 118
133 133 125
139 139 130
140 140 131
145 145 136
140 140 131
85 85 79
140 140 131
131 131 123
141 141 132
132 132 124
145 145 136
127 127 119
142 142 133
137 137 128
128 128 120
134 134 125
144 144 135
133 133 125
138 138 129
134 134 125
126 126 118
85 85 79
134 134 125
143 143 134
132 132 124
127 127 119
136 136 127
134 134 125
128 128 120
142 142 133
134 134 125
129 129 121
133 133 125
147 147 138
129 129 121
133 133 125
135 135 126
85 85 79
128 128 120
125 125 117
136 136 127
145 145 136
128 128 120
131 131 123
126 126 118
136 136 127
146 146 137
132 132 124
141 141 132
144 144 135
137 137 128
138 138 129
131 131 123
85 85 79
138 138 129
144 144 135
144 144 135
142 142 133
128 128 120
137 137 128
125 125 117
134 134 125
135 135 126
131 131 123
133 133 125
137 137 128
134 134 125
138 138 129
135 135 126
85 85 79
132 132 124
137 137 128
140 140 131
141 141 132
134 134 125
141 141 132
129 129 121
136 136 127
136 136 127
129 129 121
134 134 125
128 128 120
138 138 129
144 144 135
135 135 126
85 85 79
136 136 127
145 145 136
128 128 120
131 131 123
134 134 125
134 134 125
127 127 119
133 133 125
128 128 120
138 138 129
143 143 134
137 137 128
128 128 120
129 129 121
127 127 119
85 85 79
85 85 79
85 85 79
85 85 79
85 85 79
85 85 79
85 85 79
85 85 79
85 85 79
85 85 79
85 85 79
85 85 79
85 85 79
85 85 79
85 85 79
85 85 79
85 85 79
85 85 79
85 85 79
85 85 79
85 85 79
85 85 79
85 85 79
85 85 79
85 85 79
85 85 79
85 85 79
85 85 79
85 85 79
85 85 79
85 85 79
85 85 79
85 85 79
85 85 79
85 85 79
85 85 79
85 85 79
85 85 79
85 85 79
85 85 79
85 85 79
85 85 79
85 85 79
85 85 79
85 85 79
85 85 79
85 85 79
85 85 79
85 85 79
85 85 79
85 85 79
85 85 79
85 85 79
85 85 79
85 85 79
85 85 79
85 85 79
85 85 79
85 85 79
85 85 79
85 85 79
85 85 79
85 85 79
85 85 79
143 143 134
132 132 124
140 140 131
126 126 118
140 140 131
126 126 118
140 140 131
125 125 117
85 85 79
127 127 119
126 126 118
135 135 126
145 145 136
138 138 129
132 132 124
143 143 134
144 144 135
147 147 138
138 138 129
128 128 120
138 138 129
130 130 122
140 140 131
140 140 131
85 85 79
129 129 121
127 127 119
138 138 129
147 147 138
126 126 118
137 137 128
134 134 125
134 134 125
133 133 125
127 127 119
127 127 119
143 143 134
142 142 133
131 131 123
134 134 125
85 85 79
129 129 121
127 127 119
143 143 134
143 143 134
132 132 124
133 133 125
130 130 122
132 132 124
140 140 131
130 130 122
126 126 118
135 135 126
135 135 126
135 135 126
126 126 118
85 85 79
139 139 130
129 129 121
146 146 137
132 132 124
147 147 138
137 137 128
136 136 127
136 136 127
138 138 129
132 132 124
133 133 125
141 141 132
143 143 134
132 132 124
128 128 120
85 85 79
133 133 125
131 131 123
130 130 122
145 145 136
139 139 130
141 141 132
147 147 138
139 139 130
127 127 119
128 128 120
140 140 131
132 132 124
125 125 117
145 145 136
139 139 130
85 85 79
136 136 127
134 134 125
147 147 138
130 130 122
134 134 125
126 126 118
143 143 134
135 135 126
126 126 118
143 143 134
135 135 126
133 133 125
126 126 118
145 145 136
139 139 130
85 85 79
134 134 125
143 143 134
145 145 136
136 136 127
138 138 129
125 125 117
145 145 136
130 130 122
143 143 134
131 131 123
138 138 129
133 133 125
141 141 132
129 129 121
135 135 126
85 85 79
133 133 125
128 128 120
135 135 126
145 145 136
132 132 124
132 132 124
135 135 126
138 138 129
134 134 125
137 137 128
137 137 128
138 138 129
128 128 120
143 143 134
138 138 129
85 85 79
130 130 122
127 127 119
137 137 128
141 141 132
126 126 118
139 139 130
142 142 133
131 131 123
128 128 120
125 125 117
143 143 134
136 136 127
142 142 133
147 147 138
146 146 137
85 85 79
139 139 130
128 128 120
125 125 117
137 137 128
145 145 136
141 141 132
145 145 136
125 125 117
130 130 122
139 139 130
136 136 127
130 130 122
134 134 125
136 136 127
130 130 122
85 85 79
137 137 128
130 130 122
141 141 132
125 125 117
131 131 123
147 147 138
139 139 130
134 134 125
141 141 132
133 133 125
134 134 125
129 129 121
130 130 122
125 125 117
137 137 128
85 85 79
142 142 133
140 140 131
147 147 138
133 133 125
125 125 117
138 138 129
131 131 123
129 129 121
135 135 126
133 133 125
145 145 136
131 131 123
137 137 128
141 141 132
143 143 134
85 85 79
135 135 126
129 129 121
147 147 138
129 129 121
143 143 134
130 130 122
129 129 121
125 125 117
129 129 121
139 139 130
128 128 120
145 145 136
127 127 119
127 127 119
128 128 120
85 85 79
136 136 127
127 127 119
142 142 133
130 130 122
126 126 118
128 128 120
146 146 137
127 127 119
143 143 134
141 141 132
144 144 135
143 143 134
140 140 131
137 137 128
134 134 125
85 85 79
141 141 132
126 126 118
131 131 123
142 142 133
144 144 135
144 144 135
137 137 128
145 145 136
128 128 120
131 131 123
135 135 126
128 128 120
135 135 126
125 125 117
136 136 127
85 85 79
141 141 132
143 143 134
129 129 121
134 134 125
139 139 130
134 134 125
135 135 126
142 142 133
141 141 132
128 128 120
138 138 129
127 127 119
139 139 130
131 131 123
127 127 119
85 85 79
145 145 136
127 127 119
126 126 118
141 141 132
134 134 125
134 134 125
138 138 129
138 138 129
133 133 125
128 128 120
136 136 127
135 135 126
142 142 133
143 143 134
127 127 119
85 85 79
130 130 122
140 140 131
146 146 137
145 145 136
143 143 134
125 125 117
136 136 127
126 126 118
127 127 119
142 142 133
138 138 129
126 126 118
135 135 126
140 140 131
146 146 137
85 85 79
136 136 127
126 126 118
144 144 135
126 126 118
129 129 121
140 140 131
129 129 121
126 126 118
144 144 135
128 128 120
143 143 134
129 129 121
142 142 133
133 133 125
146 146 137
85 85 79
142 142 133
136 136 127
145 145 136
142 142 133
142 142 133
145 145 136
127 127 119
128 128 120
138 138 129
131 131 123
125 125 117
134 134 125
128 128 120
133 133 125
130 130 122
85 85 79
127 127 119
127 127 119
125 125 117
139 139 130
137 137 128
147 147 138
143 143 134
145 145 136
143 143 134
141 141 132
137 137 128
131 131 123
125 125 117
132 132 124
138 138 129
85 85 79
144 144 135
144 144 135
133 133 125
128 128 120
137 137 128
146 146 137
147 147 138
125 125 117
143 143 134
137 137 128
146 146 137
133 133 125
145 145 136
137 137 128
136 136 127
85 85 79
133 133 125
132 132 124
129 129 121
126 126 118
128 128 120
133 133 125
132 132 124
139 139 130
129 129 121
125 125 117
131 131 123
140 140 131
128 128 120
144 144 135
144 144 135
85 85 79
129 129 121
144 144 135
132 132 124
130 130 122
132 132 124
128 128 120
127 127 119
142 142 133
138 138 129
141 141 132
144 144 135
147 147 138
146 146 137
146 146 137
128 128 120
85 85 79
126 126 118
125 125 117
131 131 123
137 137 128
127 127 119
137 137 128
137 137 128
125 125 117
128 128 120
133 133 125
145 145 136
139 139 130
130 130 122
143 143 134
136 136 127
85 85 79
126 126 118
126 126 118
136 136 127
137 137 128
142 142 133
137 137 128
136 136 127
146 146 137
139 139 130
129 129 121
135 135 126
131 131 123
133 133 125
125 125 117
142 142 133
85 85 79
141 141 132
130 130 122
142 142 133
143 143 134
141 141 132
135 135 126
138 138 129
142 142 133
132 132 124
141 141 132
139 139 130
136 136 127
129 129 121
129 129 121
143 143 134
85 85 79
139 139 130
136 136 127
137 137 128
141 141 132
126 126 118
125 125 117
147 147 138
