P3
16 16
255
150 150 153
150 150 153
150 150 153
150 150 153
150 150 153
150 150 153
150 150 153
150 150 153
150 150 153
150 150 153
150 150 153
150 150 153
150 150 153
150 150 153
150 150 153
74 74 77
150 150 153
118 118 121
126 126 129
118 118 121
118 118 121
118 118 121
118 118 121
126 126 129
126 126 129
118 118 121
118 118 121
118 118 121
126 126 129
126 126 129
100 100 103
74 74 77
150 150 153
118 118 121
118 118 121
126 126 129
118 118 121
118 118 121
118 118 121
118 118 121
118 118 121
126 126 129
118 118 121
118 118 121
118 118 121
118 118 121
100 100 103
74 74 77
150 150 153
126 126 129
126 126 129
118 118 121
118 118 121
118 118 121
118 118 121
118 118 121
126 126 129
118 118 121
118 118 121
118 118 121
118 118 121
126 126 129
100 100 103
74 74 77
150 150 153
126 126 129
118 118 121
126 126 129
118 118 121
118 118 121
118 118 121
118 118 121
118 118 121
118 118 121
118 118 121
126 126 129
118 118 121
118 118 121
100 100 103
74 74 77
150 150 153
126 126 129
118 118 121
118 118 121
118 118 121
118 118 121
118 118 121
118 118 121
118 118 121
118 118 121
118 118 121
118 118 121
118 118 121
118 118 121
100 100 103
74 74 77
150 150 153
100 100 103
100 100 103
100 100 103
100 100 103
100 100 103
100 100 103
100 100 103
100 100 103
100 100 103
100 100 103
100 100 103
100 100 103
100 100 103
100 100 103
74 74 77
74 74 77
74 74 77
74 74 77
74 74 77
74 74 77
74 74 77
74 74 77
74 74 77
74 74 77
74 74 77
74 74 77
74 74 77
74 74 77
74 74 77
74 74 77
74 74 77
150 150 153
150 150 153
150 150 153
150 150 153
150 150 153
150 150 153
150 150 153
74 74 77
150 150 153
150 150 153
150 150 153
150 150 153
150 150 153
150 150 153
150 150 153
150 150 153
118 118 121
118 118 121
118 118 121
118 118 121
118 118 121
118 118 121
100 100 103
74 74 77
150 150 153
118 118 121
118 118 121
118 118 121
126 126 129
118 118 121
118 118 121
126 126 129
126 126 129
126 126 129
118 118 121
118 118 121
126 126 129
118 118 121
100 100 103
74 74 77
150 150 153
118 118 121
118 118 121
118 118 121
118 118 121
118 118 121
126 126 129
118 118 121
126 126 129
126 126 129
118 118 121
126 126 129
118 118 121
126 126 129
100 100 103
74 74 77
150 150 153
118 118 121
126 126 129
126 126 129
118 118 121
126 126 129
118 118 121
118 118 121
126 126 129
118 118 121
126 126 129
126 126 129
118 118 121
118 118 121
100 100 103
74 74 77
150 150 153
118 118 121
118 118 121
126 126 129
118 118 121
118 118 121
118 118 121
118 118 121
118 118 121
118 118 121
126 126 129
118 118 121
118 118 121
118 118 121
100 100 103
74 74 77
150 150 153
118 118 121
126 126 129
118 118 121
118 118 121
118 118 121
126 126 129
126 126 129
100 100 103
100 100 103
100 100 103
100 100 103
100 100 103
100 100 103
100 100 103
74 74 77
150 150 153
100 100 103
100 100 103
100 100 103
100 100 103
100 100 103
100 100 103
100 100 103
74 74 77
74 74 77
74 74 77
74 74 77
74 74 77
74 74 77
74 74 77
74 74 77
74 74 77
74 74 77
74 74 77
74 74 77
74 74 77
74 74 77
74 74 77
74 74 77
