P3
64 64
255
128 79 48
137 85 52
145 90 55
152 94 57
157 97 59
160 99 60
161 99 61
158 98 60
153 95 58
147 91 55
139 86 53
130 80 49
121 75 46
112 69 42
105 65 40
100 62 38
96 60 36
96 59 36
97 60 36
101 63 38
107 66 40
115 71 43
124 77 47
133 82 50
142 88 54
149 92 56
156 96 59
160 99 60
160 99 61
159 98 60
155 96 59
151 93 57
143 88 54
134 83 51
124 77 47
116 71 44
107 66 40
101 63 38
97 60 36
95 59 36
96 60 36
99 61 37
104 65 39
111 68 42
120 74 45
128 79 48
137 85 52
146 90 55
153 95 58
158 97 60
160 99 61
159 99 60
158 98 60
153 94 58
146 91 55
137 85 52
128 79 48
120 74 45
112 69 42
104 64 39
99 61 37
96 59 36
95 59 36
97 60 37
151 93 57
156 96 59
160 99 60
160 99 60
159 98 60
155 96 59
149 92 56
142 88 54
133 82 50
124 77 47
116 71 44
107 66 40
101 62 38
97 60 37
96 59 36
96 59 36
100 62 38
104 65 39
112 69 42
120 74 45
129 80 49
139 86 53
147 91 55
154 95 58
158 97 60
160 99 61
160 99 61
157 97 59
151 94 57
145 90 55
136 84 52
128 79 48
118 73 45
110 68 41
104 64 39
98 61 37
95 59 36
96 59 36
98 60 37
103 63 39
108 67 41
117 72 44
126 78 48
135 83 51
144 89 54
151 93 57
157 97 59
160 99 60
160 99 61
159 98 60
154 95 58
148 92 56
141 87 53
132 82 50
123 76 46
115 71 43
107 66 40
100 62 38
96 60 36
95 59 36
96 59 36
100 62 38
105 65 40
113 70 43
160 99 60
160 99 61
157 97 59
152 94 57
145 90 55
136 84 51
127 78 48
118 73 45
110 68 41
104 64 39
98 61 37
95 59 36
95 59 36
98 61 37
103 64 39
109 67 41
117 73 44
127 79 48
135 83 51
144 89 54
151 93 57
156 97 59
159 98 60
161 100 61
159 98 60
154 95 58
149 92 56
140 86 53
131 81 49
123 76 46
113 70 43
106 66 40
100 62 38
97 60 37
95 59 36
97 60 36
100 62 38
106 65 40
114 70 43
122 75 46
132 82 50
140 87 53
147 91 56
154 95 58
158 98 60
160 99 61
160 99 61
156 97 59
151 93 57
143 89 54
135 83 51
126 78 48
118 73 44
108 67 41
103 64 39
99 61 37
96 59 36
95 59 36
99 61 37
104 64 39
111 68 42
118 73 45
127 79 48
137 84 52
155 96 58
149 92 56
141 87 53
133 82 50
123 76 46
114 71 43
107 66 40
101 62 38
97 60 36
95 59 36
96 60 36
100 62 38
106 65 40
113 70 43
121 75 46
131 81 49
140 87 53
147 91 56
154 95 58
157 97 60
160 99 61
160 99 60
157 97 59
151 93 57
145 90 55
135 84 51
126 78 48
117 73 44
110 68 41
103 64 39
98 61 37
96 59 36
95 59 36
98 60 37
103 63 39
109 68 41
118 73 45
127 79 48
136 84 51
144 89 55
152 94 57
157 97 59
160 99 60
160 99 60
159 98 60
154 95 58
148 92 56
139 86 53
131 81 49
121 75 46
113 70 43
106 66 40
100 62 38
96 59 36
95 59 36
96 59 36
101 62 38
107 66 40
115 71 43
123 76 46
132 81 50
140 87 53
149 92 56
154 95 58
138 85 52
129 80 49
120 75 45
111 69 42
104 65 39
99 61 37
96 59 36
96 59 36
97 60 36
102 63 38
108 67 41
116 71 44
124 77 47
133 82 50
142 88 54
149 92 56
156 96 59
159 98 60
161 99 61
158 98 60
154 96 58
149 92 56
141 87 53
132 82 50
123 76 46
116 71 44
107 66 40
101 62 38
97 60 36
95 59 36
96 60 36
99 61 37
105 65 39
112 69 42
120 74 45
130 81 49
139 86 53
147 91 56
153 95 58
158 98 60
160 99 61
159 99 60
158 98 60
153 94 58
146 90 55
137 85 52
127 79 48
118 73 45
111 68 42
104 64 39
99 61 37
96 60 36
95 59 36
97 60 37
103 63 39
109 67 41
116 72 44
125 77 47
135 83 51
143 89 54
150 93 57
156 97 59
160 99 60
161 100 61
119 74 45
110 68 42
104 64 39
99 61 37
95 59 36
95 59 36
98 61 37
101 63 38
109 67 41
116 72 44
126 78 47
134 83 51
143 89 54
151 93 57
156 96 59
159 98 60
160 99 60
159 98 60
154 95 58
148 92 56
141 87 53
132 82 50
124 76 47
114 70 43
106 66 40
101 62 38
96 60 36
95 59 36
97 60 37
100 62 38
106 66 40
113 70 43
121 75 46
130 80 49
140 87 53
148 91 56
153 95 58
158 98 60
160 99 60
159 98 60
156 97 59
151 94 57
145 89 55
136 84 51
127 78 48
118 73 44
111 68 42
104 64 39
98 60 37
96 59 36
95 59 36
98 60 37
102 63 39
109 67 41
117 72 44
126 78 48
135 83 51
143 89 54
151 93 57
156 96 59
160 99 60
160 99 60
159 98 60
155 96 58
105 65 39
100 62 38
97 60 36
96 59 36
97 60 37
101 62 38
107 66 40
114 71 43
124 77 47
133 82 50
142 88 54
149 92 56
155 96 58
158 98 60
160 99 61
160 99 60
156 97 59
151 93 57
143 88 54
134 83 51
124 77 47
116 72 44
108 67 41
102 63 38
97 60 37
95 59 36
96 60 36
98 61 37
104 64 39
112 69 42
119 74 45
128 79 48
138 85 52
146 90 55
153 94 58
157 97 59
160 99 61
159 99 60
158 98 60
153 95 58
145 90 55
138 85 52
129 80 49
119 74 45
111 69 42
105 65 39
99 61 37
95 59 36
95 59 36
97 60 37
101 62 38
107 66 40
116 72 44
125 77 47
133 82 50
142 88 54
150 93 57
155 96 59
159 99 60
161 100 61
158 98 60
155 96 58
149 92 56
142 88 54
97 60 37
96 59 36
95 59 36
99 61 37
104 64 39
111 69 42
120 74 45
129 80 49
137 85 52
145 90 55
152 94 57
157 97 59
160 99 60
160 99 61
158 98 60
153 95 58
147 91 55
139 86 52
130 80 49
120 74 45
112 69 42
105 65 39
99 61 37
96 59 36
95 59 36
96 60 36
101 62 38
107 66 40
115 71 43
125 77 47
133 82 50
142 88 54
150 93 57
156 96 59
159 98 60
160 99 60
159 99 60
156 96 59
149 92 56
142 88 54
133 82 50
124 77 47
116 72 44
107 66 41
101 62 38
97 60 37
95 59 36
97 60 36
99 61 37
105 65 40
112 69 42
121 75 46
129 80 49
138 85 52
146 90 55
152 94 58
158 98 60
160 99 60
159 99 60
157 97 59
152 94 57
146 90 55
137 85 52
128 79 48
95 59 36
96 59 36
99 61 37
105 65 40
112 69 42
120 74 45
129 80 49
139 86 52
146 90 55
153 95 58
158 98 60
160 99 60
160 99 61
157 97 59
152 94 57
145 90 55
137 85 52
128 79 48
119 73 45
110 68 41
104 64 39
98 61 37
95 59 36
96 59 36
97 60 37
102 63 39
109 67 41
117 72 44
125 78 47
135 83 51
144 89 54
150 93 57
155 96 59
159 98 60
160 99 61
159 98 60
154 96 58
149 92 56
141 87 53
132 81 50
122 76 46
114 70 43
106 66 40
101 63 38
97 60 37
95 59 36
97 60 36
100 62 38
106 66 40
114 70 43
122 75 46
130 80 49
140 87 53
147 91 56
154 95 58
159 98 60
160 99 60
159 99 60
156 96 59
152 94 57
145 89 55
135 84 51
127 79 48
118 73 45
95 59 36
99 61 37
104 64 39
111 68 42
118 73 45
127 79 48
137 85 52
145 90 55
151 94 57
156 97 59
160 99 60
161 99 61
159 98 60
154 95 58
146 91 55
139 86 53
129 80 49
121 75 46
113 70 42
105 65 39
99 61 37
97 60 37
96 59 36
97 60 37
101 62 38
108 67 41
115 71 44
123 76 46
133 82 50
142 88 54
149 92 56
155 96 59
158 98 60
160 99 61
160 99 60
156 96 59
149 92 56
142 88 54
134 83 51
124 77 47
116 72 44
107 66 41
102 63 38
98 61 37
96 59 36
96 59 36
99 61 37
104 64 39
111 69 42
120 74 45
129 80 49
138 85 52
146 91 55
152 94 58
158 98 60
159 99 60
160 99 61
158 98 60
152 94 57
146 91 55
138 85 52
129 80 49
120 74 45
111 69 42
97 60 37
100 62 38
106 66 40
113 70 43
123 76 46
132 82 50
140 86 53
148 92 56
155 96 58
158 98 60
160 99 60
160 99 60
156 97 59
151 93 57
144 89 54
135 84 51
127 78 48
117 73 44
110 68 41
102 63 39
98 61 37
95 59 36
95 59 36
98 60 37
102 63 39
110 68 41
119 73 45
127 78 48
136 84 51
144 89 54
152 94 57
157 97 59
160 99 60
160 99 61
158 98 60
154 95 58
146 91 55
139 86 52
130 80 49
121 75 46
113 70 42
105 65 40
99 61 37
97 60 36
95 59 36
97 60 37
100 62 38
106 66 40
115 71 43
122 76 46
132 82 50
141 88 53
149 92 56
155 96 59
159 98 60
160 99 61
160 99 60
156 97 59
150 93 57
142 88 54
134 83 51
125 78 47
117 72 44
108 67 41
97 60 37
100 62 38
106 65 40
113 70 43
122 76 46
131 81 50
140 87 53
148 92 56
154 95 58
159 98 60
161 100 61
160 99 61
156 97 59
150 93 57
144 89 54
135 84 51
126 78 48
117 72 44
110 68 41
103 63 39
99 61 37
95 59 36
95 59 36
99 61 37
103 64 39
110 68 41
117 73 44
128 79 48
136 84 51
144 89 54
151 93 57
157 97 59
160 99 60
160 99 60
158 98 60
153 95 58
147 91 56
139 86 53
130 80 49
122 75 46
113 70 43
105 65 40
100 62 38
96 59 36
95 58 36
96 60 36
100 62 38
106 65 40
114 70 43
123 76 46
132 82 50
141 87 53
149 92 56
155 96 59
158 98 60
160 99 60
159 99 60
156 97 59
150 93 57
143 89 54
134 83 51
125 78 47
117 72 44
109 67 41
96 59 36
99 61 37
103 64 39
110 68 42
118 73 44
127 78 48
137 85 52
145 90 55
152 94 57
157 97 59
160 99 61
160 99 60
158 98 60
154 95 58
147 91 55
138 86 52
130 81 49
122 75 46
113 70 42
106 65 40
100 62 38
96 59 36
96 59 36
97 60 36
100 62 38
106 66 40
115 71 43
123 76 47
133 82 50
142 88 53
148 92 56
155 96 59
159 98 60
161 99 61
159 98 60
155 96 59
151 93 57
143 88 54
134 83 51
125 77 47
116 72 44
109 67 41
102 63 38
98 61 37
96 59 36
96 59 36
99 61 37
105 65 39
111 68 42
119 74 45
129 80 49
138 85 52
145 90 55
153 94 58
157 97 59
160 99 61
159 99 60
158 98 60
152 94 58
147 91 56
138 85 52
130 80 49
120 74 45
111 69 42
96 59 36
96 60 36
99 61 37
105 65 40
111 69 42
120 74 45
130 80 49
138 85 52
146 90 55
152 94 58
157 97 59
160 99 60
161 99 61
157 97 59
152 94 57
145 90 55
138 85 52
128 79 48
119 73 45
111 69 42
105 65 39
99 61 37
96 59 36
95 59 36
97 60 37
102 63 38
108 67 41
117 72 44
125 77 47
134 83 50
143 88 54
150 93 57
155 96 59
159 99 60
160 99 60
159 99 60
155 96 59
149 92 56
141 87 53
133 82 50
123 76 46
115 71 44
107 66 40
101 63 38
97 60 37
95 59 36
96 59 36
100 62 38
106 65 40
113 70 43
121 75 46
130 80 49
139 86 52
147 91 55
153 95 58
158 98 60
161 99 61
160 99 60
157 97 59
152 94 57
145 90 55
136 84 51
128 79 48
118 73 45
98 61 37
95 59 36
96 59 36
98 61 37
103 64 39
110 68 41
119 73 45
128 79 48
136 84 51
144 89 55
152 94 57
156 97 59
159 98 60
160 99 61
157 97 60
153 94 58
147 91 55
140 86 53
130 80 49
121 75 46
112 69 42
105 65 40
100 62 38
97 60 36
95 59 36
97 60 37
101 62 38
107 66 40
115 71 43
124 77 47
132 82 50
141 87 53
149 92 56
155 96 59
158 98 60
161 100 61
158 98 60
156 97 59
150 93 57
143 89 54
134 83 51
124 77 47
117 72 44
109 67 41
101 63 38
97 60 37
95 59 36
97 60 36
99 61 37
104 64 39
112 69 42
119 74 45
129 80 49
138 85 52
145 90 55
152 94 58
157 97 60
160 99 60
160 99 60
158 98 60
153 95 58
146 90 55
139 86 52
129 80 49
106 65 40
100 62 38
96 59 36
95 59 36
97 60 36
100 62 38
107 66 40
114 70 43
123 76 46
132 82 50
140 87 53
148 92 56
154 95 58
159 98 60
160 99 61
159 99 60
156 97 59
151 93 57
144 89 54
135 83 51
126 78 48
117 72 44
109 67 41
103 64 39
98 61 37
95 59 36
96 59 36
98 61 37
104 64 39
111 69 42
119 74 45
128 79 48
137 85 52
146 90 55
152 94 57
157 97 59
160 99 60
160 99 60
158 98 60
153 95 58
147 91 56
138 85 52
129 80 49
121 75 46
112 69 42
105 65 39
100 62 38
97 60 36
95 58 36
97 60 37
101 62 38
108 67 41
115 71 44
124 77 47
133 82 50
142 88 54
150 93 57
156 96 59
159 98 60
160 99 60
159 99 60
155 96 59
149 92 56
143 88 54
121 75 45
111 69 42
105 65 39
100 62 38
96 59 36
96 59 36
97 60 36
101 63 38
108 67 41
115 71 43
125 77 47
134 83 51
142 88 54
149 92 56
155 96 59
159 98 60
161 99 61
159 98 60
156 96 59
149 92 56
141 88 53
133 82 50
124 77 47
115 71 43
107 66 40
101 62 38
97 60 37
96 59 36
96 59 36
99 61 37
105 65 40
112 69 42
120 74 45
129 80 49
139 86 52
146 90 55
153 95 58
157 97 60
160 99 60
160 99 61
158 98 60
152 94 57
145 90 55
137 85 52
128 79 48
119 74 45
111 69 42
104 65 39
99 61 37
96 59 36
95 59 36
97 60 37
103 63 39
109 67 41
117 72 44
125 77 47
135 83 51
143 89 54
150 93 57
156 96 59
160 99 60
160 99 61
159 98 60
155 96 58
139 86 52
130 81 49
120 74 45
113 70 42
105 65 40
100 62 38
97 60 37
95 59 36
98 60 37
100 62 38
107 66 40
115 71 43
123 76 46
133 82 50
142 88 54
149 92 56
155 96 58
159 98 60
161 99 61
159 98 60
156 97 59
151 93 57
143 89 54
134 83 51
125 77 47
116 72 44
109 67 41
103 63 39
98 61 37
95 59 36
96 60 36
100 62 38
103 64 39
111 69 42
119 74 45
129 80 49
138 85 52
146 90 55
153 94 58
157 97 59
161 99 61
160 99 60
157 97 59
152 94 58
147 91 55
138 86 52
130 80 49
120 74 45
111 69 42
104 64 39
98 61 37
96 59 36
95 59 36
98 60 37
101 62 38
108 67 41
116 72 44
125 77 47
133 82 50
143 88 54
150 93 57
155 96 59
159 98 60
160 99 61
156 96 59
150 93 57
142 88 54
133 82 50
124 76 47
116 72 44
108 66 41
102 63 38
97 60 37
95 59 36
96 59 36
100 62 38
105 65 40
112 69 42
120 74 45
130 80 49
138 86 52
147 91 56
153 95 58
158 98 60
160 99 61
160 99 61
157 97 59
153 95 58
146 90 55
137 85 52
127 79 48
119 73 45
110 68 42
104 64 39
99 61 37
96 59 36
95 59 36
98 60 37
102 63 39
108 67 41
116 72 44
125 77 47
135 84 51
143 88 54
151 93 57
156 96 59
160 99 60
161 99 61
158 98 60
154 95 58
149 92 56
140 87 53
132 82 50
123 76 46
114 71 43
107 66 40
101 62 38
97 60 37
95 58 36
97 60 37
100 62 38
105 65 40
112 70 42
121 75 46
131 81 49
140 87 53
148 91 56
154 95 58
161 99 61
160 99 61
157 97 59
153 95 58
146 90 55
138 85 52
128 79 48
120 74 45
112 69 42
104 64 39
98 61 37
96 60 36
96 59 36
97 60 37
101 62 38
109 67 41
116 71 44
125 77 47
134 83 51
143 88 54
150 93 57
156 97 59
159 98 60
160 99 61
159 99 60
154 96 58
148 92 56
140 87 53
132 82 50
124 77 47
114 71 43
107 66 40
101 63 38
98 60 37
96 59 36
96 59 36
99 61 37
105 65 39
113 70 43
122 75 46
130 80 49
139 86 52
147 91 56
153 95 58
158 98 60
160 99 61
160 99 60
157 97 60
151 94 57
145 90 55
136 84 51
128 79 48
118 73 45
110 68 42
104 64 39
99 61 37
96 59 36
95 59 36
98 61 37
102 63 38
109 67 41
117 72 44
126 78 47
135 83 51
149 92 56
155 96 59
158 98 60
160 99 61
160 99 60
156 96 59
149 92 56
143 88 54
133 82 50
125 77 47
117 72 44
108 67 41
102 63 38
97 60 37
96 59 36
96 60 36
99 61 37
104 64 39
111 69 42
120 74 45
128 79 48
138 85 52
146 91 55
153 95 58
158 98 60
160 99 60
160 99 60
158 98 60
152 94 58
147 91 55
138 85 52
128 79 48
120 74 45
111 69 42
105 65 40
99 61 37
95 59 36
96 59 36
97 60 37
101 63 38
107 66 40
115 71 44
125 77 47
133 82 50
142 88 54
149 92 56
155 96 59
159 98 60
160 99 60
159 98 60
155 96 59
150 93 57
141 88 53
132 82 50
124 77 47
116 72 44
108 66 41
101 63 38
97 60 37
96 59 36
97 60 36
99 61 37
105 65 39
113 70 42
127 78 48
135 84 51
144 89 55
150 93 57
156 97 59
160 99 60
160 99 61
159 98 60
154 95 58
147 91 56
139 86 53
131 81 50
122 75 46
114 70 43
106 66 40
100 62 38
96 59 36
96 59 36
97 60 36
100 62 38
107 66 40
114 71 43
122 75 46
132 82 50
140 87 53
149 92 56
154 95 58
158 98 60
160 99 61
159 98 60
156 97 59
151 93 57
144 89 54
135 83 51
126 78 48
117 72 44
108 67 41
103 64 39
98 60 37
95 59 36
95 59 36
99 61 37
104 64 39
110 68 42
119 74 45
127 78 48
137 85 52
145 90 55
152 94 57
157 97 59
160 99 60
161 99 61
158 98 60
153 94 58
148 91 56
139 86 53
130 80 49
121 75 46
112 69 42
105 65 40
100 62 38
97 60 36
95 59 36
97 60 36
104 65 39
112 69 42
121 75 46
130 80 49
139 86 52
146 90 55
152 94 58
158 98 60
160 99 60
159 99 60
158 98 60
153 94 58
145 90 55
137 85 52
127 79 48
119 74 45
111 69 42
104 64 39
98 61 37
96 59 36
95 59 36
97 60 37
102 63 38
108 67 41
116 72 44
125 77 47
135 83 51
144 89 54
150 93 57
156 97 59
160 99 60
160 99 61
158 98 60
155 96 59
148 92 56
142 88 53
133 82 50
123 76 46
115 71 43
107 66 40
101 63 38
97 60 37
96 59 36
96 59 36
100 62 38
106 66 40
113 70 43
122 75 46
131 81 49
139 86 53
148 91 56
154 95 58
159 98 60
159 99 60
159 98 60
156 97 59
152 94 57
144 89 54
137 84 52
127 78 48
119 73 45
110 68 41
103 63 39
98 60 37
96 59 36
97 60 36
101 62 38
107 66 41
115 71 44
125 77 47
134 83 50
141 87 53
150 93 57
155 96 59
159 98 60
161 99 61
159 99 60
155 96 59
149 92 56
143 88 54
133 82 50
125 77 47
116 72 44
107 66 40
101 62 38
97 60 37
95 59 36
96 59 36
100 62 38
104 65 39
111 69 42
120 74 45
129 80 49
139 86 52
146 90 55
153 95 58
158 98 60
160 99 60
159 99 60
158 98 60
153 95 58
146 90 55
137 85 52
129 80 49
119 74 45
111 69 42
104 64 39
99 61 37
95 59 36
95 59 36
97 60 37
102 63 38
108 67 41
116 72 44
125 77 47
134 83 51
143 88 54
150 93 57
155 96 59
158 98 60
160 99 61
159 98 60
154 95 58
149 92 56
140 87 53
132 82 50
124 76 47
115 71 43
102 63 38
97 60 36
96 59 36
96 59 36
98 61 37
104 65 39
111 69 42
119 74 45
128 79 49
138 85 52
145 90 55
152 94 58
158 98 60
160 99 61
160 99 60
157 97 59
153 94 58
146 90 55
138 86 52
129 80 49
120 74 45
111 69 42
104 64 39
98 61 37
96 59 36
95 59 36
97 60 36
101 62 38
107 66 41
116 72 44
125 78 47
134 83 51
142 88 54
150 93 57
156 97 59
159 98 60
161 100 61
159 98 60
155 96 59
150 93 57
141 87 53
133 82 50
124 77 47
114 71 43
107 66 40
102 63 38
97 60 36
96 59 36
96 59 36
100 62 38
105 65 40
112 69 42
121 75 46
130 80 49
139 86 52
147 91 55
152 94 58
158 98 60
160 99 60
160 99 61
157 97 59
152 94 57
146 90 55
136 84 51
118 73 45
110 68 41
104 64 39
99 61 37
95 59 36
96 59 36
98 61 37
102 63 39
108 67 41
116 72 44
126 78 48
134 83 51
144 89 54
151 93 57
156 97 59
160 99 60
161 99 61
159 98 60
154 95 58
149 92 56
141 87 53
132 82 50
123 76 46
114 70 43
106 65 40
100 62 38
97 60 37
95 58 36
97 60 36
100 62 38
106 65 40
113 70 43
121 75 46
131 81 50
139 86 53
148 91 56
153 95 58
159 98 60
160 99 60
160 99 60
157 97 59
151 93 57
143 89 54
135 84 51
126 78 48
118 73 44
110 68 42
103 64 39
99 61 37
95 59 36
96 59 36
98 61 37
104 64 39
110 68 41
118 73 44
127 79 48
135 84 51
144 89 54
151 93 57
156 97 59
160 99 61
161 99 61
159 98 60
154 95 58
137 85 52
128 79 48
119 74 45
111 69 42
105 65 39
99 61 37
96 59 36
95 59 36
97 60 37
102 63 38
108 67 41
116 72 44
125 78 47
134 83 50
143 88 54
150 93 57
155 96 59
159 98 60
160 99 61
158 98 60
155 96 59
149 92 56
141 87 53
133 82 50
123 76 47
114 70 43
107 66 40
100 62 38
97 60 37
95 59 36
96 59 36
99 61 37
105 65 40
113 70 43
121 75 45
130 80 49
139 86 52
147 91 56
153 95 58
157 97 59
160 99 61
160 99 61
156 97 59
152 94 57
145 90 55
136 84 51
128 79 48
118 73 44
111 68 42
103 64 39
98 61 37
95 59 36
95 59 36
98 61 37
102 63 39
109 67 41
118 73 44
126 78 48
135 83 51
144 89 54
151 93 57
157 97 59
160 99 61
160 99 61
152 94 57
144 89 54
136 84 51
127 78 48
118 73 45
109 68 41
103 63 39
97 60 37
96 59 36
96 59 36
98 60 37
103 63 39
109 67 41
119 73 45
127 79 48
137 84 52
145 90 55
152 94 57
156 97 59
160 99 61
160 99 60
158 98 60
154 95 58
147 91 55
139 86 52
130 80 49
122 75 46
112 69 42
106 66 40
100 62 38
97 60 36
96 59 36
97 60 37
101 62 38
106 66 40
114 71 43
123 76 46
132 82 50
140 87 53
148 91 56
154 95 58
159 98 60
160 99 61
160 99 60
157 97 59
151 93 57
143 88 54
135 84 51
126 78 47
116 72 44
108 67 41
102 63 38
97 60 37
96 59 36
96 59 36
99 61 37
104 64 39
110 68 42
119 73 45
129 80 49
136 84 52
146 90 55
152 94 57
157 97 60
157 97 60
154 96 58
147 91 56
140 86 53
131 81 49
122 75 46
113 70 43
105 65 40
101 62 38
97 60 36
95 59 36
96 59 36
100 62 38
107 66 40
114 71 43
123 76 46
131 81 50
140 87 53
148 91 56
154 95 58
159 98 60
161 100 61
159 99 60
156 97 59
150 93 57
144 89 54
135 83 51
125 77 47
116 72 44
109 68 41
103 63 39
98 61 37
96 59 36
96 59 36
98 61 37
103 64 39
111 68 42
118 73 45
127 79 48
137 85 52
146 90 55
152 94 57
157 97 59
159 99 60
160 99 61
158 98 60
154 95 58
147 91 55
139 86 52
130 80 49
121 75 46
112 69 42
105 65 40
99 61 37
96 59 36
95 59 36
97 60 37
101 62 38
107 66 40
116 71 44
123 76 47
133 82 50
142 88 54
149 92 56
161 100 61
158 98 60
154 95 58
148 92 56
141 87 53
132 82 50
123 76 47
114 70 43
107 66 40
101 62 38
97 60 37
96 59 36
96 59 36
100 62 38
105 65 40
114 70 43
121 75 46
131 81 50
139 86 53
147 91 56
154 95 58
158 98 60
160 99 60
160 99 60
157 97 59
152 94 57
144 89 55
135 84 51
128 79 48
118 73 44
110 68 42
102 63 39
98 60 37
96 59 36
96 59 36
98 61 37
103 63 39
109 68 41
117 72 44
126 78 48
136 84 51
144 89 54
151 93 57
157 97 59
160 99 60
160 99 60
158 98 60
155 96 58
148 91 56
140 87 53
131 81 50
121 75 46
113 70 43
106 66 40
100 62 38
96 59 36
95 58 36
97 60 37
101 62 38
106 66 40
113 70 43
123 76 46
131 81 50
140 87 53
159 99 60
160 99 61
158 98 60
154 95 58
146 90 55
139 86 53
130 81 49
121 75 46
113 70 42
106 65 40
99 61 37
96 59 36
95 59 36
97 60 37
100 62 38
107 66 41
115 71 43
124 77 47
132 82 50
141 87 53
149 92 56
154 96 58
159 98 60
160 99 60
158 98 60
155 96 59
150 93 57
142 88 54
134 83 51
125 77 47
116 72 44
108 67 41
102 63 38
97 60 36
95 59 36
96 59 36
99 61 37
105 65 40
112 69 42
119 74 45
128 79 48
138 85 52
146 91 55
152 94 57
157 97 59
160 99 60
160 99 60
157 97 59
153 95 58
146 90 55
138 86 52
128 79 48
119 74 45
111 69 42
104 64 39
99 61 37
96 60 36
96 59 36
98 60 37
101 63 38
108 67 41
115 71 44
125 77 47
134 83 51
159 99 60
160 99 60
159 99 60
156 96 59
150 93 57
143 88 54
133 82 50
124 77 47
115 71 43
108 67 41
101 62 38
97 60 37
95 59 36
96 59 36
99 61 37
105 65 39
112 69 42
120 74 45
129 80 49
139 86 52
146 90 55
153 95 58
157 97 60
160 99 61
160 99 60
158 98 60
152 94 57
145 90 55
137 85 52
128 79 48
119 74 45
111 69 42
104 64 39
98 61 37
96 59 36
96 59 36
97 60 37
102 63 38
108 67 41
116 72 44
125 77 47
134 83 51
144 89 54
150 93 57
157 97 59
160 99 60
161 99 61
158 98 60
155 96 59
149 92 56
140 87 53
133 82 50
123 76 46
114 70 43
106 66 40
101 62 38
97 60 36
95 59 36
96 59 36
99 61 37
106 66 40
113 70 43
122 75 46
130 80 49
160 99 60
160 99 60
159 98 60
155 96 59
149 92 56
142 88 54
134 83 50
124 77 47
114 71 43
108 67 41
102 63 38
97 60 36
95 59 36
96 59 36
99 61 37
105 65 40
112 69 42
121 75 46
129 80 49
138 85 52
146 90 55
152 94 58
157 97 60
160 99 61
160 99 60
156 97 59
151 94 57
144 89 55
137 85 52
129 80 49
118 73 45
111 69 42
104 64 39
98 60 37
96 59 36
95 59 36
97 60 37
102 63 38
109 67 41
116 72 44
125 78 47
134 83 51
143 89 54
150 93 57
156 97 59
159 98 60
161 99 61
158 98 60
155 96 58
148 92 56
141 87 53
131 81 50
123 76 47
114 71 43
106 65 40
101 62 38
97 60 36
95 58 36
97 60 37
99 61 37
105 65 40
113 70 43
122 75 46
130 81 49
159 99 60
160 99 60
158 98 60
152 94 58
146 90 55
138 85 52
129 80 49
120 74 45
112 69 42
104 64 39
100 62 38
96 59 36
95 59 36
98 60 37
102 63 38
108 67 41
115 71 43
124 77 47
134 83 51
142 88 54
149 92 56
156 96 59
160 99 60
160 99 60
159 98 60
156 96 59
150 93 57
142 88 54
133 82 50
123 76 47
115 71 43
108 67 41
101 62 38
97 60 37
96 59 36
96 59 36
99 61 37
105 65 39
112 69 42
120 74 45
130 81 49
139 86 52
147 91 56
154 95 58
157 97 59
160 99 61
159 99 60
156 97 59
152 94 57
145 90 55
137 85 52
128 79 48
119 73 45
110 68 41
103 64 39
98 61 37
96 59 36
96 59 36
97 60 37
103 64 39
108 67 41
116 72 44
126 78 48
135 84 51
160 99 61
159 98 60
154 95 58
147 91 56
140 86 53
131 81 49
122 75 46
113 70 43
105 65 40
100 62 38
96 60 36
95 59 36
97 60 37
101 62 38
106 66 40
114 71 43
123 76 46
132 82 50
140 87 53
148 92 56
154 95 58
158 98 60
159 99 60
159 99 60
156 97 59
151 93 57
143 89 54
135 83 51
126 78 48
116 72 44
109 67 41
102 63 38
98 60 37
95 59 36
95 59 36
99 61 37
103 64 39
111 69 42
119 74 45
128 79 48
137 85 52
145 90 55
152 94 57
157 97 60
160 99 60
161 99 61
158 98 60
153 94 58
147 91 56
138 86 52
129 80 49
121 75 46
112 69 42
105 65 39
100 62 38
96 59 36
95 59 36
97 60 37
102 63 38
108 67 41
115 71 43
124 77 47
134 83 50
142 88 54
157 97 60
153 95 58
146 90 55
138 85 52
128 79 49
120 74 45
111 69 42
104 64 39
99 61 37
96 60 36
96 59 36
98 60 37
102 63 38
108 67 41
116 71 44
125 77 47
134 83 51
143 88 54
150 93 57
156 96 59
159 98 60
161 99 61
159 98 60
156 96 59
149 92 56
141 87 53
132 82 50
124 76 47
114 71 43
108 67 41
101 63 38
96 60 36
96 59 36
96 59 36
100 62 38
105 65 40
113 70 42
121 75 46
130 81 49
139 86 52
147 91 55
153 95 58
158 98 60
159 99 60
160 99 60
157 97 59
152 94 57
145 90 55
136 84 51
128 79 48
118 73 45
111 68 42
103 64 39
99 61 37
96 59 36
95 59 36
98 61 37
102 63 38
109 68 41
117 73 44
126 78 48
135 84 51
143 88 54
150 93 57
150 93 57
141 87 53
134 83 50
124 77 47
115 71 43
107 66 40
101 62 38
97 60 37
96 59 36
96 59 36
99 61 37
105 65 39
112 69 42
121 75 46
130 81 49
139 86 52
147 91 55
154 95 58
158 98 60
161 99 61
160 99 61
158 98 60
152 94 57
145 90 55
137 85 52
127 79 48
119 73 45
111 69 42
104 64 39
99 61 37
96 59 36
95 59 36
97 60 37
103 64 39
109 67 41
117 73 44
125 78 47
134 83 51
143 88 54
150 93 57
155 96 59
160 99 60
160 99 61
159 98 60
155 96 58
148 92 56
141 87 53
132 82 50
123 76 46
114 70 43
106 66 40
101 62 38
97 60 37
95 59 36
96 59 36
99 61 37
105 65 40
113 70 43
121 75 46
131 81 49
139 86 52
147 91 56
154 95 58
157 97 60
135 83 51
125 77 47
116 72 44
108 67 41
102 63 38
97 60 37
96 59 36
95 59 36
99 61 37
104 65 39
111 68 42
120 74 45
128 79 48
137 85 52
146 90 55
152 94 57
157 97 59
160 99 60
161 99 61
157 97 59
153 95 58
147 91 55
138 86 52
129 80 49
120 74 45
111 69 42
105 65 40
98 61 37
97 60 36
95 59 36
97 60 37
101 63 38
107 66 40
116 72 44
124 76 47
134 83 50
142 88 54
149 92 56
155 96 58
159 98 60
160 99 61
158 98 60
155 96 59
149 92 56
142 88 54
134 83 50
124 77 47
116 72 44
108 66 41
102 63 38
98 60 37
95 59 36
95 59 36
99 61 37
105 65 40
111 69 42
121 75 45
129 80 49
138 85 52
146 90 55
153 95 58
157 97 59
161 99 61
160 99 60
115 71 44
108 67 41
102 63 38
97 60 37
95 59 36
97 60 36
99 61 37
104 65 39
112 69 42
121 75 46
129 80 49
138 85 52
147 91 56
153 95 58
158 98 60
160 99 61
159 99 60
158 98 60
152 94 58
145 90 55
138 85 52
129 80 49
119 73 45
111 69 42
104 64 39
99 61 37
96 60 36
96 59 36
97 60 36
102 63 38
108 67 41
117 72 44
125 77 47
134 83 51
143 88 54
150 93 57
156 97 59
160 99 60
160 99 61
159 98 60
155 96 58
148 92 56
142 88 53
132 82 50
123 76 47
114 71 43
107 66 40
100 62 38
97 60 36
95 59 36
97 60 37
100 62 38
105 65 40
113 70 43
121 75 46
131 81 49
140 86 53
147 91 55
153 95 58
159 98 60
161 99 61
160 99 60
156 97 59
152 94 57
100 62 38
96 60 36
95 59 36
97 60 36
101 62 38
106 66 40
115 71 43
124 76 47
132 82 50
140 87 53
149 92 56
155 96 58
158 98 60
161 100 61
159 98 60
155 96 59
150 93 57
143 89 54
135 83 51
126 78 47
116 72 44
109 67 41
102 63 38
97 60 37
95 59 36
96 60 36
99 61 37
104 64 39
111 68 42
120 74 45
129 80 49
137 85 52
146 90 55
153 94 58
157 97 59
160 99 60
160 99 60
157 97 60
152 94 58
147 91 55
138 86 52
129 80 49
120 74 45
111 69 42
105 65 40
100 62 38
95 59 36
95 59 36
98 60 37
101 63 38
108 67 41
116 72 44
125 77 47
133 82 50
142 88 54
150 93 57
155 96 59
159 98 60
160 99 60
159 98 60
155 96 59
149 92 56
141 88 53
134 83 50
96 59 36
98 61 37
104 64 39
111 69 42
119 74 45
128 79 48
137 85 52
145 90 55
153 95 58
157 97 59
160 99 61
160 99 60
158 98 60
153 95 58
147 91 56
139 86 52
129 80 49
121 75 46
112 69 42
104 64 39
99 61 37
96 60 36
96 59 36
97 60 36
101 62 38
108 67 41
115 71 43
123 76 47
133 82 50
142 88 54
149 92 56
155 96 58
159 98 60
161 99 61
158 98 60
156 96 59
149 92 56
143 88 54
133 82 50
125 77 47
116 72 44
107 66 40
101 63 38
98 60 37
95 59 36
96 59 36
100 62 38
104 65 39
111 68 42
120 74 45
129 80 49
138 86 52
146 90 55
153 95 58
158 98 60
159 99 60
160 99 61
158 98 60
152 94 57
145 90 55
137 85 52
128 79 48
120 74 45
112 69 42
108 67 41
115 71 43
124 77 47
133 82 50
142 88 54
149 92 56
156 96 59
160 99 60
161 100 61
159 99 60
155 96 59
149 92 56
142 88 54
133 82 50
124 76 47
115 71 44
108 67 41
101 62 38
97 60 36
95 59 36
96 59 36
99 61 37
105 65 40
113 70 42
121 75 46
130 80 49
139 86 52
146 90 55
153 95 58
158 98 60
160 99 61
160 99 60
157 97 59
152 94 57
145 90 55
137 85 52
128 79 48
119 74 45
111 68 42
104 64 39
99 61 37
96 59 36
95 59 36
98 61 37
102 63 39
108 67 41
116 72 44
125 77 47
134 83 51
143 89 54
151 93 57
156 97 59
159 98 60
160 99 61
158 98 60
154 96 58
149 92 56
140 87 53
131 81 50
123 76 46
114 70 43
107 66 40
101 63 38
97 60 36
130 81 49
139 86 53
148 92 56
154 95 58
158 98 60
160 99 60
160 99 61
156 97 59
152 94 57
144 89 55
137 85 52
127 79 48
118 73 44
109 68 41
104 64 39
99 61 37
96 59 36
95 59 36
98 60 37
103 63 39
110 68 41
118 73 45
126 78 48
136 84 51
144 89 54
151 93 57
156 96 59
160 99 61
160 99 61
158 98 60
154 95 58
147 91 56
140 87 53
131 81 49
121 75 46
114 71 43
105 65 40
101 62 38
97 60 36
96 59 36
97 60 36
101 62 38
106 65 40
114 71 43
123 76 46
132 82 50
141 87 53
148 92 56
155 96 59
159 98 60
160 99 60
160 99 60
156 96 59
150 93 57
143 89 54
135 84 51
125 77 47
116 72 44
110 68 41
102 63 38
98 60 37
96 59 36
95 59 36
98 60 37
152 94 57
157 97 60
159 99 60
160 99 61
157 97 59
153 95 58
147 91 56
139 86 53
130 80 49
122 75 46
112 69 42
105 65 40
100 62 38
97 60 36
95 59 36
97 60 37
101 63 38
106 66 40
115 71 44
124 77 47
132 82 50
142 88 54
149 92 56
154 95 58
159 99 60
161 99 61
159 98 60
156 97 59
150 93 57
143 88 54
134 83 51
125 77 47
117 72 44
109 67 41
102 63 39
97 60 37
96 59 36
95 59 36
99 61 37
104 64 39
111 68 42
120 74 45
128 79 48
138 85 52
146 90 55
152 94 57
157 97 59
160 99 61
159 99 60
158 98 60
153 95 58
146 90 55
138 85 52
128 79 48
120 74 45
111 69 42
105 65 39
99 61 37
96 59 36
95 59 36
97 60 37
101 63 38
108 67 41
116 71 44
161 100 61
159 98 60
155 96 59
150 93 57
143 88 54
133 83 50
125 77 47
116 72 44
108 67 41
102 63 38
98 61 37
95 59 36
96 59 36
99 61 37
105 65 39
112 69 42
120 74 45
129 80 49
139 86 52
146 90 55
153 94 58
157 97 59
160 99 61
161 99 61
158 98 60
152 94 58
145 90 55
138 85 52
128 79 48
119 74 45
112 69 42
104 65 39
100 62 38
96 59 36
95 59 36
98 60 37
101 63 38
107 66 41
116 72 44
124 77 47
133 83 50
143 89 54
150 93 57
155 96 59
159 98 60
160 99 61
159 98 60
155 96 59
149 92 56
141 87 53
132 82 50
124 76 47
115 71 43
107 66 40
101 62 38
97 60 36
95 59 36
97 60 36
100 62 38
105 65 40
112 69 42
121 75 46
130 81 49
138 86 52
153 95 58
147 91 55
139 86 52
129 80 49
121 75 46
111 69 42
104 65 39
100 62 38
96 59 36
95 59 36
97 60 37
102 63 38
107 66 40
115 71 43
124 77 47
133 82 50
142 88 54
149 92 56
155 96 59
159 99 60
160 99 60
160 99 60
156 96 59
150 93 57
143 88 54
133 83 50
124 77 47
115 71 43
107 66 40
102 63 38
97 60 37
95 59 36
96 60 36
100 62 38
104 64 39
111 69 42
120 74 45
129 80 49
138 85 52
146 90 55
153 95 58
158 98 60
160 99 61
160 99 60
157 97 59
152 94 57
146 90 55
137 85 52
128 79 48
119 74 45
111 69 42
104 64 39
99 61 37
96 59 36
95 59 36
98 60 37
102 63 38
108 67 41
116 71 44
125 77 47
134 83 51
143 89 54
150 93 57
156 97 59
135 84 51
127 79 48
118 73 44
109 68 41
103 64 39
98 60 37
96 59 36
96 59 36
99 61 37
102 63 39
110 68 41
118 73 44
127 79 48
136 84 51
144 89 55
151 94 57
156 97 59
160 99 60
160 99 61
158 98 60
155 96 58
148 91 56
140 87 53
131 81 50
122 75 46
114 70 43
106 66 40
99 61 37
96 59 36
95 59 36
97 60 37
100 62 38
106 66 40
114 70 43
123 76 46
133 82 50
140 87 53
148 92 56
155 96 59
159 98 60
160 99 60
159 98 60
156 97 59
151 94 57
144 89 54
134 83 51
126 78 48
116 72 44
109 67 41
103 64 39
97 60 37
95 59 36
96 59 36
99 61 37
104 64 39
110 68 41
118 73 45
127 79 48
138 85 52
145 90 55
152 94 58
158 98 60
160 99 61
161 99 61
117 72 44
110 68 41
102 63 38
97 60 37
95 59 36
96 59 36
98 61 37
103 64 39
110 68 42
119 73 45
128 79 48
136 84 51
144 89 55
152 94 58
157 97 60
160 99 61
161 100 61
159 98 60
153 95 58
147 91 56
138 86 52
130 80 49
120 75 45
113 70 43
106 65 40
99 61 37
96 59 36
96 59 36
97 60 37
101 62 38
107 66 40
114 71 43
123 76 46
132 82 50
142 88 54
149 92 56
155 96 58
159 99 60
160 99 60
159 98 60
155 96 59
150 93 57
142 88 54
135 83 51
125 77 47
116 72 44
109 67 41
102 63 38
97 60 36
96 59 36
96 59 36
99 61 37
103 64 39
111 68 42
120 74 45
129 80 49
137 85 52
145 90 55
153 95 58
157 97 59
160 99 61
159 99 60
158 98 60
153 95 58
103 64 39
99 61 37
95 59 36
95 59 36
97 60 36
102 63 38
108 67 41
116 72 44
125 77 47
134 83 51
143 89 54
150 93 57
156 97 59
159 98 60
161 99 61
159 98 60
155 96 58
149 92 56
141 87 53
132 82 50
123 76 47
115 71 43
106 66 40
101 62 38
96 59 36
96 59 36
97 60 36
99 61 37
105 65 40
113 70 43
121 75 46
130 80 49
140 86 53
147 91 56
153 95 58
158 98 60
160 99 60
160 99 60
156 97 59
152 94 57
145 90 55
136 84 51
127 78 48
119 73 45
109 68 41
102 63 39
98 61 37
96 59 36
96 59 36
98 60 37
102 63 39
110 68 41
117 73 44
126 78 47
136 84 51
143 89 54
150 93 57
156 97 59
159 99 60
160 99 60
159 98 60
154 95 58
148 92 56
140 87 53
97 60 36
96 59 36
96 59 36
99 61 37
105 65 40
113 70 43
121 75 46
129 80 49
139 86 52
147 91 55
153 95 58
158 98 60
161 99 61
160 99 61
157 97 59
151 94 57
144 89 55
137 85 52
128 79 48
119 73 45
110 68 41
104 64 39
98 61 37
96 59 36
95 59 36
98 60 37
102 63 39
109 67 41
116 72 44
125 77 47
135 83 51
143 88 54
151 94 57
157 97 59
159 99 60
161 100 61
158 98 60
155 96 58
149 92 56
141 87 53
132 81 50
123 76 46
114 70 43
107 66 40
100 62 38
97 60 37
96 59 36
97 60 37
100 62 38
106 65 40
113 70 43
122 75 46
130 80 49
140 87 53
147 91 56
154 96 58
158 98 60
160 99 60
160 99 60
157 97 59
152 94 57
144 89 55
135 84 51
126 78 48
96 59 36
97 60 36
99 61 37
105 65 40
114 70 43
121 75 46
131 81 49
140 86 53
147 91 56
153 95 58
157 97 60
160 99 61
160 99 60
157 97 59
151 93 57
144 89 54
135 84 51
127 79 48
118 73 44
110 68 41
103 64 39
98 61 37
95 59 36
95 59 36
98 60 37
103 64 39
110 68 41
118 73 44
127 79 48
136 84 51
144 89 55
152 94 57
156 96 59
160 99 61
160 99 61
158 98 60
155 96 58
147 91 56
140 87 53
132 81 50
122 75 46
113 70 43
106 65 40
99 61 37
96 60 36
96 59 36
96 59 36
100 62 38
106 66 40
114 71 43
123 76 47
132 82 50
141 87 53
148 92 56
154 96 58
158 98 60
160 99 61
159 99 60
156 97 59
151 93 57
144 89 54
134 83 51
125 78 47
117 72 44
96 59 36
99 61 37
104 64 39
112 69 42
119 73 45
129 80 49
137 85 52
146 90 55
152 94 58
157 97 59
160 99 60
160 99 61
158 98 60
153 95 58
146 90 55
138 86 52
129 80 49
120 74 45
112 69 42
105 65 39
99 61 37
96 59 36
95 59 36
97 60 36
101 62 38
107 66 40
115 71 43
125 77 47
133 82 50
142 88 54
149 92 56
155 96 59
159 99 60
161 100 61
159 98 60
155 96 58
149 92 56
142 88 54
133 83 50
124 77 47
116 72 44
108 67 41
101 63 38
98 60 37
95 58 36
97 60 36
99 61 37
104 64 39
111 69 42
120 74 45
130 80 49
138 85 52
147 91 55
153 95 58
158 98 60
160 99 60
159 99 60
158 98 60
152 94 57
145 90 55
136 84 52
128 79 48
119 74 45
112 69 42
96 60 36
100 62 38
106 66 40
113 70 43
122 76 46
131 81 49
140 86 53
148 91 56
154 95 58
159 98 60
161 99 61
159 98 60
156 97 59
151 93 57
144 89 54
135 83 51
126 78 48
117 72 44
109 67 41
102 63 38
98 61 37
95 59 36
95 59 36
98 60 37
104 64 39
110 68 41
119 74 45
127 78 48
136 84 51
145 90 55
151 94 57
157 97 59
160 99 60
160 99 61
157 97 59
154 95 58
147 91 56
138 86 52
130 80 49
122 75 46
113 70 43
106 66 40
100 62 38
96 59 36
96 59 36
98 60 37
101 62 38
107 66 40
115 71 43
123 76 46
133 82 50
140 87 53
149 92 56
154 96 58
159 98 60
160 99 61
160 99 60
156 96 59
151 93 57
142 88 54
134 83 51
125 77 47
116 72 44
108 67 41
96 59 36
100 62 38
106 66 40
113 70 43
122 76 46
131 81 49
140 87 53
147 91 56
153 95 58
158 98 60
160 99 60
159 98 60
156 97 59
152 94 57
144 89 54
136 84 51
127 78 48
117 72 44
110 68 41
103 64 39
98 60 37
96 59 36
96 59 36
97 60 37
103 64 39
110 68 41
117 73 44
127 79 48
135 84 51
144 89 54
151 93 57
157 97 59
160 99 61
160 99 61
158 98 60
154 95 58
147 91 56
140 87 53
130 81 49
122 76 46
112 70 42
105 65 40
99 61 37
96 60 36
95 59 36
96 60 36
101 62 38
106 66 40
115 71 43
123 76 46
132 82 50
141 87 53
148 92 56
155 96 59
158 98 60
161 100 61
159 99 60
156 97 59
151 93 57
144 89 54
134 83 51
126 78 47
117 72 44
108 67 41
96 60 36
97 60 37
103 64 39
110 68 41
117 73 44
127 78 48
136 84 51
144 89 54
152 94 57
157 97 59
159 99 60
161 99 61
158 98 60
153 95 58
147 91 56
140 87 53
130 81 49
121 75 46
114 70 43
106 65 40
100 62 38
97 60 37
96 59 36
97 60 37
100 62 38
107 66 40
114 70 43
122 76 46
132 82 50
141 87 53
148 92 56
155 96 58
158 98 60
161 99 61
159 99 60
156 97 59
150 93 57
144 89 54
134 83 51
126 78 48
117 72 44
109 67 41
102 63 38
98 60 37
96 59 36
96 59 36
98 61 37
103 64 39
110 68 42
119 74 45
128 79 48
137 85 52
145 90 55
153 94 58
157 97 59
160 99 60
160 99 60
158 98 60
153 95 58
147 91 56
139 86 52
130 80 49
120 74 45
112 69 42
96 59 36
95 59 36
99 61 37
104 64 39
111 69 42
119 73 45
128 79 48
138 85 52
145 90 55
152 94 57
157 97 59
159 99 60
160 99 61
157 97 59
152 94 58
147 91 55
139 86 52
129 80 49
120 74 45
113 70 42
105 65 40
100 62 38
95 59 36
95 59 36
97 60 36
102 63 38
107 66 40
115 71 44
124 77 47
134 83 50
142 88 54
150 93 57
155 96 58
159 98 60
160 99 60
158 98 60
156 96 59
149 92 56
142 88 53
133 82 50
125 77 47
116 71 44
108 67 41
101 62 38
98 60 37
96 59 36
96 59 36
99 61 37
104 64 39
112 69 42
120 74 45
129 80 49
137 85 52
146 90 55
153 94 58
158 98 60
160 99 60
161 99 61
158 98 60
152 94 57
145 90 55
137 84 52
128 79 48
119 74 45
99 61 37
95 59 36
95 59 36
98 61 37
102 63 38
110 68 41
117 73 44
127 78 48
135 83 51
143 89 54
151 93 57
156 97 59
159 99 60
160 99 60
158 98 60
155 96 58
148 92 56
140 87 53
132 82 50
122 75 46
114 71 43
106 66 40
101 62 38
96 59 36
96 59 36
97 60 36
100 62 38
105 65 40
113 70 43
123 76 46
131 81 50
140 87 53
147 91 56
154 95 58
158 98 60
160 99 60
160 99 61
157 97 59
151 93 57
143 89 54
135 83 51
127 78 48
117 72 44
109 68 41
102 63 38
98 61 37
95 59 36
96 59 36
99 61 37
103 64 39
110 68 42
118 73 45
128 79 48
136 84 51
144 89 55
151 94 57
157 97 60
159 99 60
161 99 61
158 98 60
153 95 58
147 91 56
139 86 52
131 81 49
107 66 40
101 62 38
97 60 36
95 59 36
96 59 36
100 62 38
105 65 40
112 69 42
121 75 46
129 80 49
139 86 53
147 91 55
154 95 58
158 98 60
159 99 60
160 99 60
157 97 59
151 94 57
145 90 55
136 84 51
128 79 48
118 73 44
110 68 41
103 64 39
99 61 37
95 59 36
95 59 36
98 60 37
103 63 39
109 67 41
118 73 45
127 78 48
135 83 51
144 89 54
151 93 57
156 97 59
160 99 60
160 99 60
158 98 60
154 95 58
148 91 56
140 87 53
131 81 49
122 76 46
114 70 43
106 65 40
101 62 38
97 60 37
96 59 36
96 60 36
101 62 38
106 66 40
114 70 43
122 75 46
130 81 49
139 86 53
148 92 56
154 96 58
159 98 60
160 99 60
159 98 60
157 97 59
150 93 57
144 89 54
122 75 46
114 71 43
106 66 40
100 62 38
97 60 37
95 59 36
97 60 36
100 62 38
105 65 40
113 70 43
122 75 46
131 81 49
140 87 53
148 92 56
154 95 58
159 98 60
160 99 60
159 98 60
156 96 59
151 93 57
144 89 54
135 83 51
126 78 48
117 73 44
109 67 41
102 63 38
98 61 37
96 59 36
95 59 36
98 61 37
103 64 39
109 68 41
118 73 45
127 79 48
136 84 51
144 89 55
151 94 57
156 97 59
159 99 60
160 99 60
158 98 60
154 95 58
147 91 56
140 86 53
130 80 49
121 75 46
113 70 42
106 65 40
100 62 38
96 59 36
96 59 36
98 60 37
101 62 38
107 66 40
114 71 43
123 76 46
133 82 50
141 87 53
149 92 56
156 96 59
158 98 60
160 99 61
159 98 60
156 96 59
141 87 53
133 82 50
123 76 47
114 71 43
107 66 40
101 63 38
97 60 37
95 59 36
96 59 36
99 61 37
105 65 40
113 70 43
121 75 46
130 80 49
139 86 52
147 91 56
153 95 58
159 98 60
160 99 60
159 99 60
157 97 59
152 94 57
145 89 55
136 84 51
127 79 48
118 73 45
110 68 42
103 64 39
98 61 37
95 59 36
95 59 36
99 61 37
103 63 39
110 68 41
117 72 44
126 78 47
134 83 51
143 89 54
151 94 57
157 97 59
160 99 60
161 99 61
158 98 60
155 96 58
148 92 56
140 87 53
132 81 50
123 76 46
113 70 43
106 65 40
100 62 38
97 60 37
96 59 36
97 60 36
100 62 38
106 66 40
114 71 43
122 76 46
131 81 49
140 87 53
148 92 56
154 95 58
159 98 60
160 99 60
157 97 59
152 94 57
143 89 54
135 84 51
126 78 48
118 73 44
109 67 41
102 63 39
99 61 37
95 59 36
96 59 36
98 61 37
104 64 39
111 68 42
118 73 45
127 79 48
136 84 51
145 90 55
152 94 57
156 97 59
160 99 61
161 100 61
158 98 60
154 96 58
147 91 56
139 86 52
130 81 49
122 75 46
112 69 42
105 65 40
99 61 37
96 59 36
95 59 36
97 60 36
101 62 38
107 66 40
114 70 43
123 76 46
133 82 50
141 87 53
148 92 56
154 95 58
159 98 60
160 99 60
159 98 60
155 96 59
151 93 57
143 89 54
134 83 51
125 78 47
117 72 44
109 67 41
102 63 38
97 60 37
96 59 36
95 59 36
98 61 37
103 64 39
110 68 42
119 73 45
129 80 49
137 85 52
145 90 55
152 94 57
159 99 60
161 99 61
158 98 60
155 96 58
148 92 56
140 86 53
131 81 49
122 75 46
114 70 43
106 66 40
100 62 38
97 60 36
95 58 36
97 60 36
101 62 38
106 65 40
114 70 43
123 76 46
131 81 49
140 87 53
149 92 56
154 95 58
159 98 60
161 99 61
159 98 60
157 97 59
152 94 57
143 89 54
135 84 51
126 78 48
117 73 44
110 68 41
102 63 38
99 61 37
95 59 36
96 59 36
99 61 37
104 64 39
110 68 41
119 73 45
127 79 48
136 84 51
145 90 55
152 94 57
157 97 59
159 99 60
161 99 61
158 98 60
153 95 58
147 91 56
139 86 53
131 81 49
121 75 46
113 70 43
106 65 40
100 62 38
96 59 36
96 59 36
98 60 37
100 62 38
107 66 40
115 71 43
123 76 46
132 82 50
146 90 55
153 95 58
158 98 60
160 99 60
160 99 60
157 97 59
151 94 57
144 89 55
136 84 51
127 79 48
119 74 45
111 69 42
104 64 39
98 61 37
95 59 36
96 59 36
98 61 37
102 63 39
109 67 41
117 72 44
126 78 48
135 83 51
143 88 54
151 93 57
157 97 59
159 98 60
161 100 61
158 98 60
155 96 58
149 92 56
140 87 53
132 82 50
122 76 46
114 71 43
106 66 40
100 62 38
97 60 37
95 58 36
96 60 36
99 61 37
105 65 40
113 70 43
122 75 46
131 81 49
140 87 53
147 91 56
153 95 58
158 98 60
160 99 61
159 98 60
156 96 59
151 94 57
144 89 54
136 84 51
126 78 48
118 73 44
109 68 41
103 64 39
98 61 37
96 59 36
96 59 36
98 61 37
103 64 39
110 68 41
124 77 47
133 82 50
142 88 54
149 92 56
155 96 59
158 98 60
160 99 61
160 99 60
155 96 59
150 93 57
142 88 54
134 83 50
124 77 47
116 72 44
107 66 40
102 63 39
97 60 37
95 59 36
95 59 36
99 61 37
104 64 39
112 69 42
120 74 45
128 79 48
138 85 52
146 90 55
152 94 57
158 98 60
160 99 60
161 99 61
157 97 60
152 94 58
146 91 55
137 85 52
128 79 49
120 74 45
112 69 42
104 64 39
99 61 37
96 60 36
96 59 36
98 61 37
102 63 38
108 67 41
116 72 44
125 77 47
134 83 51
143 88 54
150 93 57
155 96 59
158 98 60
160 99 61
159 99 60
156 96 59
149 92 56
142 88 54
133 82 50
124 77 47
115 71 43
108 67 41
101 63 38
96 60 36
96 59 36
96 59 36
